thejerrycheng/MEng_project/mpr_control/unitree_actuator_sdk/python/manual_session_20260114_144752.csv
timestamp,elapsed,j0,j1,j2,j3,j4,j5
1768420073.393417,0.011831521987915039,-14.510916709899902,33.498958587646484,-8.013726234436035,21.29630470275879,2.92549991607666,2.4254209995269775
1768420073.4152966,0.03371143341064453,-14.510725021362305,33.498958587646484,-8.013726234436035,21.296497344970703,2.9253082275390625,2.4254209995269775
1768420073.437303,0.05571794509887695,-14.510916709899902,33.498958587646484,-8.013534545898438,21.296497344970703,2.9253082275390625,2.4254209995269775
1768420073.459304,0.07771873474121094,-14.510916709899902,33.499149322509766,-8.013534545898438,21.296688079833984,2.9253082275390625,2.4254209995269775
1768420073.4813125,0.09972739219665527,-14.510916709899902,33.498958587646484,-8.01334285736084,21.296497344970703,2.9253082275390625,2.42522931098938
1768420073.5032904,0.1217050552368164,-14.510916709899902,33.499149322509766,-8.013534545898438,21.296497344970703,2.92549991607666,2.4254209995269775
1768420073.5252895,0.14370417594909668,-14.510916709899902,33.498958587646484,-8.013534545898438,21.296688079833984,2.9253082275390625,2.4254209995269775
1768420073.5473049,0.16571974754333496,-14.510725021362305,33.499149322509766,-8.013534545898438,21.296497344970703,2.9253082275390625,2.4254209995269775
1768420073.569235,0.18765020370483398,-14.510916709899902,33.499149322509766,-8.013534545898438,21.296688079833984,2.9253082275390625,2.425612688064575
1768420073.591295,0.20970988273620605,-14.510725021362305,33.498958587646484,-8.013726234436035,21.296497344970703,2.9253082275390625,2.4254209995269775
1768420073.6132843,0.23169922828674316,-14.510916709899902,33.498958587646484,-8.013534545898438,21.296497344970703,2.9253082275390625,2.4254209995269775
1768420073.6352477,0.2536633014678955,-14.510725021362305,33.498958587646484,-8.013726234436035,21.296497344970703,2.9253082275390625,2.4254209995269775
1768420073.6572502,0.2756662368774414,-14.5111083984375,33.499149322509766,-8.013726234436035,21.296497344970703,2.9253082275390625,2.4254209995269775
1768420073.6792324,0.29764747619628906,-14.510916709899902,33.499149322509766,-8.013534545898438,21.296688079833984,2.9253082275390625,2.4254209995269775
1768420073.7012317,0.31964707374572754,-14.510916709899902,33.499149322509766,-8.013534545898438,21.296497344970703,2.9253082275390625,2.4254209995269775
1768420073.7232332,0.34164857864379883,-14.510916709899902,33.499149322509766,-8.013534545898438,21.296688079833984,2.92549991607666,2.4254209995269775
1768420073.7452066,0.36362171173095703,-14.510916709899902,33.499149322509766,-8.013534545898438,21.296497344970703,2.9253082275390625,2.425612688064575
1768420073.7672768,0.38569164276123047,-14.510916709899902,33.499149322509766,-8.01334285736084,21.296497344970703,2.9253082275390625,2.425612688064575
1768420073.7892861,0.4077010154724121,-14.510916709899902,33.498958587646484,-8.013534545898438,21.296497344970703,2.9253082275390625,2.425612688064575
1768420073.8111987,0.4296138286590576,-14.510916709899902,33.499149322509766,-8.01334285736084,21.296497344970703,2.92549991607666,2.4254209995269775
1768420073.833206,0.45162153244018555,-14.510725021362305,33.499149322509766,-8.013534545898438,21.296497344970703,2.9253082275390625,2.4254209995269775
1768420073.8552668,0.4736816883087158,-14.510916709899902,33.499149322509766,-8.013534545898438,21.296497344970703,2.925116539001465,2.42522931098938
1768420073.8772058,0.4956209659576416,-14.5111083984375,33.499149322509766,-8.013534545898438,21.296688079833984,2.9253082275390625,2.4254209995269775
1768420073.8992064,0.5176217555999756,-14.510916709899902,33.4987678527832,-8.013534545898438,21.296497344970703,2.9253082275390625,2.4254209995269775
1768420073.9212718,0.5396864414215088,-14.510725021362305,33.498958587646484,-8.01334285736084,21.296688079833984,2.9253082275390625,2.425612688064575
1768420073.9432635,0.5616781711578369,-14.5111083984375,33.499149322509766,-8.013534545898438,21.296497344970703,2.9253082275390625,2.4254209995269775
1768420073.9652581,0.5836732387542725,-14.510916709899902,33.499149322509766,-8.013726234436035,21.296497344970703,2.9253082275390625,2.425612688064575
1768420073.9873455,0.6057603359222412,-14.510725021362305,33.498958587646484,-8.01334285736084,21.296688079833984,2.9253082275390625,2.4254209995269775
1768420074.00927,0.6276853084564209,-14.5111083984375,33.498958587646484,-8.013726234436035,21.296497344970703,2.9253082275390625,2.4254209995269775
1768420074.0311918,0.6496071815490723,-14.510916709899902,33.498958587646484,-8.013534545898438,21.29630470275879,2.92549991607666,2.4254209995269775
1768420074.0531871,0.6716024875640869,-14.510916709899902,33.498958587646484,-8.013534545898438,21.296497344970703,2.9253082275390625,2.42522931098938
1768420074.0752478,0.6936633586883545,-14.5111083984375,33.498958587646484,-8.013534545898438,21.29630470275879,2.9253082275390625,2.4254209995269775
1768420074.0972402,0.7156558036804199,-14.5111083984375,33.499149322509766,-8.013534545898438,21.296497344970703,2.9253082275390625,2.42522931098938
1768420074.119242,0.7376573085784912,-14.510916709899902,33.498958587646484,-8.013534545898438,21.296688079833984,2.9253082275390625,2.42522931098938
1768420074.1412385,0.7596533298492432,-14.510916709899902,33.499149322509766,-8.013534545898438,21.29630470275879,2.925116539001465,2.4254209995269775
1768420074.1632733,0.7816882133483887,-14.510916709899902,33.499149322509766,-8.013726234436035,21.296497344970703,2.9253082275390625,2.4254209995269775
1768420074.1852496,0.8036649227142334,-14.5111083984375,33.498958587646484,-8.013534545898438,21.296497344970703,2.9253082275390625,2.42522931098938
1768420074.2072394,0.8256545066833496,-14.510916709899902,33.499149322509766,-8.013534545898438,21.296497344970703,2.9253082275390625,2.4254209995269775
1768420074.2292302,0.8476455211639404,-14.5111083984375,33.498958587646484,-8.013534545898438,21.296497344970703,2.92549991607666,2.42522931098938
1768420074.2512386,0.8696537017822266,-14.510916709899902,33.4987678527832,-8.013534545898438,21.296497344970703,2.9253082275390625,2.4254209995269775
1768420074.2732275,0.8916425704956055,-14.510916709899902,33.498958587646484,-8.013534545898438,21.296688079833984,2.9253082275390625,2.4254209995269775
1768420074.29523,0.9136452674865723,-14.510916709899902,33.498958587646484,-8.013534545898438,21.296497344970703,2.9253082275390625,2.42522931098938
1768420074.3172002,0.935615062713623,-14.510916709899902,33.499149322509766,-8.013726234436035,21.29630470275879,2.9253082275390625,2.4254209995269775
1768420074.3392391,0.9576544761657715,-14.510725021362305,33.499149322509766,-8.013534545898438,21.296497344970703,2.9253082275390625,2.4254209995269775
1768420074.3613,0.9797146320343018,-14.510916709899902,33.499149322509766,-8.013726234436035,21.296497344970703,2.9253082275390625,2.42522931098938
1768420074.3832688,1.0016837120056152,-14.510725021362305,33.498958587646484,-8.013726234436035,21.296497344970703,2.9253082275390625,2.4254209995269775
1768420074.4051466,1.023561954498291,-14.510916709899902,33.498958587646484,-8.013534545898438,21.296688079833984,2.9253082275390625,2.425612688064575
1768420074.427128,1.0455427169799805,-14.510916709899902,33.4987678527832,-8.013726234436035,21.29630470275879,2.9253082275390625,2.4254209995269775
1768420074.4491618,1.0675764083862305,-14.510725021362305,33.498958587646484,-8.013534545898438,21.296497344970703,2.9253082275390625,2.4254209995269775
1768420074.4711473,1.0895626544952393,-14.510725021362305,33.499149322509766,-8.013534545898438,21.29630470275879,2.925116539001465,2.4254209995269775
1768420074.493203,1.1116178035736084,-14.510725021362305,33.499149322509766,-8.01334285736084,21.296497344970703,2.9253082275390625,2.425612688064575
1768420074.5152006,1.133615255355835,-14.510916709899902,33.499149322509766,-8.013534545898438,21.296688079833984,2.92549991607666,2.425612688064575
1768420074.5371473,1.1555628776550293,-14.510533332824707,33.498958587646484,-8.013726234436035,21.296497344970703,2.9253082275390625,2.4254209995269775
1768420074.5591466,1.1775622367858887,-14.510725021362305,33.498958587646484,-8.013534545898438,21.296497344970703,2.9253082275390625,2.4254209995269775
1768420074.5811348,1.1995506286621094,-14.510725021362305,33.498958587646484,-8.013534545898438,21.296497344970703,2.9253082275390625,2.4254209995269775
1768420074.60321,1.2216250896453857,-14.510725021362305,33.499149322509766,-8.013534545898438,21.296497344970703,2.925116539001465,2.4254209995269775
1768420074.6251464,1.2435612678527832,-14.510725021362305,33.499149322509766,-8.013534545898438,21.296497344970703,2.9253082275390625,2.4254209995269775
1768420074.6472204,1.2656359672546387,-14.510916709899902,33.498958587646484,-8.01334285736084,21.296497344970703,2.92549991607666,2.425804615020752
1768420074.6691377,1.287552833557129,-14.510725021362305,33.498958587646484,-8.013534545898438,21.29630470275879,2.92549991607666,2.4254209995269775
1768420074.6911087,1.3095238208770752,-14.510916709899902,33.4987678527832,-8.013534545898438,21.296497344970703,2.92549991607666,2.4254209995269775
1768420074.7131364,1.3315513134002686,-14.510725021362305,33.499149322509766,-8.013534545898438,21.296497344970703,2.9253082275390625,2.425612688064575
1768420074.7351205,1.3535361289978027,-14.510916709899902,33.4987678527832,-8.013726234436035,21.296497344970703,2.9253082275390625,2.4254209995269775
1768420074.7571166,1.3755319118499756,-14.5111083984375,33.49934387207031,-8.013726234436035,21.296497344970703,2.9253082275390625,2.425612688064575
1768420074.7791846,1.397599458694458,-14.510725021362305,33.4987678527832,-8.01334285736084,21.296497344970703,2.9253082275390625,2.425612688064575
1768420074.80111,1.419525384902954,-14.5111083984375,33.498958587646484,-8.01334285736084,21.296497344970703,2.92549991607666,2.425612688064575
1768420074.823115,1.441530466079712,-14.510916709899902,33.498958587646484,-8.013726234436035,21.296688079833984,2.9253082275390625,2.425612688064575
1768420074.8451104,1.4635257720947266,-14.510916709899902,33.499149322509766,-8.013534545898438,21.29630470275879,2.9253082275390625,2.4254209995269775
1768420074.8671114,1.4855263233184814,-14.511300086975098,33.4987678527832,-8.01334285736084,21.295921325683594,2.9253082275390625,2.42522931098938
1768420074.8891246,1.5075397491455078,-14.511491775512695,33.4987678527832,-8.013534545898438,21.295730590820312,2.92549991607666,2.4254209995269775
1768420074.9111571,1.5295722484588623,-14.511876106262207,33.4987678527832,-8.013534545898438,21.2955379486084,2.9253082275390625,2.42522931098938
1768420074.9331686,1.5515835285186768,-14.512067794799805,33.498382568359375,-8.013726234436035,21.29496192932129,2.9253082275390625,2.4254209995269775
1768420074.9551547,1.5735695362091064,-14.51321792602539,33.49800109863281,-8.013534545898438,21.294387817382812,2.9253082275390625,2.42522931098938
1768420074.9771805,1.595595359802246,-14.51628589630127,33.498191833496094,-8.01410961151123,21.2955379486084,2.9253082275390625,2.4254209995269775
1768420074.9990897,1.6175050735473633,-14.521655082702637,33.498191833496094,-8.014492988586426,21.29496192932129,2.925116539001465,2.4254209995269775
1768420075.0210876,1.6395032405853271,-14.525298118591309,33.498382568359375,-8.019670486450195,21.293045043945312,2.925116539001465,2.42522931098938
1768420075.0431483,1.6615629196166992,-14.531434059143066,33.49857711791992,-8.032134056091309,21.2955379486084,2.92549991607666,2.4250376224517822
1768420075.065147,1.6835615634918213,-14.540637969970703,33.49857711791992,-8.045747756958008,21.300140380859375,2.92549991607666,2.423887014389038
1768420075.0871403,1.7055549621582031,-14.540637969970703,33.498958587646484,-8.062813758850098,21.312219619750977,2.9253082275390625,2.4231200218200684
1768420075.1091447,1.7275595664978027,-14.5408296585083,33.499149322509766,-8.074702262878418,21.331010818481445,2.925691604614258,2.4213943481445312
1768420075.1311457,1.7495605945587158,-14.538145065307617,33.499725341796875,-8.079303741455078,21.353830337524414,2.925691604614258,2.4206273555755615
1768420075.153135,1.7715497016906738,-14.53277587890625,33.499725341796875,-8.087549209594727,21.36763572692871,2.925691604614258,2.4206273555755615
1768420075.1750822,1.79349684715271,-14.521655082702637,33.499534606933594,-8.100971221923828,21.379331588745117,2.925691604614258,2.419860363006592
1768420075.1972084,1.8156232833862305,-14.516094207763672,33.499534606933594,-8.135293960571289,21.40598487854004,2.9258835315704346,2.4189016819000244
1768420075.2191625,1.8375778198242188,-14.509191513061523,33.49781036376953,-8.199721336364746,21.466768264770508,2.92626690864563,2.416792392730713
1768420075.2411299,1.8595452308654785,-14.481771469116211,33.49301528930664,-8.258204460144043,21.54711151123047,2.9264585971832275,2.4164087772369385
1768420075.2631347,1.8815500736236572,-14.44150447845459,33.477481842041016,-8.328001022338867,21.604827880859375,2.9266505241394043,2.4164087772369385
1768420075.285074,1.903489351272583,-14.394142150878906,33.45466613769531,-8.446118354797363,21.660818099975586,2.9266505241394043,2.414874792098999
1768420075.3070595,1.9254746437072754,-14.386664390563965,33.421875,-8.5406494140625,21.688045501708984,2.9266505241394043,2.4152584075927734
1768420075.3291152,1.9475305080413818,-14.369023323059082,33.39023971557617,-8.660683631896973,21.685745239257812,2.9266505241394043,2.4152584075927734
1768420075.351056,1.9694712162017822,-14.353683471679688,33.364925384521484,-8.805261611938477,21.685169219970703,2.9270339012145996,2.415066719055176
1768420075.3730757,1.9914913177490234,-14.353875160217285,33.34364318847656,-8.914366722106934,21.685169219970703,2.926842212677002,2.4152584075927734
1768420075.3950608,2.0134761333465576,-14.350615501403809,33.2552490234375,-9.01618480682373,21.684019088745117,2.926842212677002,2.415450096130371
1768420075.4170635,2.0354788303375244,-14.347930908203125,33.18410873413086,-9.165173530578613,21.685169219970703,2.9270339012145996,2.4152584075927734
1768420075.439058,2.057473659515381,-14.347164154052734,33.1074104309082,-9.242256164550781,21.68267822265625,2.9272255897521973,2.4156417846679688
1768420075.4610536,2.0794692039489746,-14.347355842590332,33.024574279785156,-9.391243934631348,21.67999267578125,2.9272255897521973,2.415450096130371
1768420075.4831204,2.1015350818634033,-14.348122596740723,32.9286994934082,-9.491720199584961,21.67999267578125,2.9270339012145996,2.4156417846679688
1768420075.5050526,2.1234681606292725,-14.348697662353516,32.828033447265625,-9.563241958618164,21.678075790405273,2.926842212677002,2.415450096130371
1768420075.5270262,2.1454410552978516,-14.3513822555542,32.72525405883789,-9.670812606811523,21.675006866455078,2.9270339012145996,2.4152584075927734
1768420075.5490508,2.167465925216675,-14.351958274841309,32.629764556884766,-9.706286430358887,21.66791343688965,2.926842212677002,2.416025400161743
1768420075.5710933,2.1895081996917725,-14.354066848754883,32.493431091308594,-9.814623832702637,21.6610107421875,2.9270339012145996,2.416025400161743
1768420075.593042,2.2114570140838623,-14.362504005432129,32.37531661987305,-9.826895713806152,21.65890121459961,2.9266505241394043,2.416217088699341
1768420075.6150281,2.233443260192871,-14.365571975708008,32.262760162353516,-9.874448776245117,21.65142250061035,2.926842212677002,2.416025400161743
1768420075.6370287,2.255444049835205,-14.371132850646973,32.1302604675293,-9.886337280273438,21.64509391784668,2.926842212677002,2.416025400161743
1768420075.6590118,2.2774271965026855,-14.37439250946045,32.00658416748047,-9.887680053710938,21.641450881958008,2.926842212677002,2.4158337116241455
1768420075.681026,2.299441337585449,-14.37726879119873,31.888275146484375,-9.887104988098145,21.63800048828125,2.9266505241394043,2.416025400161743
1768420075.7030325,2.3214480876922607,-14.379761695861816,31.774761199951172,-9.88614559173584,21.62553596496582,2.926842212677002,2.416025400161743
1768420075.7250261,2.3434414863586426,-14.382445335388184,31.647247314453125,-9.884803771972656,21.60386848449707,2.926842212677002,2.416025400161743
1768420075.7470243,2.3654398918151855,-14.38187026977539,31.549840927124023,-9.884228706359863,21.564176559448242,2.9270339012145996,2.4158337116241455
1768420075.76904,2.387455463409424,-14.379570007324219,31.467580795288086,-9.884612083435059,21.482492446899414,2.9270339012145996,2.416025400161743
1768420075.7910242,2.4094398021698,-14.376309394836426,31.388004302978516,-9.888063430786133,21.39006996154785,2.926842212677002,2.416217088699341
1768420075.813021,2.431436061859131,-14.366338729858398,31.295007705688477,-9.902636528015137,21.312986373901367,2.926842212677002,2.416025400161743
1768420075.835083,2.453497886657715,-14.353300094604492,31.234222412109375,-9.939835548400879,21.290935516357422,2.9270339012145996,2.416025400161743
1768420075.8570535,2.475468873977661,-14.340644836425781,31.165193557739258,-9.987771987915039,21.2982234954834,2.926842212677002,2.4158337116241455
1768420075.8790107,2.4974257946014404,-14.331249237060547,31.112462997436523,-10.000618934631348,21.29841423034668,2.926842212677002,2.416217088699341
1768420075.9010215,2.519436836242676,-14.302870750427246,31.057239532470703,-10.037627220153809,21.299564361572266,2.9270339012145996,2.416025400161743
1768420075.923001,2.5414164066314697,-14.268355369567871,31.000099182128906,-10.053542137145996,21.300140380859375,2.926842212677002,2.4158337116241455
1768420075.9449987,2.5634140968322754,-14.227896690368652,30.958871841430664,-10.077126502990723,21.302824020385742,2.9270339012145996,2.4156417846679688
1768420075.9670498,2.5854647159576416,-14.215624809265137,30.918413162231445,-10.101478576660156,21.307233810424805,2.926842212677002,2.416025400161743
1768420075.9890642,2.6074795722961426,-14.19069766998291,30.880830764770508,-10.147114753723145,21.308576583862305,2.9270339012145996,2.416025400161743
1768420076.0110614,2.629477024078369,-14.17113971710205,30.834428787231445,-10.172616958618164,21.30876922607422,2.9270339012145996,2.416217088699341
1768420076.03306,2.651475429534912,-14.158100128173828,30.80068016052246,-10.211925506591797,21.3089599609375,2.9270339012145996,2.416025400161743
1768420076.0551157,2.6735305786132812,-14.132597923278809,30.772686004638672,-10.264081001281738,21.3089599609375,2.926842212677002,2.416025400161743
1768420076.0770276,2.6954429149627686,-14.117066383361816,30.746416091918945,-10.324865341186523,21.308576583862305,2.926842212677002,2.4158337116241455
1768420076.0990584,2.7174737453460693,-14.107670783996582,30.71957015991211,-10.358037948608398,21.30819320678711,2.926842212677002,2.416025400161743
1768420076.1210504,2.7394657135009766,-14.086770057678223,30.697328567504883,-10.423423767089844,21.307043075561523,2.9272255897521973,2.4156417846679688
1768420076.143058,2.7614736557006836,-14.075264930725098,30.67681121826172,-10.479413986206055,21.306659698486328,2.9281845092773438,2.415450096130371
1768420076.1650586,2.7834739685058594,-14.068937301635742,30.657060623168945,-10.509902000427246,21.30685043334961,2.9287595748901367,2.4146831035614014
1768420076.1870277,2.8054425716400146,-14.062993049621582,30.63577651977539,-10.540390014648438,21.310495376586914,2.9314441680908203,2.3970422744750977
1768420076.2090557,2.8274712562561035,-14.053214073181152,30.620628356933594,-10.55285358428955,21.31989097595215,2.9494683742523193,2.343928098678589
1768420076.231054,2.8494694232940674,-14.043818473815918,30.599153518676758,-10.55285358428955,21.3223819732666,2.9931869506835938,2.2043354511260986
1768420076.252968,2.8713834285736084,-14.03902530670166,30.58266258239746,-10.569151878356934,21.321998596191406,3.0691192150115967,1.9769223928451538
1768420076.2751067,2.893521547317505,-14.026753425598145,30.578828811645508,-10.631470680236816,21.321807861328125,3.1408329010009766,1.6948609352111816
1768420076.29701,2.9154245853424072,-14.01218032836914,30.578060150146484,-10.696089744567871,21.319122314453125,3.232105016708374,1.3765592575073242
1768420076.3190374,2.937452793121338,-13.994922637939453,30.576719284057617,-10.767419815063477,21.318931579589844,3.450122594833374,1.0032258033752441
1768420076.3410375,2.9594528675079346,-13.986869812011719,30.577869415283203,-10.894740104675293,21.317398071289062,3.7557690143585205,0.5967199206352234
1768420076.3630328,2.981448173522949,-13.967119216918945,30.578636169433594,-10.982752799987793,21.312986373901367,4.098230838775635,0.17659994959831238
1768420076.3850358,3.003450870513916,-13.959066390991211,30.580169677734375,-11.131549835205078,21.312986373901367,4.472906589508057,-0.2590516209602356
1768420076.4070306,3.0254456996917725,-13.946986198425293,30.580936431884766,-11.264047622680664,21.31183624267578,4.878262042999268,-0.6803220510482788
1768420076.4290292,3.0474445819854736,-13.941617012023926,30.58112907409668,-11.372960090637207,21.31241226196289,5.293396472930908,-1.0749396085739136
1768420076.4510853,3.069500207901001,-13.940082550048828,30.588415145874023,-11.504307746887207,21.3116455078125,5.695492267608643,-1.4315909147262573
1768420076.4730299,3.091445207595825,-13.940275192260742,30.59723663330078,-11.593853950500488,21.31183624267578,6.101614475250244,-1.7799971103668213
1768420076.4950268,3.1134424209594727,-13.940275192260742,30.601646423339844,-11.694713592529297,21.311452865600586,6.520967483520508,-2.089670181274414
1768420076.5170243,3.13543963432312,-13.940850257873535,30.609315872192383,-11.792888641357422,21.312219619750977,6.9276652336120605,-2.34757137298584
1768420076.5390177,3.157432794570923,-13.94123363494873,30.609508514404297,-11.895665168762207,21.312602996826172,7.313462257385254,-2.5433461666107178
1768420076.5610225,3.1794371604919434,-13.94295883178711,30.610849380493164,-11.969488143920898,21.313945770263672,7.686795711517334,-2.70824933052063
1768420076.5830028,3.201418399810791,-13.943726539611816,30.61199951171875,-12.061335563659668,21.314138412475586,8.031750679016113,-2.8440070152282715
1768420076.6050234,3.2234389781951904,-13.944109916687012,30.61199951171875,-12.093741416931152,21.315095901489258,8.323974609375,-2.946017026901245
1768420076.6271062,3.2455217838287354,-13.944109916687012,30.61257553100586,-12.15375804901123,21.315288543701172,8.598557472229004,-3.055121660232544
1768420076.6490111,3.2674264907836914,-13.944109916687012,30.609508514404297,-12.182136535644531,21.316246032714844,8.822135925292969,-3.132204294204712
1768420076.670955,3.289370059967041,-13.94430160522461,30.604522705078125,-12.223746299743652,21.316438674926758,8.946196556091309,-3.202000617980957
1768420076.692947,3.3113620281219482,-13.944109916687012,30.59857749938965,-12.233141899108887,21.316438674926758,8.998160362243652,-3.202000617980957
1768420076.7149363,3.3333520889282227,-13.943918228149414,30.594743728637695,-12.234100341796875,21.316246032714844,9.011007308959961,-3.200850248336792
1768420076.7369378,3.3553531169891357,-13.943726539611816,30.58323860168457,-12.233908653259277,21.316055297851562,9.010815620422363,-3.2004666328430176
1768420076.7590232,3.3774378299713135,-13.944109916687012,30.57058334350586,-12.23371696472168,21.317014694213867,9.010815620422363,-3.2006583213806152
1768420076.7809331,3.399348497390747,-13.943918228149414,30.560420989990234,-12.234100341796875,21.318931579589844,9.011007308959961,-3.200850248336792
1768420076.802932,3.421347141265869,-13.943918228149414,30.54987335205078,-12.232566833496094,21.31989097595215,9.011198997497559,-3.2006583213806152
1768420076.8249218,3.4433372020721436,-13.94430160522461,30.538753509521484,-12.230073928833008,21.32276725769043,9.011007308959961,-3.200850248336792
1768420076.8469796,3.465394973754883,-13.945643424987793,30.524179458618164,-12.22393798828125,21.327177047729492,9.011198997497559,-3.2006583213806152
1768420076.8690815,3.487497091293335,-13.946026802062988,30.515933990478516,-12.220294952392578,21.340023040771484,9.011007308959961,-3.2006583213806152
1768420076.8909798,3.509394884109497,-13.946218490600586,30.497526168823242,-12.211474418640137,21.36188316345215,9.011007308959961,-3.200850248336792
1768420076.9129784,3.5313937664031982,-13.946794509887695,30.48487091064453,-12.20150375366211,21.373388290405273,9.011007308959961,-3.200850248336792
1768420076.9349735,3.553388833999634,-13.946794509887695,30.471832275390625,-12.196709632873535,21.37242889404297,9.011007308959961,-3.200850248336792
1768420076.9569893,3.575404644012451,-13.946794509887695,30.466463088989258,-12.19632625579834,21.37242889404297,9.011007308959961,-3.200850248336792
1768420076.9789793,3.5973947048187256,-13.946794509887695,30.464353561401367,-12.198052406311035,21.37242889404297,9.011198997497559,-3.2010419368743896
1768420077.0009706,3.6193859577178955,-13.946794509887695,30.46243667602539,-12.199969291687012,21.372621536254883,9.011007308959961,-3.2010419368743896
1768420077.0229733,3.641388416290283,-13.946794509887695,30.461477279663086,-12.201312065124512,21.37242889404297,9.011007308959961,-3.200850248336792
1768420077.0449743,3.6633896827697754,-13.946794509887695,30.459177017211914,-12.202845573425293,21.37242889404297,9.011007308959961,-3.2012336254119873
1768420077.0670235,3.685438394546509,-13.946602821350098,30.455341339111328,-12.204955101013184,21.372238159179688,9.011007308959961,-3.200850248336792
1768420077.0889544,3.707369804382324,-13.946602821350098,30.45189094543457,-12.208023071289062,21.372238159179688,9.010815620422363,-3.200850248336792
1768420077.110973,3.7293879985809326,-13.946602821350098,30.449398040771484,-12.21204948425293,21.372045516967773,9.011007308959961,-3.2012336254119873
1768420077.1329668,3.7513818740844727,-13.946602821350098,30.446138381958008,-12.213775634765625,21.37185287475586,9.011007308959961,-3.2010419368743896
1768420077.1549785,3.7733938694000244,-13.94717788696289,30.437318801879883,-12.2158842086792,21.372045516967773,9.011007308959961,-3.2010419368743896
1768420077.176949,3.7953646183013916,-13.947752952575684,30.433483123779297,-12.221636772155762,21.374345779418945,9.011007308959961,-3.2010419368743896
1768420077.1989558,3.817371129989624,-13.947944641113281,30.427154541015625,-12.222404479980469,21.374155044555664,9.011007308959961,-3.2010419368743896
1768420077.2209446,3.8393595218658447,-13.948711395263672,30.417951583862305,-12.223746299743652,21.374345779418945,9.011007308959961,-3.2012336254119873
1768420077.2429512,3.8613662719726562,-13.948711395263672,30.406063079833984,-12.226239204406738,21.37453842163086,9.011007308959961,-3.2010419368743896
1768420077.264955,3.8833706378936768,-13.948136329650879,30.400503158569336,-12.227581024169922,21.37453842163086,9.011198997497559,-3.2010419368743896
1768420077.2869554,3.9053702354431152,-13.94717788696289,30.400310516357422,-12.229307174682617,21.37511444091797,9.011198997497559,-3.200850248336792
1768420077.3089478,3.927363157272339,-13.946794509887695,30.400310516357422,-12.233333587646484,21.37511444091797,9.011198997497559,-3.2010419368743896
1768420077.3309464,3.94936203956604,-13.946602821350098,30.400503158569336,-12.240811347961426,21.37588119506836,9.011198997497559,-3.2010419368743896
1768420077.3529527,3.9713685512542725,-13.9464111328125,30.40088653564453,-12.250015258789062,21.377798080444336,9.011198997497559,-3.2010419368743896
1768420077.3749857,3.993400812149048,-13.946602821350098,30.402036666870117,-12.254617691040039,21.3835506439209,9.011007308959961,-3.2006583213806152
1768420077.3969858,4.015400648117065,-13.945643424987793,30.4022274017334,-12.2605619430542,21.39639663696289,9.011198997497559,-3.2010419368743896
1768420077.4188817,4.037296533584595,-13.944493293762207,30.401460647583008,-12.267081260681152,21.430145263671875,9.011007308959961,-3.200850248336792
1768420077.4408224,4.059237480163574,-13.943918228149414,30.400503158569336,-12.273600578308105,21.497257232666016,9.011007308959961,-3.2012336254119873
1768420077.462827,4.081242322921753,-13.943534851074219,30.397050857543945,-12.279544830322266,21.570695877075195,9.011007308959961,-3.2010419368743896
1768420077.4848216,4.10323691368103,-13.942383766174316,30.393024444580078,-12.286064147949219,21.655065536499023,9.011198997497559,-3.2010419368743896
1768420077.506815,4.125230312347412,-13.942192077636719,30.388805389404297,-12.297185897827148,21.744611740112305,9.011007308959961,-3.200850248336792
1768420077.5288186,4.147234201431274,-13.942192077636719,30.384971618652344,-12.31271743774414,21.81479263305664,9.011007308959961,-3.200850248336792
1768420077.550817,4.169232130050659,-13.942575454711914,30.383052825927734,-12.338027954101562,21.879411697387695,9.011198997497559,-3.2012336254119873
1768420077.572807,4.1912219524383545,-13.942767143249512,30.38132667541504,-12.368324279785156,21.90932273864746,9.011198997497559,-3.2010419368743896
1768420077.5948188,4.213234186172485,-13.943534851074219,30.382478713989258,-12.408591270446777,21.916610717773438,9.011007308959961,-3.200850248336792
1768420077.6168153,4.235230445861816,-13.945451736450195,30.383819580078125,-12.415685653686523,21.916418075561523,9.011198997497559,-3.2010419368743896
1768420077.6388144,4.257229566574097,-13.946794509887695,30.38823127746582,-12.443489074707031,21.916994094848633,9.011198997497559,-3.200850248336792
1768420077.6608205,4.279235601425171,-13.946986198425293,30.39379119873047,-12.463623046875,21.917184829711914,9.011198997497559,-3.2010419368743896
1768420077.6828244,4.301239490509033,-13.950054168701172,30.40088653564453,-12.492384910583496,21.917184829711914,9.011198997497559,-3.2010419368743896
1768420077.7048242,4.323239803314209,-13.964434623718262,30.402610778808594,-12.517888069152832,21.918718338012695,9.011391639709473,-3.2012336254119873
1768420077.7268143,4.345229625701904,-13.988786697387695,30.402420043945312,-12.543198585510254,21.919294357299805,9.011391639709473,-3.2016172409057617
1768420077.748821,4.367236375808716,-14.005661010742188,30.403379440307617,-12.572728157043457,21.91948699951172,9.012158393859863,-3.2021923065185547
1768420077.7708826,4.3892974853515625,-14.025218963623047,30.408363342285156,-12.58308219909668,21.921403884887695,9.01407527923584,-3.2023842334747314
1768420077.7928162,4.411231517791748,-14.052447319030762,30.41891098022461,-12.602448463439941,21.925622940063477,9.016951560974121,-3.202575922012329
1768420077.814815,4.43323016166687,-14.06912899017334,30.433673858642578,-12.616254806518555,21.944414138793945,9.02001953125,-3.2023842334747314
1768420077.8368173,4.455232858657837,-14.092330932617188,30.44153594970703,-12.64041519165039,21.98468017578125,9.021745681762695,-3.2027676105499268
1768420077.8588152,4.4772303104400635,-14.128954887390137,30.453617095947266,-12.680106163024902,22.03990364074707,9.021745681762695,-3.2027676105499268
1768420077.8808167,4.499231815338135,-14.15330696105957,30.456493377685547,-12.714621543884277,22.056777954101562,9.02212905883789,-3.203151226043701
1768420077.9028037,4.521218776702881,-14.1780424118042,30.462820053100586,-12.75182056427002,22.0496826171875,9.022704124450684,-3.203151226043701
1768420077.9248147,4.543230056762695,-14.192039489746094,30.470874786376953,-12.768885612487793,22.050065994262695,9.022704124450684,-3.203151226043701
1768420077.9468117,4.565226793289185,-14.203927993774414,30.4777774810791,-12.787676811218262,22.0496826171875,9.022512435913086,-3.203151226043701
1768420077.9688227,4.587238073348999,-14.21830940246582,30.478734970092773,-12.807427406311035,22.049299240112305,9.022704124450684,-3.203151226043701
1768420077.9908118,4.609227418899536,-14.222527503967285,30.477584838867188,-12.823725700378418,22.049299240112305,9.022512435913086,-3.2035346031188965
1768420078.0128012,4.631216526031494,-14.229239463806152,30.47490119934082,-12.85248851776123,22.04949188232422,9.022704124450684,-3.203151226043701
1768420078.0347888,4.653203725814819,-14.23403263092041,30.46722984313965,-12.867060661315918,22.0496826171875,9.022512435913086,-3.203342914581299
1768420078.056806,4.6752214431762695,-14.234607696533203,30.460519790649414,-12.883551597595215,22.04949188232422,9.022512435913086,-3.203151226043701
1768420078.0788076,4.697222948074341,-14.234224319458008,30.456493377685547,-12.887002944946289,22.049299240112305,9.022320747375488,-3.203151226043701
1768420078.100776,4.719190835952759,-14.23192310333252,30.455533981323242,-12.905027389526367,22.049299240112305,9.022320747375488,-3.2035346031188965
1768420078.1227882,4.741203546524048,-14.229622840881348,30.452850341796875,-12.91921615600586,22.048532485961914,9.022512435913086,-3.203151226043701
1768420078.1447823,4.763197183609009,-14.227513313293457,30.45246696472168,-12.936665534973145,22.04757308959961,9.022512435913086,-3.203151226043701
1768420078.1668491,4.785263776779175,-14.225020408630371,30.45323371887207,-12.949895858764648,22.047382354736328,9.022320747375488,-3.203151226043701
1768420078.1887786,4.807194471359253,-14.22214412689209,30.455533981323242,-12.955840110778809,22.047382354736328,9.022512435913086,-3.2027676105499268
1768420078.2108493,4.829263925552368,-14.21830940246582,30.459177017211914,-12.961784362792969,22.046422958374023,9.022320747375488,-3.2029592990875244
1768420078.2327821,4.8511974811553955,-14.215433120727539,30.463396072387695,-12.96677017211914,22.046232223510742,9.022512435913086,-3.2027676105499268
1768420078.2547832,4.873198747634888,-14.21370792388916,30.467805862426758,-12.972522735595703,22.046039581298828,9.022512435913086,-3.2029592990875244
1768420078.2767816,4.895197153091431,-14.21370792388916,30.473941802978516,-12.972906112670898,22.046232223510742,9.022512435913086,-3.203151226043701
1768420078.2987816,4.917196989059448,-14.213515281677246,30.47911834716797,-12.970988273620605,22.046232223510742,9.022320747375488,-3.203151226043701
1768420078.320779,4.939194440841675,-14.21370792388916,30.48410415649414,-12.969263076782227,22.046422958374023,9.022512435913086,-3.203151226043701
1768420078.34278,4.961195468902588,-14.214091300964355,30.4888973236084,-12.96849536895752,22.046232223510742,9.022320747375488,-3.203151226043701
1768420078.364843,4.983257532119751,-14.215241432189941,30.496376037597656,-12.969070434570312,22.046039581298828,9.02212905883789,-3.2029592990875244
1768420078.3867788,5.005194187164307,-14.216391563415527,30.500402450561523,-12.970029830932617,22.046232223510742,9.022320747375488,-3.2027676105499268
1768420078.4087439,5.0271594524383545,-14.217350959777832,30.501361846923828,-12.97060489654541,22.046422958374023,9.022512435913086,-3.2029592990875244
1768420078.4307587,5.049174070358276,-14.21754264831543,30.501361846923828,-12.970413208007812,22.046422958374023,9.022704124450684,-3.2029592990875244
1768420078.4527552,5.071170330047607,-14.217926025390625,30.500402450561523,-12.97060489654541,22.046232223510742,9.022320747375488,-3.203151226043701
1768420078.474756,5.0931715965271,-14.21830940246582,30.497718811035156,-12.970988273620605,22.046422958374023,9.022512435913086,-3.203151226043701
1768420078.4967551,5.11517071723938,-14.219076156616211,30.494842529296875,-12.97060489654541,22.046422958374023,9.022320747375488,-3.203151226043701
1768420078.5187557,5.137171030044556,-14.219459533691406,30.49177360534668,-12.968878746032715,22.046615600585938,9.022512435913086,-3.2029592990875244
1768420078.5407674,5.159182786941528,-14.219459533691406,30.48678970336914,-12.967920303344727,22.046422958374023,9.022320747375488,-3.203151226043701
1768420078.5627537,5.181169271469116,-14.220227241516113,30.48314666748047,-12.966961860656738,22.046615600585938,9.022320747375488,-3.2027676105499268
1768420078.5847685,5.203183889389038,-14.221569061279297,30.48199462890625,-12.966386795043945,22.046422958374023,9.022512435913086,-3.2029592990875244
1768420078.6067672,5.22518253326416,-14.223295211791992,30.482378005981445,-12.965044021606445,22.046422958374023,9.022320747375488,-3.2027676105499268
1768420078.628749,5.247164011001587,-14.225403785705566,30.483530044555664,-12.96389389038086,22.046232223510742,9.022320747375488,-3.203151226043701
1768420078.650747,5.269162654876709,-14.227896690368652,30.485637664794922,-12.96389389038086,22.046422958374023,9.022512435913086,-3.203151226043701
1768420078.6727626,5.291177749633789,-14.231156349182129,30.489089965820312,-12.964085578918457,22.046615600585938,9.022512435913086,-3.2027676105499268
1768420078.694762,5.313177585601807,-14.233840942382812,30.494266510009766,-12.964468955993652,22.046615600585938,9.022512435913086,-3.2027676105499268
1768420078.716734,5.33514928817749,-14.234607696533203,30.499061584472656,-12.964468955993652,22.046615600585938,9.022704124450684,-3.203151226043701
1768420078.7387094,5.357124090194702,-14.234607696533203,30.502321243286133,-12.96466064453125,22.046615600585938,9.022512435913086,-3.203151226043701
1768420078.7607856,5.379200220108032,-14.233649253845215,30.50442886352539,-12.96466064453125,22.046615600585938,9.022320747375488,-3.203151226043701
1768420078.7827272,5.401142358779907,-14.232499122619629,30.504621505737305,-12.964852333068848,22.046615600585938,9.022512435913086,-3.2029592990875244
1768420078.8047178,5.423133134841919,-14.23019790649414,30.50423812866211,-12.964852333068848,22.046422958374023,9.022320747375488,-3.2027676105499268
1768420078.8267376,5.44515323638916,-14.227896690368652,30.50289535522461,-12.964277267456055,22.046232223510742,9.022512435913086,-3.2029592990875244
1768420078.8487256,5.4671406745910645,-14.224637031555176,30.501361846923828,-12.964277267456055,22.046422958374023,9.022320747375488,-3.2029592990875244
1768420078.870726,5.489141464233398,-14.222719192504883,30.498868942260742,-12.964468955993652,22.046422958374023,9.022512435913086,-3.2029592990875244
1768420078.892718,5.511133432388306,-14.220993995666504,30.49599266052246,-12.964852333068848,22.046422958374023,9.022512435913086,-3.2029592990875244
1768420078.9147239,5.533139228820801,-14.218884468078613,30.492733001708984,-12.965810775756836,22.046232223510742,9.022512435913086,-3.2029592990875244
1768420078.9367874,5.55520224571228,-14.215624809265137,30.48621368408203,-12.966195106506348,22.046232223510742,9.022320747375488,-3.203151226043701
1768420078.958723,5.577138423919678,-14.210831642150879,30.478351593017578,-12.966386795043945,22.046039581298828,9.022320747375488,-3.203151226043701
1768420078.9807138,5.5991291999816895,-14.205079078674316,30.47010612487793,-12.966002464294434,22.046039581298828,9.022320747375488,-3.2029592990875244
1768420079.0027223,5.621137619018555,-14.19970989227295,30.459943771362305,-12.965619087219238,22.046232223510742,9.022320747375488,-3.2027676105499268
1768420079.0247195,5.643134593963623,-14.199134826660156,30.455726623535156,-12.96466064453125,22.046232223510742,9.022512435913086,-3.2029592990875244
1768420079.0466983,5.665113925933838,-14.199326515197754,30.454383850097656,-12.964277267456055,22.046232223510742,9.022320747375488,-3.2027676105499268
1768420079.0687153,5.687130928039551,-14.199326515197754,30.455341339111328,-12.964277267456055,22.046039581298828,9.022512435913086,-3.2027676105499268
1768420079.0906982,5.709113597869873,-14.200668334960938,30.456493377685547,-12.965235710144043,22.046039581298828,9.022512435913086,-3.2029592990875244
1768420079.1126964,5.731111764907837,-14.20124340057373,30.45879364013672,-12.966386795043945,22.046422958374023,9.022320747375488,-3.2029592990875244
1768420079.1346934,5.753108501434326,-14.203161239624023,30.4630126953125,-12.96677017211914,22.046232223510742,9.022512435913086,-3.2029592990875244
1768420079.1566868,5.775101900100708,-14.204504013061523,30.467422485351562,-12.96677017211914,22.046232223510742,9.022512435913086,-3.2029592990875244
1768420079.178712,5.7971272468566895,-14.205079078674316,30.47279167175293,-12.966386795043945,22.046615600585938,9.022704124450684,-3.2029592990875244
1768420079.2007115,5.819126844406128,-14.206037521362305,30.477394104003906,-12.966195106506348,22.046615600585938,9.022704124450684,-3.203151226043701
1768420079.2226925,5.8411078453063965,-14.206612586975098,30.48122787475586,-12.966002464294434,22.046615600585938,9.022512435913086,-3.2029592990875244
1768420079.2446938,5.863109111785889,-14.207571983337402,30.485063552856445,-12.965810775756836,22.04680633544922,9.022512435913086,-3.203151226043701
1768420079.2666893,5.885104179382324,-14.207571983337402,30.490049362182617,-12.966195106506348,22.04680633544922,9.022512435913086,-3.2027676105499268
1768420079.2886918,5.907106876373291,-14.207571983337402,30.495418548583984,-12.96677017211914,22.04680633544922,9.022704124450684,-3.203151226043701
1768420079.310691,5.92910623550415,-14.20718765258789,30.497142791748047,-12.967536926269531,22.04680633544922,9.022512435913086,-3.2029592990875244
1768420079.3326862,5.951100826263428,-14.206229209899902,30.49675941467285,-12.967728614807129,22.046615600585938,9.022512435913086,-3.2027676105499268
1768420079.3546696,5.973085165023804,-14.205462455749512,30.49599266052246,-12.967728614807129,22.046422958374023,9.022512435913086,-3.2029592990875244
1768420079.3767483,5.9951629638671875,-14.204887390136719,30.494075775146484,-12.967728614807129,22.046615600585938,9.022704124450684,-3.2029592990875244
1768420079.3986712,6.017086505889893,-14.204504013061523,30.49177360534668,-12.967728614807129,22.046615600585938,9.022704124450684,-3.2027676105499268
1768420079.4206667,6.039081811904907,-14.203927993774414,30.490623474121094,-12.967536926269531,22.046422958374023,9.022512435913086,-3.2027676105499268
1768420079.4426656,6.061080694198608,-14.203544616699219,30.490049362182617,-12.967728614807129,22.046422958374023,9.022704124450684,-3.2027676105499268
1768420079.4646678,6.083083152770996,-14.202969551086426,30.489665985107422,-12.967728614807129,22.046422958374023,9.022704124450684,-3.2027676105499268
1768420079.4866807,6.105095386505127,-14.20258617401123,30.489665985107422,-12.967728614807129,22.046422958374023,9.022704124450684,-3.2027676105499268
1768420079.508655,6.127070426940918,-14.20181941986084,30.489089965820312,-12.967536926269531,22.046422958374023,9.022704124450684,-3.203151226043701
1768420079.5306861,6.149101734161377,-14.20124340057373,30.488130569458008,-12.966961860656738,22.046232223510742,9.022320747375488,-3.203151226043701
1768420079.5526607,6.171075820922852,-14.198943138122559,30.48621368408203,-12.965810775756836,22.046232223510742,9.022704124450684,-3.203151226043701
1768420079.5746622,6.193077564239502,-14.197025299072266,30.48468017578125,-12.964852333068848,22.046039581298828,9.022704124450684,-3.2029592990875244
1768420079.596652,6.215067386627197,-14.195300102233887,30.48314666748047,-12.96389389038086,22.046039581298828,9.022320747375488,-3.2029592990875244
1768420079.618677,6.2370924949646,-14.193957328796387,30.48333740234375,-12.963702201843262,22.046039581298828,9.022512435913086,-3.2029592990875244
1768420079.640654,6.259068965911865,-14.193382263183594,30.483720779418945,-12.963702201843262,22.045848846435547,9.022320747375488,-3.2027676105499268
1768420079.6626394,6.281054735183716,-14.193382263183594,30.484296798706055,-12.964085578918457,22.045848846435547,9.022512435913086,-3.2029592990875244
1768420079.6846385,6.303053855895996,-14.193382263183594,30.48487091064453,-12.964277267456055,22.045656204223633,9.022512435913086,-3.202575922012329
1768420079.7067592,6.32517409324646,-14.193573951721191,30.485830307006836,-12.96466064453125,22.045848846435547,9.022320747375488,-3.2029592990875244
1768420079.7287073,6.347122430801392,-14.193957328796387,30.486406326293945,-12.964852333068848,22.045848846435547,9.022512435913086,-3.203151226043701
1768420079.7507129,6.369128227233887,-14.19453239440918,30.486980438232422,-12.964852333068848,22.046232223510742,9.022320747375488,-3.203151226043701
1768420079.7727182,6.391133069992065,-14.194915771484375,30.486980438232422,-12.964852333068848,22.046039581298828,9.022512435913086,-3.203151226043701
1768420079.79471,6.413125514984131,-14.195491790771484,30.486980438232422,-12.965235710144043,22.046039581298828,9.022512435913086,-3.203151226043701
1768420079.8166401,6.435055494308472,-14.19587516784668,30.486597061157227,-12.965235710144043,22.045848846435547,9.022320747375488,-3.203151226043701
1768420079.8387215,6.457137107849121,-14.19587516784668,30.486021041870117,-12.965235710144043,22.046039581298828,9.022704124450684,-3.203151226043701
1768420079.8607006,6.479115962982178,-14.19587516784668,30.485637664794922,-12.965235710144043,22.046039581298828,9.022512435913086,-3.203151226043701
1768420079.8827236,6.50113844871521,-14.19587516784668,30.48487091064453,-12.965044021606445,22.046039581298828,9.022512435913086,-3.2029592990875244
1768420079.904679,6.523094177246094,-14.195491790771484,30.484487533569336,-12.964852333068848,22.046039581298828,9.022320747375488,-3.2027676105499268
1768420079.9267032,6.54511833190918,-14.195491790771484,30.484487533569336,-12.964852333068848,22.046039581298828,9.022512435913086,-3.203151226043701
1768420079.9486794,6.567095041275024,-14.195491790771484,30.48468017578125,-12.965044021606445,22.046232223510742,9.022512435913086,-3.203151226043701
1768420079.970668,6.589083433151245,-14.195300102233887,30.48487091064453,-12.965044021606445,22.045848846435547,9.022512435913086,-3.2027676105499268
1768420079.992603,6.611018180847168,-14.194915771484375,30.485254287719727,-12.964852333068848,22.046232223510742,9.022512435913086,-3.2029592990875244
1768420080.0146723,6.633087873458862,-14.194724082946777,30.48678970336914,-12.965235710144043,22.046232223510742,9.022512435913086,-3.2027676105499268
1768420080.0366793,6.655094385147095,-14.193382263183594,30.488323211669922,-12.96542739868164,22.046422958374023,9.022704124450684,-3.2029592990875244
1768420080.058671,6.677086591720581,-14.192039489746094,30.490049362182617,-12.96542739868164,22.046232223510742,9.022512435913086,-3.2027676105499268
1768420080.0806665,6.699081659317017,-14.189547538757324,30.491390228271484,-12.965235710144043,22.046422958374023,9.022320747375488,-3.203151226043701
1768420080.1026738,6.721089124679565,-14.186287879943848,30.49234962463379,-12.96542739868164,22.046422958374023,9.022704124450684,-3.2029592990875244
1768420080.1246905,6.743105888366699,-14.182068824768066,30.4929256439209,-12.965235710144043,22.046615600585938,9.022704124450684,-3.2029592990875244
1768420080.1466734,6.7650885581970215,-14.177467346191406,30.4929256439209,-12.965044021606445,22.04680633544922,9.022512435913086,-3.203151226043701
1768420080.1686032,6.787018537521362,-14.173824310302734,30.493309020996094,-12.964852333068848,22.046998977661133,9.022320747375488,-3.203151226043701
1768420080.1906636,6.809079170227051,-14.171714782714844,30.494266510009766,-12.965044021606445,22.04680633544922,9.022512435913086,-3.2029592990875244
1768420080.2126682,6.831083297729492,-14.16979694366455,30.495418548583984,-12.96542739868164,22.04680633544922,9.022704124450684,-3.203151226043701
1768420080.2347066,6.853121757507324,-14.169221878051758,30.496376037597656,-12.965810775756836,22.046998977661133,9.022895812988281,-3.203151226043701
1768420080.2565978,6.8750128746032715,-14.168071746826172,30.49675941467285,-12.966002464294434,22.047189712524414,9.022320747375488,-3.2029592990875244
1768420080.2786756,6.897090911865234,-14.167688369750977,30.49656867980957,-12.966002464294434,22.046998977661133,9.022512435913086,-3.2027676105499268
1768420080.3065798,6.924995183944702,-14.16692066192627,30.496185302734375,-12.966195106506348,22.047382354736328,-12.966002464294434,-3.203151226043701
1768420080.3285882,6.947003602981567,-14.166537284851074,30.494842529296875,-12.966002464294434,22.047189712524414,9.022704124450684,-3.203151226043701
1768420080.35057,6.968985080718994,-14.166153907775879,30.49388313293457,-12.966002464294434,22.046998977661133,9.022895812988281,-3.2029592990875244
1768420080.3726075,6.991022109985352,-14.165770530700684,30.492542266845703,-12.966002464294434,22.047189712524414,9.022704124450684,-3.203151226043701
1768420080.3945777,7.012993097305298,-14.165387153625488,30.4915828704834,-12.966386795043945,22.047189712524414,9.022704124450684,-3.203151226043701
1768420080.4165945,7.035010099411011,-14.165003776550293,30.4902400970459,-12.966195106506348,22.046998977661133,9.022512435913086,-3.203151226043701
1768420080.4386344,7.05704927444458,-14.164812088012695,30.489089965820312,-12.966195106506348,22.047189712524414,9.022512435913086,-3.203151226043701
1768420080.4606066,7.079022169113159,-14.164620399475098,30.488323211669922,-12.966195106506348,22.047189712524414,9.022704124450684,-3.203151226043701
1768420080.482604,7.101019620895386,-14.164427757263184,30.48755645751953,-12.966002464294434,22.047189712524414,9.022512435913086,-3.203151226043701
1768420080.5045936,7.123008966445923,-14.164620399475098,30.48678970336914,-12.965810775756836,22.046998977661133,9.022512435913086,-3.203151226043701
1768420080.5265715,7.144987106323242,-14.164812088012695,30.48621368408203,-12.966002464294434,22.047189712524414,9.022704124450684,-3.2029592990875244
1768420080.5485675,7.166983127593994,-14.165003776550293,30.48544692993164,-12.966002464294434,22.046998977661133,9.022512435913086,-3.2029592990875244
1768420080.57057,7.188985347747803,-14.165578842163086,30.484487533569336,-12.966195106506348,22.046998977661133,9.022704124450684,-3.203151226043701
1768420080.5925486,7.21096396446228,-14.166153907775879,30.48276138305664,-12.966386795043945,22.04680633544922,9.022512435913086,-3.203151226043701
1768420080.6145523,7.2329676151275635,-14.16692066192627,30.48046112060547,-12.966578483581543,22.04680633544922,9.022704124450684,-3.203151226043701
1768420080.636565,7.254979848861694,-14.167880058288574,30.477584838867188,-12.966386795043945,22.04680633544922,9.022704124450684,-3.203151226043701
1768420080.6585474,7.276962757110596,-14.168455123901367,30.473365783691406,-12.966386795043945,22.046998977661133,9.022704124450684,-3.203151226043701
1768420080.6805434,7.2989585399627686,-14.169221878051758,30.466655731201172,-12.966386795043945,22.04680633544922,9.022704124450684,-3.203151226043701
1768420080.7025452,7.320960283279419,-14.16979694366455,30.457834243774414,-12.966386795043945,22.04680633544922,9.022512435913086,-3.203151226043701
1768420080.7246037,7.343018531799316,-14.170563697814941,30.44901466369629,-12.966578483581543,22.046998977661133,9.022704124450684,-3.203151226043701
1768420080.7465377,7.364952802658081,-14.17113971710205,30.436742782592773,-12.967920303344727,22.04680633544922,9.022704124450684,-3.203151226043701
1768420080.7686083,7.387023210525513,-14.171906471252441,30.41986846923828,-12.969263076782227,22.046615600585938,9.022704124450684,-3.203151226043701
1768420080.7905357,7.4089508056640625,-14.17286491394043,30.39743423461914,-12.970796585083008,22.046615600585938,9.022704124450684,-3.203151226043701
1768420080.8125484,7.430963754653931,-14.17420768737793,30.36234474182129,-12.971755027770996,22.04680633544922,9.022704124450684,-3.203151226043701
1768420080.834532,7.452946901321411,-14.17880916595459,30.315750122070312,-12.972906112670898,22.046615600585938,9.022512435913086,-3.2035346031188965
1768420080.8565881,7.475003004074097,-14.192615509033203,30.270112991333008,-12.973481178283691,22.04680633544922,9.022704124450684,-3.2035346031188965
1768420080.8786032,7.497017860412598,-14.20047664642334,30.23176383972168,-12.972906112670898,22.046232223510742,9.022895812988281,-3.203918218612671
1768420080.9005253,7.518940687179565,-14.211215019226074,30.1868953704834,-12.972522735595703,22.046422958374023,9.022704124450684,-3.2041099071502686
1768420080.9225404,7.540956020355225,-14.231348037719727,30.095623016357422,-12.970988273620605,22.046422958374023,9.022704124450684,-3.204301595687866
1768420080.944534,7.562948942184448,-14.248030662536621,30.021224975585938,-12.971179962158203,22.046232223510742,9.022704124450684,-3.2046852111816406
1768420080.9665177,7.584933280944824,-14.270273208618164,29.9537296295166,-12.971563339233398,22.046422958374023,9.022704124450684,-3.205068588256836
1768420080.988515,7.606930255889893,-14.303829193115234,29.869935989379883,-12.972906112670898,22.046232223510742,9.023087501525879,-3.2052602767944336
1768420081.010514,7.628928899765015,-14.323578834533691,29.77271842956543,-12.974631309509277,22.045848846435547,9.022895812988281,-3.2048768997192383
1768420081.0325117,7.65092658996582,-14.35425853729248,29.683555603027344,-12.977507591247559,22.046422958374023,9.022895812988281,-3.205068588256836
1768420081.0545692,7.672983884811401,-14.373241424560547,29.6043643951416,-12.98038387298584,22.045848846435547,9.023087501525879,-3.2054522037506104
1768420081.0765193,7.694934606552124,-14.397210121154785,29.481454849243164,-12.981342315673828,22.046422958374023,9.023087501525879,-3.2054522037506104
1768420081.0985153,7.716930627822876,-14.42654800415039,29.356243133544922,-12.981342315673828,22.045848846435547,9.023279190063477,-3.205643892288208
1768420081.1205132,7.73892879486084,-14.4528169631958,29.251739501953125,-12.981342315673828,22.046039581298828,9.023279190063477,-3.205643892288208
1768420081.1425116,7.760926723480225,-14.491358757019043,29.11233901977539,-12.980000495910645,22.046039581298828,9.023470878601074,-3.2060272693634033
1768420081.16456,7.7829749584198,-14.513601303100586,28.997865676879883,-12.979233741760254,22.045656204223633,9.023470878601074,-3.205643892288208
1768420081.1865025,7.804917812347412,-14.541021347045898,28.878023147583008,-12.979042053222656,22.045272827148438,9.023663520812988,-3.205643892288208
1768420081.2085016,7.826916933059692,-14.564031600952148,28.748018264770508,-12.977507591247559,22.04412269592285,9.023470878601074,-3.205643892288208
1768420081.2304914,7.848906755447388,-14.59835433959961,28.618587493896484,-12.977507591247559,22.04277992248535,9.023470878601074,-3.2054522037506104
1768420081.2525058,7.87092137336731,-14.625582695007324,28.479570388793945,-12.976932525634766,22.035877227783203,9.023279190063477,-3.205643892288208
1768420081.2744887,7.892904043197632,-14.678121566772461,28.36183738708496,-12.975974082946777,22.033960342407227,9.023470878601074,-3.205643892288208
1768420081.2964861,7.914901494979858,-14.700555801391602,28.227996826171875,-12.97443962097168,22.02801513671875,9.023279190063477,-3.205643892288208
1768420081.3184917,7.936907052993774,-14.717621803283691,28.104511260986328,-12.973672866821289,22.012676239013672,9.023279190063477,-3.2052602767944336
1768420081.3404849,7.958900213241577,-14.752519607543945,27.98447608947754,-12.972331047058105,22.00002098083496,9.023279190063477,-3.2052602767944336
1768420081.3624854,7.980900764465332,-14.770927429199219,27.854854583740234,-12.969454765319824,21.985063552856445,9.023279190063477,-3.2052602767944336
1768420081.3845022,8.002918004989624,-14.798730850219727,27.743066787719727,-12.970029830932617,21.979310989379883,9.023279190063477,-3.205068588256836
1768420081.406477,8.024892568588257,-14.832478523254395,27.610185623168945,-12.970029830932617,21.978736877441406,9.023279190063477,-3.2048768997192383
1768420081.4285424,8.04695725440979,-14.851844787597656,27.49609375,-12.970029830932617,21.97758674621582,9.023279190063477,-3.2048768997192383
1768420081.4504824,8.068897724151611,-14.88003158569336,27.363788604736328,-12.96983814239502,21.97413444519043,9.023087501525879,-3.2046852111816406
1768420081.4724803,8.090895652770996,-14.910711288452148,27.244905471801758,-12.967536926269531,21.962438583374023,9.023087501525879,-3.204493284225464
1768420081.494481,8.112896203994751,-14.938899040222168,27.119693756103516,-12.96466064453125,21.948057174682617,9.023279190063477,-3.204493284225464
1768420081.5165503,8.134965658187866,-14.945226669311523,26.98240089416504,-12.9579496383667,21.93367576599121,9.023279190063477,-3.2046852111816406
1768420081.5385838,8.156998634338379,-14.965359687805176,26.85508155822754,-12.956991195678711,21.91200828552246,9.023087501525879,-3.204493284225464
1768420081.5605276,8.178942918777466,-14.980316162109375,26.694204330444336,-12.955265045166016,21.857358932495117,9.023279190063477,-3.204493284225464
1768420081.5824554,8.200870513916016,-14.99642276763916,26.554611206054688,-12.95488166809082,21.79312515258789,9.023470878601074,-3.204493284225464
1768420081.6045012,8.222915887832642,-15.017131805419922,26.396419525146484,-12.954306602478027,21.728313446044922,9.023470878601074,-3.2046852111816406
1768420081.6264713,8.24488615989685,-15.038415908813477,26.237268447875977,-12.95411491394043,21.650463104248047,9.023279190063477,-3.2046852111816406
1768420081.6485224,8.266938209533691,-15.048003196716309,26.08099365234375,-12.953923225402832,21.61077117919922,9.023087501525879,-3.204493284225464
1768420081.670455,8.288870096206665,-15.069862365722656,25.91743278503418,-12.95411491394043,21.61575698852539,9.023279190063477,-3.2046852111816406
1768420081.6925094,8.310924530029297,-15.082901000976562,25.740449905395508,-12.951622009277344,21.61652374267578,9.023279190063477,-3.204493284225464
1768420081.7145178,8.332932710647583,-15.090763092041016,25.56174087524414,-12.947787284851074,21.61575698852539,9.023279190063477,-3.204493284225464
1768420081.7365117,8.354926586151123,-15.096132278442383,25.389551162719727,-12.941459655761719,21.615373611450195,9.023279190063477,-3.204301595687866
1768420081.7585464,8.37696123123169,-15.101117134094238,25.209306716918945,-12.933980941772461,21.614606857299805,9.023279190063477,-3.204301595687866
1768420081.7805605,8.398975372314453,-15.111088752746582,25.0300235748291,-12.929571151733398,21.61422348022461,9.023087501525879,-3.2041099071502686
1768420081.802523,8.42093801498413,-15.11722469329834,24.855724334716797,-12.922475814819336,21.613840103149414,9.023087501525879,-3.204301595687866
1768420081.824518,8.442933320999146,-15.125085830688477,24.695423126220703,-12.918066024780273,21.61422348022461,9.023279190063477,-3.204301595687866
1768420081.8464384,8.464853763580322,-15.14732837677002,24.539531707763672,-12.908287048339844,21.61345672607422,9.023087501525879,-3.2041099071502686
1768420081.8685067,8.486921548843384,-15.174173355102539,24.38709259033203,-12.905410766601562,21.613840103149414,9.023279190063477,-3.2041099071502686
1768420081.8904967,8.508912086486816,-15.19871711730957,24.246540069580078,-12.898508071899414,21.614990234375,9.023279190063477,-3.203918218612671
1768420081.9125001,8.530915260314941,-15.226137161254883,24.105222702026367,-12.882208824157715,21.6163330078125,9.023279190063477,-3.2041099071502686
1768420081.9344938,8.552909135818481,-15.255282402038574,23.974258422851562,-12.863992691040039,21.616716384887695,9.023087501525879,-3.2041099071502686
1768420081.9564977,8.574912786483765,-15.274266242980957,23.850196838378906,-12.845776557922363,21.61844253540039,9.023279190063477,-3.2041099071502686
1768420081.9784935,8.596909046173096,-15.28979778289795,23.734956741333008,-12.826985359191895,21.61844253540039,9.023279190063477,-3.203918218612671
1768420082.00049,8.618905305862427,-15.292290687561035,23.604759216308594,-12.822575569152832,21.618633270263672,9.023087501525879,-3.2041099071502686
1768420082.0225084,8.640923500061035,-15.29133129119873,23.472837448120117,-12.811837196350098,21.618633270263672,9.023279190063477,-3.203918218612671
1768420082.0444887,8.662904024124146,-15.28845500946045,23.361047744750977,-12.803784370422363,21.618249893188477,9.023087501525879,-3.2035346031188965
1768420082.0664818,8.684897422790527,-15.28538703918457,23.230850219726562,-12.79975700378418,21.619400024414062,9.023470878601074,-3.2035346031188965
1768420082.0884974,8.706912755966187,-15.280593872070312,23.13056755065918,-12.791704177856445,21.619592666625977,9.023087501525879,-3.2035346031188965
1768420082.110486,8.728901386260986,-15.273690223693848,23.046964645385742,-12.788827896118164,21.62189292907715,9.023279190063477,-3.2035346031188965
1768420082.1324255,8.750840425491333,-15.266979217529297,22.946489334106445,-12.782116889953613,21.62534523010254,9.023087501525879,-3.203726291656494
1768420082.1544876,8.772902965545654,-15.259309768676758,22.88666343688965,-12.782691955566406,21.625728607177734,9.023279190063477,-3.203726291656494
1768420082.1765509,8.794965744018555,-15.239175796508789,22.811498641967773,-12.783458709716797,21.62611198425293,9.023279190063477,-3.203726291656494
1768420082.1984706,8.816885948181152,-15.216933250427246,22.75128936767578,-12.784608840942383,21.624961853027344,9.023470878601074,-3.2035346031188965
1768420082.2204158,8.838831186294556,-15.19795036315918,22.68187713623047,-12.78614330291748,21.62553596496582,9.023279190063477,-3.203726291656494
1768420082.2424848,8.860900163650513,-15.16899585723877,22.602876663208008,-12.785759925842285,21.624195098876953,9.023279190063477,-3.2035346031188965
1768420082.2644923,8.882907390594482,-15.129112243652344,22.551870346069336,-12.788061141967773,21.62476921081543,9.023087501525879,-3.2035346031188965
1768420082.2863982,8.904813289642334,-15.082901000976562,22.480924606323242,-12.789594650268555,21.62457847595215,9.023279190063477,-3.203342914581299
1768420082.3083913,8.926806926727295,-15.056248664855957,22.42838478088379,-12.78997802734375,21.62476921081543,9.023279190063477,-3.203151226043701
1768420082.330406,8.948821306228638,-15.015213966369629,22.380449295043945,-12.790553092956543,21.624961853027344,9.023087501525879,-3.2029592990875244
1768420082.3523912,8.970806360244751,-14.974946975708008,22.33615493774414,-12.790553092956543,21.624195098876953,9.023279190063477,-3.2027676105499268
1768420082.374411,8.992826223373413,-14.924517631530762,22.30336570739746,-12.791129112243652,21.62457847595215,9.023087501525879,-3.2023842334747314
1768420082.3963897,9.014804601669312,-14.887126922607422,22.276329040527344,-12.791129112243652,21.623043060302734,9.023470878601074,-3.2023842334747314
1768420082.4183908,9.036805629730225,-14.841490745544434,22.257347106933594,-12.79132080078125,21.622852325439453,9.023279190063477,-3.2021923065185547
1768420082.440386,9.05880093574524,-14.797772407531738,22.242965698242188,-12.792279243469238,21.619016647338867,9.023279190063477,-3.202000617980957
1768420082.4623694,9.080785036087036,-14.751752853393555,22.23261070251465,-12.793429374694824,21.618249893188477,9.023279190063477,-3.2018089294433594
1768420082.4843647,9.102780103683472,-14.71129322052002,22.230693817138672,-12.796113967895508,21.617483139038086,9.023279190063477,-3.2016172409057617
1768420082.5063589,9.124773979187012,-14.679655075073242,22.23126792907715,-12.797648429870605,21.61153793334961,9.023279190063477,-3.201425313949585
1768420082.528357,9.146771907806396,-14.64916706085205,22.236637115478516,-12.800141334533691,21.597925186157227,9.023279190063477,-3.2016172409057617
1768420082.5503678,9.168782711029053,-14.604681968688965,22.239896774291992,-12.801483154296875,21.56743621826172,9.023279190063477,-3.2012336254119873
1768420082.5724316,9.19084644317627,-14.556744575500488,22.239896774291992,-12.803016662597656,21.489778518676758,9.023279190063477,-3.2016172409057617
1768420082.5943677,9.212783098220825,-14.529324531555176,22.242198944091797,-12.804359436035156,21.380098342895508,9.023470878601074,-3.2010419368743896
1768420082.6163652,9.23478078842163,-14.508423805236816,22.250442504882812,-12.807427406311035,21.25661277770996,9.023279190063477,-3.2012336254119873
1768420082.6384463,9.256861209869385,-14.483304977416992,22.262523651123047,-12.808577537536621,21.134660720825195,9.023087501525879,-3.2012336254119873
1768420082.66044,9.278855562210083,-14.461445808410645,22.27939796447754,-12.814330101013184,21.012325286865234,9.023470878601074,-3.201425313949585
1768420082.6823983,9.300813436508179,-14.455309867858887,22.298763275146484,-12.8279447555542,20.90993309020996,9.023279190063477,-3.201425313949585
1768420082.7044308,9.322846174240112,-14.451666831970215,22.316980361938477,-12.83849048614502,20.827863693237305,9.023279190063477,-3.2012336254119873
1768420082.726429,9.344844341278076,-14.453200340270996,22.330018997192383,-12.860541343688965,20.761327743530273,9.023279190063477,-3.2012336254119873
1768420082.748406,9.366821527481079,-14.457611083984375,22.34535789489746,-12.882208824157715,20.750205993652344,9.023279190063477,-3.2010419368743896
1768420082.770409,9.388824701309204,-14.4677734375,22.355905532836914,-12.933405876159668,20.756725311279297,9.023087501525879,-3.2012336254119873
1768420082.7924106,9.410825729370117,-14.475252151489258,22.36683464050293,-12.94970417022705,20.755958557128906,9.023279190063477,-3.2010419368743896
1768420082.8144155,9.432830572128296,-14.498069763183594,22.371627807617188,-12.981534957885742,20.75538444519043,9.023470878601074,-3.200850248336792
1768420082.8364177,9.454833507537842,-14.516669273376465,22.377573013305664,-13.012022018432617,20.75423240661621,9.023279190063477,-3.2010419368743896
1768420082.858409,9.476824283599854,-14.529324531555176,22.39080238342285,-13.045578002929688,20.755001068115234,9.023470878601074,-3.2010419368743896
1768420082.880389,9.498804330825806,-14.557703018188477,22.399431228637695,-13.066670417785645,20.755001068115234,9.023279190063477,-3.2012336254119873
1768420082.9024034,9.520818710327148,-14.590108871459961,22.40671730041504,-13.091405868530273,20.755001068115234,9.023279190063477,-3.2010419368743896
1768420082.924405,9.54282021522522,-14.615227699279785,22.415538787841797,-13.112689971923828,20.75461769104004,9.023279190063477,-3.2006583213806152
1768420082.9464004,9.564816236495972,-14.657987594604492,22.42224884033203,-13.132057189941406,20.75461769104004,9.023279190063477,-3.2004666328430176
1768420082.9683568,9.586771726608276,-14.704007148742676,22.4276180267334,-13.140493392944336,20.753658294677734,9.023087501525879,-3.1998913288116455
1768420082.990405,9.60882043838501,-14.748108863830566,22.435863494873047,-13.151615142822266,20.75250816345215,9.023470878601074,-3.198932647705078
1768420083.0123205,9.630735874176025,-14.78569221496582,22.444875717163086,-13.154683113098145,20.75269889831543,9.023470878601074,-3.1987409591674805
1768420083.0344195,9.65283465385437,-14.840339660644531,22.45139503479004,-13.155258178710938,20.75250816345215,9.023663520812988,-3.1970152854919434
1768420083.0564482,9.67486310005188,-14.881566047668457,22.461557388305664,-13.154108047485352,20.749439239501953,9.023663520812988,-3.18761944770813
1768420083.078377,9.696792364120483,-14.923942565917969,22.471145629882812,-13.154491424560547,20.74848175048828,9.025005340576172,-3.138723850250244
1768420083.1003706,9.718786001205444,-14.97609806060791,22.471145629882812,-13.156216621398926,20.746946334838867,9.025772094726562,-3.1157140731811523
1768420083.1223774,9.740792989730835,-15.032855033874512,22.469419479370117,-13.168872833251953,20.739852905273438,9.025580406188965,-3.1174397468566895
1768420083.14438,9.762795686721802,-15.075039863586426,22.467693328857422,-13.19629192352295,20.732181549072266,9.02596378326416,-3.117056131362915
1768420083.1663723,9.784787654876709,-15.128920555114746,22.46673583984375,-13.216617584228516,20.70993995666504,9.026155471801758,-3.116481065750122
1768420083.188382,9.80679702758789,-15.185870170593262,22.46558380126953,-13.240011215209961,20.649154663085938,9.026155471801758,-3.116481065750122
1768420083.2103827,9.828798055648804,-15.234766006469727,22.46615982055664,-13.268773078918457,20.555391311645508,9.026347160339355,-3.116481065750122
1768420083.2323773,9.850792646408081,-15.281168937683105,22.46615982055664,-13.275484085083008,20.45989990234375,9.026923179626465,-3.1162891387939453
1768420083.2544208,9.872835397720337,-15.319518089294434,22.46596908569336,-13.283921241760254,20.385501861572266,9.032291412353516,-3.1160974502563477
1768420083.2763698,9.894785165786743,-15.35690975189209,22.46481704711914,-13.292166709899902,20.348493576049805,9.052617073059082,-3.1151387691497803
1768420083.2983716,9.916786909103394,-15.38988971710205,22.463666915893555,-13.30079460144043,20.29998207092285,9.117044448852539,-3.1118791103363037
1768420083.3203702,9.938785552978516,-15.413475036621094,22.450435638427734,-13.308656692504883,20.237855911254883,9.226724624633789,-3.0921289920806885
1768420083.3423707,9.960785865783691,-15.42728042602539,22.432987213134766,-13.323038101196289,20.175537109375,9.36344051361084,-2.9703691005706787
1768420083.3643034,9.982718706130981,-15.438593864440918,22.415922164916992,-13.3343505859375,20.093852996826172,9.518180847167969,-2.741421937942505
1768420083.3863523,10.004768133163452,-15.43974494934082,22.399240493774414,-13.35601806640625,20.039588928222656,9.706286430358887,-2.4779601097106934
1768420083.4084005,10.026815176010132,-15.441086769104004,22.39828109741211,-13.382287979125977,20.00507354736328,9.90397834777832,-2.1880369186401367
1768420083.4303453,10.048760652542114,-15.438018798828125,22.399240493774414,-13.391108512878418,19.94850730895996,10.118927955627441,-1.8969634771347046
1768420083.4523396,10.070755004882812,-15.436676979064941,22.398664474487305,-13.417953491210938,19.877561569213867,10.323139190673828,-1.5734844207763672
1768420083.4743357,10.092750787734985,-15.436100959777832,22.396554946899414,-13.455727577209473,19.82809066772461,10.479989051818848,-1.254799246788025
1768420083.4963434,10.114758729934692,-15.432649612426758,22.391569137573242,-13.480846405029297,19.760595321655273,10.597147941589355,-0.9458931088447571
1768420083.5183494,10.136765003204346,-15.429198265075684,22.387542724609375,-13.498679161071777,19.676992416381836,10.659465789794922,-0.6264408826828003
1768420083.5403368,10.158751726150513,-15.427664756774902,22.386201858520508,-13.50826644897461,19.571914672851562,10.690337181091309,-0.3129328191280365
1768420083.562342,10.180757284164429,-15.420377731323242,22.386009216308594,-13.51286792755127,19.470096588134766,10.752846717834473,-0.007669921964406967
1768420083.5843375,10.202753067016602,-15.407339096069336,22.38159942626953,-13.528975486755371,19.366744995117188,10.784485816955566,0.31254932284355164
1768420083.6064138,10.224828720092773,-15.386821746826172,22.37105369567871,-13.553519248962402,19.24057388305664,10.784294128417969,0.6203049421310425
1768420083.6283343,10.24674940109253,-15.380494117736816,22.362232208251953,-13.570392608642578,19.103090286254883,10.789278984069824,0.9060094952583313
1768420083.6503456,10.268760681152344,-15.370906829833984,22.362424850463867,-13.602030754089355,18.929367065429688,10.795798301696777,1.1767578125
1768420083.6723332,10.290748357772827,-15.365154266357422,22.363191604614258,-13.624082565307617,18.736852645874023,10.803468704223633,1.4436709880828857
1768420083.6943388,10.312754154205322,-15.364579200744629,22.36127281188965,-13.641914367675781,18.535709381103516,10.812289237976074,1.7067493200302124
1768420083.7162306,10.334645509719849,-15.36745548248291,22.35993194580078,-13.659747123718262,18.356040954589844,10.820725440979004,1.961774230003357
1768420083.7383106,10.356725454330444,-15.367647171020508,22.3570556640625,-13.671060562133789,18.202449798583984,10.829545974731445,2.2447943687438965
1768420083.7602463,10.378661155700684,-15.371098518371582,22.347850799560547,-13.682757377624512,18.068418502807617,10.837599754333496,2.5688486099243164
1768420083.7823153,10.400730609893799,-15.374166488647461,22.325416564941406,-13.691386222839355,17.962574005126953,10.842968940734863,2.8963541984558105
1768420083.8043659,10.422780752182007,-15.375509262084961,22.297039031982422,-13.70078182220459,17.887216567993164,10.84699535369873,3.25626540184021
1768420083.8263276,10.444742918014526,-15.38528823852539,22.272109985351562,-13.705574989318848,17.80035400390625,10.846803665161133,3.635542869567871
1768420083.8482873,10.466702222824097,-15.397751808166504,22.246225357055664,-13.710177421569824,17.776002883911133,10.842009544372559,4.012903213500977
1768420083.870317,10.48873257637024,-15.416159629821777,22.226667404174805,-13.716888427734375,17.774276733398438,10.832422256469727,4.413272857666016
1768420083.8922443,10.510659456253052,-15.441661834716797,22.21880531311035,-13.723024368286133,17.77370262145996,10.820342063903809,4.814793586730957
1768420083.9142969,10.53271198272705,-15.472916603088379,22.217845916748047,-13.725325584411621,17.77235984802246,10.807303428649902,5.192920684814453
1768420083.9363058,10.554720878601074,-15.505130767822266,22.216312408447266,-13.731844902038574,17.760278701782227,10.796757698059082,5.5449700355529785
1768420083.9583387,10.576753616333008,-15.538495063781738,22.20557403564453,-13.742965698242188,17.723079681396484,10.789854049682617,5.855601787567139
1768420083.98031,10.598725318908691,-15.564188957214355,22.19138526916504,-13.758688926696777,17.63966941833496,10.786977767944336,6.120981216430664
1768420084.002292,10.620707035064697,-15.567256927490234,22.163005828857422,-13.775754928588867,17.523662567138672,10.788320541381836,6.3574066162109375
1768420084.0243044,10.642719268798828,-15.576844215393066,22.12504005432129,-13.788026809692383,17.381385803222656,10.811904907226562,6.573314666748047
1768420084.0462868,10.66470217704773,-15.583171844482422,22.08323860168457,-13.804516792297363,17.227603912353516,10.874798774719238,6.764679431915283
1768420084.0683038,10.686718940734863,-15.581254959106445,22.049108505249023,-13.817172050476074,17.07132911682129,10.993491172790527,6.9349517822265625
1768420084.0903027,10.708718299865723,-15.579337120056152,22.023221969604492,-13.839032173156738,16.945350646972656,11.163379669189453,7.082789421081543
1768420084.1122372,10.730652809143066,-15.581446647644043,22.00558090209961,-13.862041473388672,16.85062599182129,11.328858375549316,7.233503341674805
1768420084.1343071,10.75272250175476,-15.582405090332031,21.99925422668457,-13.896364212036133,16.764148712158203,11.47727108001709,7.396105766296387
1768420084.1563103,10.774725675582886,-15.582213401794434,22.000404357910156,-13.926660537719727,16.70163917541504,11.623191833496094,7.570596218109131
1768420084.1783578,10.796772718429565,-15.583555221557617,21.999637603759766,-13.961174964904785,16.643156051635742,11.832388877868652,7.737800598144531
1768420084.2002337,10.818649053573608,-15.58163833618164,21.98678970336914,-13.988019943237305,16.583520889282227,12.051748275756836,7.923221111297607
1768420084.2223544,10.840769052505493,-15.581446647644043,21.96224594116211,-14.012755393981934,16.554950714111328,12.220294952392578,8.095026969909668
1768420084.2442238,10.86263918876648,-15.575310707092285,21.938852310180664,-14.031929969787598,16.56204605102539,12.362571716308594,8.178437232971191
1768420084.266264,10.884679555892944,-15.544822692871094,21.918718338012695,-14.052063941955566,16.53750228881836,12.493727684020996,8.304608345031738
1768420084.2881963,10.906611680984497,-15.549232482910156,21.896284103393555,-14.083702087402344,16.528873443603516,12.635812759399414,8.441515922546387
1768420084.3103502,10.928765058517456,-15.551725387573242,21.89168357849121,-14.126270294189453,16.510272979736328,12.770228385925293,8.610062599182129
1768420084.3322542,10.950669527053833,-15.553834915161133,21.893983840942383,-14.17363166809082,16.46214485168457,12.884318351745605,8.787429809570312
1768420084.3541903,10.97260570526123,-15.553643226623535,21.90069580078125,-14.195300102233887,16.401744842529297,12.983835220336914,8.949264526367188
1768420084.3761868,10.99460220336914,-15.554985046386719,21.90088653564453,-14.229047775268555,16.369338989257812,13.066478729248047,9.108990669250488
1768420084.3981519,11.01656699180603,-15.548657417297363,21.902420043945312,-14.27276611328125,16.3419189453125,13.121893882751465,9.272168159484863
1768420084.4201856,11.03860092163086,-15.538878440856934,21.9049129486084,-14.296350479125977,16.294748306274414,13.1907320022583,9.447810173034668
1768420084.4421844,11.06059980392456,-15.532934188842773,21.904722213745117,-14.320894241333008,16.231664657592773,13.292550086975098,9.621150016784668
1768420084.4641867,11.08260202407837,-15.509157180786133,21.904338836669922,-14.34294605255127,16.210954666137695,13.408365249633789,9.79353141784668
1768420084.4861863,11.104601621627808,-15.498228073120117,21.904338836669922,-14.364996910095215,16.20769500732422,13.552559852600098,9.953065872192383
1768420084.5081882,11.126603841781616,-15.478669166564941,21.905105590820312,-14.390307426452637,16.208271026611328,13.69042682647705,10.091316223144531
1768420084.530184,11.14859938621521,-15.436100959777832,21.90913200378418,-14.41331672668457,16.199832916259766,13.791861534118652,10.210391998291016
1768420084.552181,11.170596361160278,-15.401394844055176,21.90932273864746,-14.434600830078125,16.146528244018555,13.82100772857666,10.318154335021973
1768420084.5741725,11.192588090896606,-15.373783111572266,21.916227340698242,-14.4541597366333,15.995046615600586,13.820816040039062,10.335602760314941
1768420084.5961776,11.214592933654785,-15.334857940673828,21.92523956298828,-14.47966194152832,15.793328285217285,13.820624351501465,10.333877563476562
1768420084.6182356,11.236650466918945,-15.299576759338379,21.929840087890625,-14.495193481445312,15.58163833618164,13.820432662963867,10.332727432250977
1768420084.6401787,11.258594036102295,-15.264486312866211,21.9344425201416,-14.508808135986328,15.380494117736816,13.820432662963867,10.33195972442627
1768420084.6621528,11.280568361282349,-15.24339485168457,21.94403076171875,-14.527023315429688,15.228438377380371,13.820432662963867,10.331384658813477
1768420084.6842163,11.302631139755249,-15.20849609375,21.94901466369629,-14.538145065307617,15.148862838745117,13.819856643676758,10.330042839050293
1768420084.7061567,11.32457184791565,-15.192197799682617,21.948440551757812,-14.550800323486328,15.11722469329834,13.819281578063965,10.33023452758789
1768420084.7282043,11.346619129180908,-15.161901473999023,21.946521759033203,-14.555977821350098,15.075231552124023,13.818706512451172,10.329851150512695
1768420084.7501614,11.368576765060425,-15.130263328552246,21.945947647094727,-14.561155319213867,15.032279968261719,13.818131446838379,10.33023452758789
1768420084.7721977,11.390613079071045,-15.106678009033203,21.945371627807617,-14.565948486328125,15.018665313720703,13.818131446838379,10.33023452758789
1768420084.7941554,11.412570714950562,-15.101692199707031,21.94422149658203,-14.574193954467773,15.005818367004395,13.817748069763184,10.33023452758789
1768420084.816129,11.434544801712036,-15.083477020263672,21.936168670654297,-14.58128833770752,14.965934753417969,13.817939758300781,10.330042839050293
1768420084.8381538,11.456568956375122,-15.08309268951416,21.935209274291992,-14.602189064025879,14.858940124511719,13.817748069763184,10.330042839050293
1768420084.8601515,11.478566884994507,-15.08366870880127,21.923704147338867,-14.612159729003906,14.695953369140625,13.817748069763184,10.330042839050293
1768420084.8821337,11.500548839569092,-15.085968971252441,21.91124153137207,-14.64322280883789,14.483113288879395,13.817939758300781,10.329851150512695
1768420084.9041493,11.52256464958191,-15.086736679077148,21.903186798095703,-14.671026229858398,14.253591537475586,13.817748069763184,10.33023452758789
1768420084.9261408,11.5445556640625,-15.091913223266602,21.898393630981445,-14.69173526763916,14.04362678527832,13.818323135375977,10.329851150512695
1768420084.9481492,11.566564559936523,-15.088653564453125,21.89590072631836,-14.707841873168945,13.885626792907715,13.818131446838379,10.329851150512695
1768420084.9701297,11.588544845581055,-15.08309268951416,21.892641067504883,-14.726058006286621,13.774796485900879,13.818131446838379,10.329851150512695
1768420084.9921246,11.610539674758911,-15.078107833862305,21.88957405090332,-14.738521575927734,13.674128532409668,13.817939758300781,10.330042839050293
1768420085.0141287,11.632544040679932,-15.061041831970215,21.881135940551758,-14.768242835998535,13.55965518951416,13.817939758300781,10.329851150512695
1768420085.0361254,11.654540777206421,-15.051262855529785,21.86368751525879,-14.781281471252441,13.439236640930176,13.817939758300781,10.329851150512695
1768420085.0581286,11.676543951034546,-15.050687789916992,21.837417602539062,-14.805633544921875,13.309040069580078,13.817748069763184,10.329851150512695
1768420085.080124,11.69853949546814,-15.0501127243042,21.819969177246094,-14.831711769104004,13.18478775024414,13.817939758300781,10.329851150512695
1768420085.102109,11.720524311065674,-15.051071166992188,21.799835205078125,-14.847626686096191,13.070121765136719,13.817748069763184,10.33023452758789
1768420085.1241136,11.742529153823853,-15.051837921142578,21.76953887939453,-14.854146003723145,12.9727144241333,13.817556381225586,10.329851150512695
1768420085.1461253,11.764540672302246,-15.054522514343262,21.757266998291016,-14.860857009887695,12.889687538146973,13.817556381225586,10.329659461975098
1768420085.1681213,11.786536693572998,-15.063918113708496,21.74787139892578,-14.86718463897705,12.851912498474121,13.817556381225586,10.329275131225586
1768420085.190126,11.808541536331177,-15.078107833862305,21.74365234375,-14.871787071228027,12.82353401184082,13.81583023071289,10.329083442687988
1768420085.2120984,11.83051323890686,-15.092680931091309,21.73502540588379,-14.873320579528809,12.794197082519531,13.814488410949707,10.328700065612793
1768420085.2341783,11.852593183517456,-15.099583625793457,21.729656219482422,-14.873703956604004,12.77214527130127,13.814680099487305,10.32889175415039
1768420085.2561195,11.874534845352173,-15.116456985473633,21.730039596557617,-14.874663352966309,12.761982917785645,13.814680099487305,10.328700065612793
1768420085.2780688,11.896484136581421,-15.11511516571045,21.72888946533203,-14.874279022216797,12.763325691223145,13.814871788024902,10.328508377075195
1768420085.3000987,11.918514251708984,-15.111472129821777,21.725053787231445,-14.874471664428711,12.765817642211914,13.814680099487305,10.328508377075195
1768420085.3221612,11.940576314926147,-15.105144500732422,21.72620391845703,-14.874471664428711,12.765434265136719,13.814871788024902,10.328508377075195
1768420085.3441672,11.962582111358643,-15.0934476852417,21.727354049682617,-14.8754301071167,12.765625953674316,13.814680099487305,10.328125
1768420085.3661618,11.984577417373657,-15.084052085876465,21.732149124145508,-14.87619686126709,12.765050888061523,13.814680099487305,10.328125
1768420085.3881576,12.00657320022583,-15.066027641296387,21.734066009521484,-14.87619686126709,12.764284133911133,13.814871788024902,10.327933311462402
1768420085.4101598,12.02857518196106,-15.04110050201416,21.740009307861328,-14.876771926879883,12.76370906829834,13.814680099487305,10.328125
1768420085.4321566,12.050571918487549,-15.03515625,21.745378494262695,-14.876771926879883,12.763325691223145,13.814680099487305,10.327933311462402
1768420085.4541316,12.07254695892334,-15.026527404785156,21.74557113647461,-14.876388549804688,12.760641098022461,13.814680099487305,10.327933311462402
1768420085.4761434,12.094558238983154,-15.00754451751709,21.747297286987305,-14.876005172729492,12.748560905456543,13.814488410949707,10.327933311462402
1768420085.498145,12.116559743881226,-14.992971420288086,21.750364303588867,-14.87619686126709,12.729193687438965,13.814871788024902,10.327741622924805
1768420085.5201497,12.138564586639404,-14.992971420288086,21.74921417236328,-14.876388549804688,12.70330810546875,13.814871788024902,10.327741622924805
1768420085.5421443,12.160558938980103,-14.991246223449707,21.74652862548828,-14.876771926879883,12.65997314453125,13.814871788024902,10.327741622924805
1768420085.5641406,12.182555198669434,-14.991246223449707,21.745378494262695,-14.877346992492676,12.590943336486816,13.814871788024902,10.327549934387207
1768420085.5861177,12.204532623291016,-14.993546485900879,21.7449951171875,-14.87753963470459,12.532076835632324,13.814871788024902,10.327549934387207
1768420085.6081245,12.226539134979248,-14.995080947875977,21.745187759399414,-14.87753963470459,12.473018646240234,13.814680099487305,10.327741622924805
1768420085.6301572,12.248571872711182,-14.999299049377441,21.744421005249023,-14.877155303955078,12.404373168945312,13.8150634765625,10.327933311462402
1768420085.6521301,12.270545482635498,-15.007736206054688,21.743078231811523,-14.877155303955078,12.373693466186523,13.8150634765625,10.327741622924805
1768420085.6741347,12.292550086975098,-15.015597343444824,21.743844985961914,-14.877346992492676,12.378294944763184,13.814871788024902,10.327741622924805
1768420085.6961336,12.31454873085022,-15.016940116882324,21.743844985961914,-14.87753963470459,12.377911567687988,13.8150634765625,10.327549934387207
1768420085.7181294,12.336544752120972,-15.022500991821289,21.744611740112305,-14.878881454467773,12.377911567687988,13.814680099487305,10.327549934387207
1768420085.7401361,12.358551263809204,-15.022884368896484,21.748254776000977,-14.880223274230957,12.378103256225586,13.814871788024902,10.327549934387207
1768420085.762063,12.380478620529175,-15.023842811584473,21.748638153076172,-14.880607604980469,12.377911567687988,13.814871788024902,10.327741622924805
1768420085.7841437,12.402559280395508,-15.031513214111328,21.748830795288086,-14.880223274230957,12.37771987915039,13.8150634765625,10.327933311462402
1768420085.806183,12.424597978591919,-15.036114692687988,21.752090454101562,-14.880414962768555,12.377144813537598,13.814871788024902,10.327549934387207
1768420085.828179,12.446593523025513,-15.039182662963867,21.762828826904297,-14.880607604980469,12.376953125,13.814871788024902,10.327549934387207
1768420085.8501716,12.468586206436157,-15.046277046203613,21.773948669433594,-14.880799293518066,12.376761436462402,13.814871788024902,10.327741622924805
1768420085.8721578,12.490572690963745,-15.052605628967285,21.780277252197266,-14.881566047668457,12.37618637084961,13.814871788024902,10.327549934387207
1768420085.8941228,12.512537956237793,-15.061041831970215,21.782194137573242,-14.883867263793945,12.37618637084961,13.814871788024902,10.327741622924805
1768420085.9161139,12.534529447555542,-15.065260887145996,21.78142738342285,-14.884634017944336,12.37618637084961,13.814871788024902,10.327549934387207
1768420085.938145,12.556559562683105,-15.069095611572266,21.78066062927246,-14.885400772094727,12.37618637084961,13.814680099487305,10.327741622924805
1768420085.9601178,12.578533172607422,-15.075806617736816,21.780853271484375,-14.885784149169922,12.375226974487305,13.814871788024902,10.327549934387207
1768420085.982121,12.600536346435547,-15.089228630065918,21.78142738342285,-14.885784149169922,12.37484359741211,13.814871788024902,10.327741622924805
1768420086.0041013,12.622516870498657,-15.090954780578613,21.78123664855957,-14.885784149169922,12.37484359741211,13.814871788024902,10.327549934387207
1768420086.026155,12.644569873809814,-15.095748901367188,21.77855110168457,-14.885592460632324,12.37484359741211,13.814680099487305,10.327549934387207
1768420086.048168,12.666582822799683,-15.099775314331055,21.775484085083008,-14.884634017944336,12.374651908874512,13.814871788024902,10.327549934387207
1768420086.0700736,12.688488960266113,-15.104376792907715,21.773374557495117,-14.884634017944336,12.37484359741211,13.814680099487305,10.327549934387207
1768420086.0921228,12.710538387298584,-15.107061386108398,21.773948669433594,-14.884634017944336,12.374651908874512,13.814871788024902,10.327549934387207
1768420086.1141155,12.732531070709229,-15.108595848083496,21.775291442871094,-14.884825706481934,12.37484359741211,13.814488410949707,10.327741622924805
1768420086.1360848,12.754500150680542,-15.108020782470703,21.776634216308594,-14.885400772094727,12.375035285949707,13.814680099487305,10.327549934387207
1768420086.1580915,12.776506900787354,-15.107636451721191,21.777400970458984,-14.88597583770752,12.375035285949707,13.814871788024902,10.32735824584961
1768420086.1800768,12.798492193222046,-15.107828140258789,21.77931785583496,-14.88597583770752,12.37484359741211,13.814871788024902,10.32735824584961
1768420086.2020798,12.820494651794434,-15.106678009033203,21.783536911010742,-14.88597583770752,12.375226974487305,13.814871788024902,10.327549934387207
1768420086.224082,12.842496871948242,-15.1068696975708,21.792932510375977,-14.885784149169922,12.375418663024902,13.814871788024902,10.327549934387207
1768420086.246082,12.86449670791626,-15.107253074645996,21.807504653930664,-14.885592460632324,12.375802040100098,13.814871788024902,10.327549934387207
1768420086.268055,12.886469841003418,-15.107828140258789,21.831281661987305,-14.885784149169922,12.375802040100098,13.814680099487305,10.327549934387207
1768420086.290005,12.908419847488403,-15.107636451721191,21.85467529296875,-14.88597583770752,12.375993728637695,13.814488410949707,10.327549934387207
1768420086.3120615,12.930476188659668,-15.106678009033203,21.883628845214844,-14.886359214782715,12.375993728637695,13.814680099487305,10.327549934387207
1768420086.3340847,12.952500104904175,-15.104952812194824,21.89647674560547,-14.886359214782715,12.375993728637695,13.814488410949707,10.327549934387207
1768420086.3560383,12.974453449249268,-15.103418350219727,21.89724349975586,-14.886359214782715,12.375802040100098,13.814680099487305,10.327549934387207
1768420086.3779979,12.996413230895996,-15.09804916381836,21.899736404418945,-14.886359214782715,12.375993728637695,13.814488410949707,10.327549934387207
1768420086.400075,13.018489837646484,-15.092680931091309,21.901269912719727,-14.886359214782715,12.375993728637695,13.814871788024902,10.327549934387207
1768420086.4220052,13.040420770645142,-15.090763092041016,21.90567970275879,-14.886550903320312,12.375993728637695,13.814680099487305,10.327549934387207
1768420086.4440591,13.062474012374878,-15.08961296081543,21.914501190185547,-14.886935234069824,12.37618637084961,13.814680099487305,10.327741622924805
1768420086.4660711,13.084486484527588,-15.089421272277832,21.924280166625977,-14.887510299682617,12.37618637084961,13.814871788024902,10.327549934387207
1768420086.4880288,13.106444120407104,-15.090954780578613,21.935976028442383,-14.888468742370605,12.37618637084961,13.814680099487305,10.327549934387207
1768420086.5100963,13.128511190414429,-15.092680931091309,21.946521759033203,-14.890003204345703,12.37618637084961,13.814680099487305,10.32735824584961
1768420086.5320961,13.150511264801025,-15.093639373779297,21.95246696472168,-14.8901948928833,12.376378059387207,13.814680099487305,10.327549934387207
1768420086.5541046,13.172519207000732,-15.094597816467285,21.953617095947266,-14.890386581420898,12.37618637084961,13.814871788024902,10.327549934387207
1768420086.5760443,13.194459676742554,-15.09498119354248,21.954959869384766,-14.890386581420898,12.376378059387207,13.814871788024902,10.327549934387207
1768420086.598034,13.21644902229309,-15.094597816467285,21.961095809936523,-14.890961647033691,12.37618637084961,13.814680099487305,10.327549934387207
1768420086.62004,13.238455057144165,-15.094406127929688,21.972408294677734,-14.89268684387207,12.376378059387207,13.814680099487305,10.327549934387207
1768420086.6420462,13.26046109199524,-15.093639373779297,21.98314666748047,-14.894412994384766,12.37618637084961,13.814680099487305,10.327549934387207
1768420086.6640458,13.282461404800415,-15.093255996704102,21.99733543395996,-14.89709758758545,12.37618637084961,13.814871788024902,10.32735824584961
1768420086.686048,13.304463148117065,-15.092489242553711,22.002321243286133,-14.899015426635742,12.375993728637695,13.814680099487305,10.327549934387207
1768420086.708054,13.326469421386719,-15.090763092041016,22.002513885498047,-14.899590492248535,12.37618637084961,13.814680099487305,10.327549934387207
1768420086.7299707,13.348385572433472,-15.08903694152832,22.000978469848633,-14.89997386932373,12.37618637084961,13.814680099487305,10.327549934387207
1768420086.752013,13.37042784690857,-15.088078498840332,22.000978469848633,-14.900165557861328,12.37618637084961,13.814680099487305,10.327549934387207
1768420086.7740254,13.392440795898438,-15.088078498840332,22.000595092773438,-14.900932312011719,12.376569747924805,13.814680099487305,10.327549934387207
1768420086.7960854,13.41450023651123,-15.088078498840332,22.000404357910156,-14.901890754699707,12.376378059387207,13.814680099487305,10.327549934387207
1768420086.818078,13.436492919921875,-15.088653564453125,22.00078773498535,-14.90304183959961,12.376378059387207,13.814871788024902,10.32735824584961
1768420086.8400102,13.458425760269165,-15.089228630065918,22.000595092773438,-14.905534744262695,12.376378059387207,13.814871788024902,10.327549934387207
1768420086.8619678,13.48038363456726,-15.089804649353027,22.000595092773438,-14.90898609161377,12.37618637084961,13.814680099487305,10.32735824584961
1768420086.884011,13.502426385879517,-15.089804649353027,21.99867820739746,-14.916080474853516,12.376569747924805,13.814680099487305,10.327549934387207
1768420086.9060233,13.52443814277649,-15.089804649353027,21.995994567871094,-14.925284385681152,12.376378059387207,13.814871788024902,10.32735824584961
1768420086.928012,13.546427249908447,-15.08961296081543,21.99580192565918,-14.940815925598145,12.37618637084961,13.814488410949707,10.327741622924805
1768420086.9500072,13.568422555923462,-15.089996337890625,21.996185302734375,-14.964017868041992,12.376378059387207,13.814871788024902,10.327549934387207
1768420086.9720137,13.590429306030273,-15.089804649353027,21.996185302734375,-14.984917640686035,12.3756103515625,13.814488410949707,10.327549934387207
1768420086.9940276,13.612442255020142,-15.089804649353027,21.996952056884766,-15.018281936645508,12.375802040100098,13.814871788024902,10.32735824584961
1768420087.0160663,13.634481191635132,-15.089804649353027,21.99656867980957,-15.037840843200684,12.375802040100098,13.814488410949707,10.32735824584961
1768420087.037888,13.656302690505981,-15.089996337890625,21.994651794433594,-15.05893325805664,12.375226974487305,13.814680099487305,10.327549934387207
1768420087.060009,13.67842435836792,-15.089804649353027,21.994075775146484,-15.085585594177246,12.375418663024902,13.814680099487305,10.327549934387207
1768420087.081998,13.700413465499878,-15.08961296081543,21.994075775146484,-15.111472129821777,12.374268531799316,13.814488410949707,10.327549934387207
1768420087.1039975,13.722413063049316,-15.089996337890625,21.993885040283203,-15.131988525390625,12.374268531799316,13.814680099487305,10.32735824584961
1768420087.1260037,13.744418859481812,-15.090571403503418,21.990432739257812,-15.146944999694824,12.374076843261719,13.814488410949707,10.32735824584961
1768420087.1479826,13.766397714614868,-15.090763092041016,21.985063552856445,-15.156148910522461,12.373693466186523,13.814488410949707,10.32735824584961
1768420087.1699407,13.788355827331543,-15.09037971496582,21.97279167175293,-15.167845726013184,12.373501777648926,13.814680099487305,10.327549934387207
1768420087.191906,13.810321569442749,-15.09037971496582,21.953617095947266,-15.169187545776367,12.373501777648926,13.814680099487305,10.327549934387207
1768420087.2140372,13.832452058792114,-15.090571403503418,21.929840087890625,-15.169763565063477,12.372734069824219,13.814871788024902,10.327549934387207
1768420087.2359807,13.854395866394043,-15.090763092041016,21.903955459594727,-15.169571876525879,12.372159004211426,13.814680099487305,10.327741622924805
1768420087.2579627,13.876378297805786,-15.092296600341797,21.88612174987793,-15.169571876525879,12.371200561523438,13.814680099487305,10.327549934387207
1768420087.2799811,13.898396492004395,-15.094022750854492,21.872507095336914,-15.169763565063477,12.370050430297852,13.814871788024902,10.327549934387207
1768420087.3019896,13.92040467262268,-15.09632396697998,21.868864059448242,-15.169763565063477,12.368515968322754,13.814680099487305,10.327549934387207
1768420087.3239737,13.942389249801636,-15.096707344055176,21.86790657043457,-15.170913696289062,12.366214752197266,13.814488410949707,10.327549934387207
1768420087.345924,13.964339256286621,-15.097090721130371,21.86598777770996,-15.17244815826416,12.36372184753418,13.814488410949707,10.327549934387207
1768420087.3679843,13.98639988899231,-15.096899032592773,21.860044479370117,-15.172639846801758,12.362188339233398,13.814488410949707,10.32735824584961
1768420087.3899791,14.008394479751587,-15.095940589904785,21.84547233581543,-15.17244815826416,12.35912036895752,13.814680099487305,10.327549934387207
1768420087.4120605,14.030475378036499,-15.094789505004883,21.830514907836914,-15.17244815826416,12.351066589355469,13.814680099487305,10.327549934387207
1768420087.43395,14.05236530303955,-15.094022750854492,21.81134033203125,-15.17244815826416,12.331125259399414,13.814680099487305,10.32735824584961
1768420087.4559515,14.074367046356201,-15.094789505004883,21.783536911010742,-15.17244815826416,12.289132118225098,13.814680099487305,10.32735824584961
1768420087.4779043,14.096319198608398,-15.094789505004883,21.75956916809082,-15.17244815826416,12.221061706542969,13.814871788024902,10.327549934387207
1768420087.4999404,14.118355512619019,-15.097090721130371,21.75400733947754,-15.172639846801758,12.157209396362305,13.814871788024902,10.327166557312012
1768420087.5219214,14.140336751937866,-15.100542068481445,21.75458335876465,-15.173406600952148,12.086262702941895,13.814680099487305,10.32735824584961
1768420087.5439506,14.162365913391113,-15.101884841918945,21.755733489990234,-15.17321491241455,12.038326263427734,13.814871788024902,10.32735824584961
1768420087.5658553,14.184269905090332,-15.102076530456543,21.766088485717773,-15.172639846801758,12.043886184692383,13.814680099487305,10.327549934387207
1768420087.5878696,14.20628547668457,-15.09939193725586,21.77567481994629,-15.172063827514648,12.055007934570312,13.814488410949707,10.327549934387207
1768420087.6099315,14.228346824645996,-15.09421443939209,21.775291442871094,-15.171297073364258,12.050406455993652,13.814680099487305,10.32735824584961
1768420087.631955,14.250370264053345,-15.09037971496582,21.772415161132812,-15.170913696289062,12.050789833068848,13.814680099487305,10.32735824584961
1768420087.653853,14.272267580032349,-15.08654499053955,21.771648406982422,-15.171297073364258,12.05059814453125,13.814871788024902,10.327549934387207
1768420087.675935,14.294350147247314,-15.085393905639648,21.7735652923584,-15.17187213897705,12.050789833068848,13.814680099487305,10.327549934387207
1768420087.6979408,14.31635570526123,-15.086160659790039,21.77720832824707,-15.172831535339355,12.05059814453125,13.814680099487305,10.32735824584961
1768420087.7198691,14.338284492492676,-15.086928367614746,21.77931785583496,-15.173023223876953,12.050789833068848,13.814680099487305,10.327549934387207
1768420087.7418702,14.360284805297852,-15.089421272277832,21.78123664855957,-15.173023223876953,12.050406455993652,13.814871788024902,10.32735824584961
1768420087.7639282,14.382343530654907,-15.092489242553711,21.78066062927246,-15.172831535339355,12.05059814453125,13.814680099487305,10.327549934387207
1768420087.785958,14.404372930526733,-15.093064308166504,21.778167724609375,-15.172831535339355,12.050406455993652,13.814680099487305,10.327549934387207
1768420087.8080041,14.426418781280518,-15.095364570617676,21.77644157409668,-15.172639846801758,12.050213813781738,13.814488410949707,10.32735824584961
