thejerrycheng/MEng_project/meng_ws/circle_path_tracking_error.csv
timestamp,phase,q1,q2,q3,q4,q5,q6,ee_x_act,ee_y_act,ee_z_act,ee_x_des,ee_y_des,ee_z_des,err_x,err_y,err_z
0.0000,WAIT_FOR_START,-0.1962,0.1331,-1.4476,0.0134,0.1282,3.1465,0.0632,0.3177,0.7058,0.0603,0.3186,0.7055,-0.002946,0.000886,-0.000317
0.0000,WAIT_FOR_START,-0.2004,0.1307,-1.4582,0.0576,0.2536,3.1117,0.0650,0.3171,0.7060,0.0603,0.3186,0.7055,-0.004770,0.001519,-0.000534
0.0000,WAIT_FOR_START,-0.1987,0.1264,-1.4662,0.0852,0.3764,3.0919,0.0652,0.3169,0.7062,0.0603,0.3186,0.7055,-0.004894,0.001764,-0.000672
0.0000,WAIT_FOR_START,-0.1955,0.1204,-1.4716,0.1005,0.4958,3.0837,0.0648,0.3168,0.7063,0.0603,0.3186,0.7055,-0.004547,0.001871,-0.000774
0.0000,WAIT_FOR_START,-0.1922,0.1128,-1.4745,0.1101,0.6113,3.0809,0.0644,0.3167,0.7063,0.0603,0.3186,0.7055,-0.004099,0.001916,-0.000839
0.0000,WAIT_FOR_START,-0.1889,0.1041,-1.4749,0.1170,0.7225,3.0807,0.0639,0.3167,0.7064,0.0603,0.3186,0.7055,-0.003652,0.001922,-0.000870
0.0000,WAIT_FOR_START,-0.1859,0.0944,-1.4732,0.1224,0.8292,3.0818,0.0635,0.3167,0.7064,0.0603,0.3186,0.7055,-0.003235,0.001897,-0.000873
0.0000,WAIT_FOR_START,-0.1832,0.0840,-1.4696,0.1270,0.9311,3.0838,0.0631,0.3168,0.7064,0.0603,0.3186,0.7055,-0.002857,0.001850,-0.000855
0.0000,WAIT_FOR_START,-0.1808,0.0731,-1.4642,0.1310,1.0282,3.0863,0.0628,0.3168,0.7063,0.0603,0.3186,0.7055,-0.002518,0.001784,-0.000823
0.0000,WAIT_FOR_START,-0.1786,0.0620,-1.4574,0.1347,1.1205,3.0891,0.0625,0.3169,0.7063,0.0603,0.3186,0.7055,-0.002217,0.001706,-0.000782
0.0000,WAIT_FOR_START,-0.1767,0.0508,-1.4493,0.1382,1.2079,3.0922,0.0622,0.3170,0.7062,0.0603,0.3186,0.7055,-0.001950,0.001618,-0.000737
0.0000,WAIT_FOR_START,-0.1750,0.0396,-1.4403,0.1416,1.2885,3.0954,0.0620,0.3172,0.7062,0.0603,0.3186,0.7055,-0.001726,0.001438,-0.000681
0.0000,WAIT_FOR_START,-0.1736,0.0287,-1.4305,0.1449,1.3571,3.0986,0.0619,0.3177,0.7061,0.0603,0.3186,0.7055,-0.001576,0.000945,-0.000620
0.0000,WAIT_FOR_START,-0.1723,0.0183,-1.4204,0.1482,1.4153,3.1020,0.0618,0.3184,0.7061,0.0603,0.3186,0.7055,-0.001487,0.000231,-0.000596
0.0000,WAIT_FOR_START,-0.1712,0.0083,-1.4102,0.1514,1.4649,3.1054,0.0617,0.3193,0.7061,0.0603,0.3186,0.7055,-0.001448,-0.000630,-0.000628
0.0000,WAIT_FOR_START,-0.1702,-0.0010,-1.4001,0.1546,1.5070,3.1088,0.0617,0.3202,0.7062,0.0603,0.3186,0.7055,-0.001449,-0.001580,-0.000719
0.0000,WAIT_FOR_START,-0.1693,-0.0097,-1.3903,0.1577,1.5428,3.1122,0.0618,0.3212,0.7064,0.0603,0.3186,0.7055,-0.001481,-0.002577,-0.000869
0.0000,WAIT_FOR_START,-0.1686,-0.0178,-1.3808,0.1609,1.5732,3.1156,0.0618,0.3222,0.7066,0.0603,0.3186,0.7055,-0.001538,-0.003587,-0.001070
0.0000,WAIT_FOR_START,-0.1679,-0.0253,-1.3717,0.1639,1.5990,3.1190,0.0619,0.3232,0.7068,0.0603,0.3186,0.7055,-0.001612,-0.004586,-0.001314
0.0000,WAIT_FOR_START,-0.1673,-0.0321,-1.3631,0.1670,1.6210,3.1223,0.0620,0.3242,0.7071,0.0603,0.3186,0.7055,-0.001698,-0.005559,-0.001592
0.0000,WAIT_FOR_START,-0.1668,-0.0384,-1.3550,0.1700,1.6397,3.1256,0.0621,0.3251,0.7074,0.0603,0.3186,0.7055,-0.001794,-0.006492,-0.001894
0.0000,WAIT_FOR_START,-0.1663,-0.0442,-1.3475,0.1729,1.6556,3.1288,0.0622,0.3260,0.7077,0.0603,0.3186,0.7055,-0.001894,-0.007378,-0.002213
0.0000,WAIT_FOR_START,-0.1658,-0.0494,-1.3404,0.1758,1.6691,3.1320,0.0623,0.3268,0.7080,0.0603,0.3186,0.7055,-0.001997,-0.008212,-0.002541
0.0000,WAIT_FOR_START,-0.1654,-0.0542,-1.3339,0.1786,1.6806,3.1352,0.0624,0.3276,0.7084,0.0603,0.3186,0.7055,-0.002101,-0.008994,-0.002872
0.0000,WAIT_FOR_START,-0.1650,-0.0586,-1.3278,0.1814,1.6903,3.1383,0.0625,0.3283,0.7087,0.0603,0.3186,0.7055,-0.002203,-0.009720,-0.003201
0.0000,WAIT_FOR_START,-0.1647,-0.0625,-1.3222,0.1842,1.6986,3.1413,0.0626,0.3290,0.7090,0.0603,0.3186,0.7055,-0.002303,-0.010394,-0.003524
0.0000,WAIT_FOR_START,-0.1643,-0.0661,-1.3171,0.1868,1.7056,3.1442,0.0627,0.3296,0.7093,0.0603,0.3186,0.7055,-0.002400,-0.011015,-0.003838
0.0000,WAIT_FOR_START,-0.1640,-0.0693,-1.3124,0.1895,1.7116,3.1471,0.0628,0.3302,0.7096,0.0603,0.3186,0.7055,-0.002493,-0.011586,-0.004140
0.0000,WAIT_FOR_START,-0.1637,-0.0723,-1.3080,0.1920,1.7167,3.1500,0.0629,0.3307,0.7099,0.0603,0.3186,0.7055,-0.002581,-0.012109,-0.004429
0.0000,WAIT_FOR_START,-0.1634,-0.0749,-1.3041,0.1945,1.7211,3.1527,0.0629,0.3312,0.7102,0.0603,0.3186,0.7055,-0.002665,-0.012588,-0.004703
0.0000,WAIT_FOR_START,-0.1632,-0.0773,-1.3005,0.1970,1.7247,3.1554,0.0630,0.3316,0.7105,0.0603,0.3186,0.7055,-0.002745,-0.013025,-0.004961
0.0000,WAIT_FOR_START,-0.1629,-0.0795,-1.2972,0.1994,1.7279,3.1581,0.0631,0.3320,0.7107,0.0603,0.3186,0.7055,-0.002819,-0.013423,-0.005204
0.0000,WAIT_FOR_START,-0.1627,-0.0814,-1.2942,0.2017,1.7305,3.1607,0.0632,0.3324,0.7109,0.0603,0.3186,0.7055,-0.002889,-0.013785,-0.005431
0.0000,WAIT_FOR_START,-0.1624,-0.0832,-1.2915,0.2040,1.7328,3.1632,0.0632,0.3327,0.7111,0.0603,0.3186,0.7055,-0.002955,-0.014113,-0.005642
0.0000,WAIT_FOR_START,-0.1622,-0.0847,-1.2890,0.2062,1.7347,3.1656,0.0633,0.3330,0.7113,0.0603,0.3186,0.7055,-0.003016,-0.014411,-0.005838
0.0000,WAIT_FOR_START,-0.1620,-0.0862,-1.2868,0.2084,1.7364,3.1680,0.0633,0.3333,0.7115,0.0603,0.3186,0.7055,-0.003072,-0.014680,-0.006019
0.0000,WAIT_FOR_START,-0.1618,-0.0874,-1.2848,0.2105,1.7377,3.1704,0.0634,0.3335,0.7117,0.0603,0.3186,0.7055,-0.003125,-0.014924,-0.006186
0.0000,WAIT_FOR_START,-0.1616,-0.0886,-1.2829,0.2126,1.7389,3.1727,0.0634,0.3338,0.7118,0.0603,0.3186,0.7055,-0.003174,-0.015145,-0.006340
0.0000,WAIT_FOR_START,-0.1614,-0.0896,-1.2813,0.2146,1.7399,3.1749,0.0635,0.3340,0.7120,0.0603,0.3186,0.7055,-0.003219,-0.015344,-0.006480
0.0000,WAIT_FOR_START,-0.1612,-0.0905,-1.2798,0.2165,1.7408,3.1770,0.0635,0.3341,0.7121,0.0603,0.3186,0.7055,-0.003261,-0.015523,-0.006609
0.0000,WAIT_FOR_START,-0.1610,-0.0914,-1.2784,0.2185,1.7415,3.1792,0.0636,0.3343,0.7122,0.0603,0.3186,0.7055,-0.003299,-0.015685,-0.006726
0.0000,WAIT_FOR_START,-0.1608,-0.0921,-1.2772,0.2203,1.7421,3.1812,0.0636,0.3345,0.7123,0.0603,0.3186,0.7055,-0.003335,-0.015831,-0.006833
0.0000,WAIT_FOR_START,-0.1606,-0.0928,-1.2761,0.2221,1.7426,3.1832,0.0636,0.3346,0.7124,0.0603,0.3186,0.7055,-0.003368,-0.015962,-0.006930
0.0000,WAIT_FOR_START,-0.1604,-0.0934,-1.2751,0.2239,1.7431,3.1852,0.0637,0.3347,0.7125,0.0603,0.3186,0.7055,-0.003398,-0.016080,-0.007019
0.0000,WAIT_FOR_START,-0.1602,-0.0939,-1.2742,0.2256,1.7435,3.1871,0.0637,0.3348,0.7126,0.0603,0.3186,0.7055,-0.003426,-0.016187,-0.007098
0.0000,WAIT_FOR_START,-0.1601,-0.0944,-1.2734,0.2273,1.7438,3.1889,0.0637,0.3349,0.7127,0.0603,0.3186,0.7055,-0.003452,-0.016282,-0.007170
0.0000,WAIT_FOR_START,-0.1599,-0.0948,-1.2727,0.2290,1.7441,3.1907,0.0638,0.3350,0.7127,0.0603,0.3186,0.7055,-0.003476,-0.016368,-0.007235
0.0000,WAIT_FOR_START,-0.1597,-0.0952,-1.2720,0.2306,1.7443,3.1924,0.0638,0.3351,0.7128,0.0603,0.3186,0.7055,-0.003498,-0.016446,-0.007294
0.0000,WAIT_FOR_START,-0.1596,-0.0956,-1.2714,0.2321,1.7445,3.1942,0.0638,0.3351,0.7129,0.0603,0.3186,0.7055,-0.003519,-0.016515,-0.007346
0.0000,WAIT_FOR_START,-0.1594,-0.0959,-1.2709,0.2336,1.7447,3.1958,0.0638,0.3352,0.7129,0.0603,0.3186,0.7055,-0.003538,-0.016578,-0.007393
0.0000,WAIT_FOR_START,-0.1593,-0.0962,-1.2704,0.2351,1.7448,3.1974,0.0638,0.3353,0.7129,0.0603,0.3186,0.7055,-0.003555,-0.016634,-0.007435
0.0000,WAIT_FOR_START,-0.1591,-0.0964,-1.2700,0.2366,1.7449,3.1990,0.0638,0.3353,0.7130,0.0603,0.3186,0.7055,-0.003572,-0.016684,-0.007473
0.0000,WAIT_FOR_START,-0.1590,-0.0966,-1.2696,0.2380,1.7450,3.2005,0.0639,0.3354,0.7130,0.0603,0.3186,0.7055,-0.003587,-0.016730,-0.007506
0.0000,WAIT_FOR_START,-0.1588,-0.0968,-1.2692,0.2393,1.7451,3.2020,0.0639,0.3354,0.7130,0.0603,0.3186,0.7055,-0.003601,-0.016770,-0.007536
0.0000,WAIT_FOR_START,-0.1587,-0.0970,-1.2689,0.2407,1.7452,3.2035,0.0639,0.3354,0.7131,0.0603,0.3186,0.7055,-0.003614,-0.016807,-0.007562
0.0000,WAIT_FOR_START,-0.1585,-0.0972,-1.2686,0.2420,1.7453,3.2049,0.0639,0.3355,0.7131,0.0603,0.3186,0.7055,-0.003626,-0.016840,-0.007585
0.0000,WAIT_FOR_START,-0.1584,-0.0973,-1.2683,0.2432,1.7453,3.2062,0.0639,0.3355,0.7131,0.0603,0.3186,0.7055,-0.003637,-0.016870,-0.007606
0.0000,WAIT_FOR_START,-0.1583,-0.0975,-1.2681,0.2445,1.7454,3.2076,0.0639,0.3355,0.7131,0.0603,0.3186,0.7055,-0.003647,-0.016896,-0.007624
0.0000,WAIT_FOR_START,-0.1581,-0.0976,-1.2679,0.2457,1.7454,3.2089,0.0639,0.3355,0.7131,0.0603,0.3186,0.7055,-0.003657,-0.016921,-0.007639
0.0000,WAIT_FOR_START,-0.1580,-0.0977,-1.2677,0.2468,1.7454,3.2101,0.0639,0.3356,0.7132,0.0603,0.3186,0.7055,-0.003666,-0.016942,-0.007653
0.0000,WAIT_FOR_START,-0.1579,-0.0978,-1.2675,0.2480,1.7455,3.2114,0.0639,0.3356,0.7132,0.0603,0.3186,0.7055,-0.003675,-0.016962,-0.007664
0.0000,WAIT_FOR_START,-0.1578,-0.0979,-1.2674,0.2491,1.7455,3.2126,0.0640,0.3356,0.7132,0.0603,0.3186,0.7055,-0.003683,-0.016980,-0.007674
0.0000,WAIT_FOR_START,-0.1577,-0.0979,-1.2673,0.2502,1.7455,3.2137,0.0640,0.3356,0.7132,0.0603,0.3186,0.7055,-0.003691,-0.016996,-0.007683
0.0000,WAIT_FOR_START,-0.1576,-0.0980,-1.2671,0.2512,1.7455,3.2149,0.0640,0.3356,0.7132,0.0603,0.3186,0.7055,-0.003698,-0.017010,-0.007690
0.0000,WAIT_FOR_START,-0.1574,-0.0981,-1.2670,0.2523,1.7455,3.2160,0.0640,0.3356,0.7132,0.0603,0.3186,0.7055,-0.003705,-0.017023,-0.007696
0.0000,WAIT_FOR_START,-0.1573,-0.0981,-1.2669,0.2533,1.7456,3.2170,0.0640,0.3357,0.7132,0.0603,0.3186,0.7055,-0.003711,-0.017036,-0.007701
0.0000,WAIT_FOR_START,-0.1572,-0.0982,-1.2668,0.2542,1.7456,3.2181,0.0640,0.3357,0.7132,0.0603,0.3186,0.7055,-0.003717,-0.017046,-0.007704
0.0000,WAIT_FOR_START,-0.1571,-0.0982,-1.2667,0.2552,1.7456,3.2191,0.0640,0.3357,0.7132,0.0603,0.3186,0.7055,-0.003723,-0.017056,-0.007707
0.0000,WAIT_FOR_START,-0.1570,-0.0983,-1.2667,0.2561,1.7456,3.2201,0.0640,0.3357,0.7132,0.0603,0.3186,0.7055,-0.003728,-0.017066,-0.007709
0.0000,WAIT_FOR_START,-0.1569,-0.0983,-1.2666,0.2570,1.7456,3.2211,0.0640,0.3357,0.7132,0.0603,0.3186,0.7055,-0.003733,-0.017074,-0.007711
0.0000,WAIT_FOR_START,-0.1568,-0.0983,-1.2665,0.2579,1.7456,3.2220,0.0640,0.3357,0.7132,0.0603,0.3186,0.7055,-0.003738,-0.017082,-0.007712
0.0000,WAIT_FOR_START,-0.1567,-0.0984,-1.2665,0.2587,1.7456,3.2229,0.0640,0.3357,0.7132,0.0603,0.3186,0.7055,-0.003743,-0.017089,-0.007712
0.0000,WAIT_FOR_START,-0.1567,-0.0984,-1.2664,0.2595,1.7456,3.2238,0.0640,0.3357,0.7132,0.0603,0.3186,0.7055,-0.003748,-0.017095,-0.007712
0.0000,WAIT_FOR_START,-0.1566,-0.0984,-1.2664,0.2604,1.7456,3.2246,0.0640,0.3357,0.7132,0.0603,0.3186,0.7055,-0.003752,-0.017101,-0.007711
0.0000,WAIT_FOR_START,-0.1565,-0.0985,-1.2663,0.2611,1.7456,3.2255,0.0640,0.3357,0.7132,0.0603,0.3186,0.7055,-0.003756,-0.017107,-0.007710
0.0000,WAIT_FOR_START,-0.1564,-0.0985,-1.2663,0.2619,1.7456,3.2263,0.0640,0.3357,0.7132,0.0603,0.3186,0.7055,-0.003760,-0.017112,-0.007708
0.0000,WAIT_FOR_START,-0.1563,-0.0985,-1.2663,0.2626,1.7456,3.2271,0.0640,0.3357,0.7132,0.0603,0.3186,0.7055,-0.003764,-0.017117,-0.007707
0.0000,WAIT_FOR_START,-0.1562,-0.0985,-1.2662,0.2634,1.7456,3.2279,0.0640,0.3357,0.7132,0.0603,0.3186,0.7055,-0.003767,-0.017122,-0.007704
0.0000,WAIT_FOR_START,-0.1562,-0.0986,-1.2662,0.2641,1.7456,3.2286,0.0640,0.3358,0.7132,0.0603,0.3186,0.7055,-0.003771,-0.017126,-0.007702
0.0000,WAIT_FOR_START,-0.1561,-0.0986,-1.2662,0.2648,1.7456,3.2293,0.0640,0.3358,0.7132,0.0603,0.3186,0.7055,-0.003774,-0.017130,-0.007700
0.0000,WAIT_FOR_START,-0.1560,-0.0986,-1.2661,0.2654,1.7456,3.2300,0.0641,0.3358,0.7132,0.0603,0.3186,0.7055,-0.003778,-0.017134,-0.007697
0.0000,WAIT_FOR_START,-0.1560,-0.0986,-1.2661,0.2661,1.7456,3.2307,0.0641,0.3358,0.7132,0.0603,0.3186,0.7055,-0.003781,-0.017138,-0.007694
0.0000,WAIT_FOR_START,-0.1559,-0.0986,-1.2661,0.2667,1.7456,3.2314,0.0641,0.3358,0.7132,0.0603,0.3186,0.7055,-0.003784,-0.017142,-0.007691
0.0000,WAIT_FOR_START,-0.1558,-0.0986,-1.2661,0.2673,1.7456,3.2321,0.0641,0.3358,0.7132,0.0603,0.3186,0.7055,-0.003787,-0.017145,-0.007688
0.0000,WAIT_FOR_START,-0.1558,-0.0986,-1.2661,0.2679,1.7456,3.2327,0.0641,0.3358,0.7132,0.0603,0.3186,0.7055,-0.003790,-0.017148,-0.007685
0.0000,WAIT_FOR_START,-0.1557,-0.0987,-1.2660,0.2685,1.7456,3.2333,0.0641,0.3358,0.7132,0.0603,0.3186,0.7055,-0.003793,-0.017152,-0.007681
0.0000,WAIT_FOR_START,-0.1556,-0.0987,-1.2660,0.2691,1.7456,3.2339,0.0641,0.3358,0.7132,0.0603,0.3186,0.7055,-0.003795,-0.017155,-0.007678
0.0000,WAIT_FOR_START,-0.1556,-0.0987,-1.2660,0.2696,1.7456,3.2345,0.0641,0.3358,0.7132,0.0603,0.3186,0.7055,-0.003798,-0.017158,-0.007674
0.0000,WAIT_FOR_START,-0.1555,-0.0987,-1.2660,0.2702,1.7456,3.2351,0.0641,0.3358,0.7132,0.0603,0.3186,0.7055,-0.003800,-0.017161,-0.007671
0.0000,WAIT_FOR_START,-0.1555,-0.0987,-1.2660,0.2707,1.7456,3.2356,0.0641,0.3358,0.7132,0.0603,0.3186,0.7055,-0.003803,-0.017163,-0.007667
0.0000,WAIT_FOR_START,-0.1554,-0.0987,-1.2660,0.2712,1.7456,3.2362,0.0641,0.3358,0.7132,0.0603,0.3186,0.7055,-0.003805,-0.017166,-0.007663
0.0000,WAIT_FOR_START,-0.1553,-0.0987,-1.2660,0.2717,1.7456,3.2367,0.0641,0.3358,0.7132,0.0603,0.3186,0.7055,-0.003808,-0.017169,-0.007660
0.0000,WAIT_FOR_START,-0.1553,-0.0987,-1.2660,0.2722,1.7456,3.2372,0.0641,0.3358,0.7132,0.0603,0.3186,0.7055,-0.003810,-0.017172,-0.007656
0.0000,WAIT_FOR_START,-0.1552,-0.0988,-1.2660,0.2727,1.7456,3.2377,0.0641,0.3358,0.7132,0.0603,0.3186,0.7055,-0.003812,-0.017174,-0.007652
0.0000,WAIT_FOR_START,-0.1552,-0.0988,-1.2660,0.2731,1.7456,3.2382,0.0641,0.3358,0.7132,0.0603,0.3186,0.7055,-0.003814,-0.017177,-0.007648
0.0000,WAIT_FOR_START,-0.1551,-0.0988,-1.2659,0.2736,1.7456,3.2387,0.0641,0.3358,0.7132,0.0603,0.3186,0.7055,-0.003817,-0.017179,-0.007645
0.0000,WAIT_FOR_START,-0.1551,-0.0988,-1.2659,0.2740,1.7456,3.2391,0.0641,0.3358,0.7131,0.0603,0.3186,0.7055,-0.003819,-0.017182,-0.007641
0.0000,WAIT_FOR_START,-0.1551,-0.0988,-1.2659,0.2744,1.7456,3.2396,0.0641,0.3358,0.7131,0.0603,0.3186,0.7055,-0.003821,-0.017184,-0.007637
0.0000,WAIT_FOR_START,-0.1550,-0.0988,-1.2659,0.2748,1.7456,3.2400,0.0641,0.3358,0.7131,0.0603,0.3186,0.7055,-0.003823,-0.017187,-0.007633
0.0000,WAIT_FOR_START,-0.1550,-0.0988,-1.2659,0.2752,1.7456,3.2404,0.0641,0.3358,0.7131,0.0603,0.3186,0.7055,-0.003825,-0.017189,-0.007629
0.0000,WAIT_FOR_START,-0.1549,-0.0988,-1.2659,0.2756,1.7456,3.2408,0.0641,0.3358,0.7131,0.0603,0.3186,0.7055,-0.003826,-0.017192,-0.007625
0.0000,WAIT_FOR_START,-0.1549,-0.0988,-1.2659,0.2760,1.7456,3.2412,0.0641,0.3358,0.7131,0.0603,0.3186,0.7055,-0.003828,-0.017194,-0.007622
0.0000,WAIT_FOR_START,-0.1548,-0.0988,-1.2659,0.2764,1.7456,3.2416,0.0641,0.3358,0.7131,0.0603,0.3186,0.7055,-0.003830,-0.017197,-0.007618
0.0000,WAIT_FOR_START,-0.1548,-0.0989,-1.2659,0.2767,1.7456,3.2420,0.0641,0.3358,0.7131,0.0603,0.3186,0.7055,-0.003832,-0.017199,-0.007614
0.0000,WAIT_FOR_START,-0.1548,-0.0989,-1.2659,0.2771,1.7456,3.2424,0.0641,0.3358,0.7131,0.0603,0.3186,0.7055,-0.003834,-0.017201,-0.007610
0.0000,WAIT_FOR_START,-0.1547,-0.0989,-1.2659,0.2774,1.7456,3.2427,0.0641,0.3358,0.7131,0.0603,0.3186,0.7055,-0.003835,-0.017204,-0.007607
0.0000,WAIT_FOR_START,-0.1547,-0.0989,-1.2659,0.2777,1.7456,3.2431,0.0641,0.3358,0.7131,0.0603,0.3186,0.7055,-0.003837,-0.017206,-0.007603
0.0000,WAIT_FOR_START,-0.1547,-0.0989,-1.2659,0.2780,1.7456,3.2434,0.0641,0.3358,0.7131,0.0603,0.3186,0.7055,-0.003839,-0.017208,-0.007599
0.0000,WAIT_FOR_START,-0.1546,-0.0989,-1.2659,0.2784,1.7456,3.2437,0.0641,0.3358,0.7131,0.0603,0.3186,0.7055,-0.003840,-0.017211,-0.007595
0.0000,WAIT_FOR_START,-0.1546,-0.0989,-1.2659,0.2787,1.7456,3.2441,0.0641,0.3358,0.7131,0.0603,0.3186,0.7055,-0.003842,-0.017213,-0.007592
0.0000,WAIT_FOR_START,-0.1546,-0.0989,-1.2659,0.2790,1.7456,3.2444,0.0641,0.3358,0.7131,0.0603,0.3186,0.7055,-0.003843,-0.017215,-0.007588
0.0000,WAIT_FOR_START,-0.1545,-0.0989,-1.2659,0.2792,1.7456,3.2447,0.0641,0.3358,0.7131,0.0603,0.3186,0.7055,-0.003845,-0.017218,-0.007584
0.0000,WAIT_FOR_START,-0.1545,-0.0989,-1.2659,0.2795,1.7456,3.2450,0.0641,0.3358,0.7131,0.0603,0.3186,0.7055,-0.003846,-0.017220,-0.007580
0.0000,WAIT_FOR_START,-0.1545,-0.0989,-1.2659,0.2798,1.7456,3.2452,0.0641,0.3358,0.7131,0.0603,0.3186,0.7055,-0.003848,-0.017222,-0.007577
0.0000,WAIT_FOR_START,-0.1544,-0.0990,-1.2659,0.2801,1.7456,3.2455,0.0641,0.3358,0.7131,0.0603,0.3186,0.7055,-0.003849,-0.017225,-0.007573
0.0000,WAIT_FOR_START,-0.1544,-0.0990,-1.2659,0.2803,1.7456,3.2458,0.0641,0.3359,0.7131,0.0603,0.3186,0.7055,-0.003850,-0.017227,-0.007570
0.0000,WAIT_FOR_START,-0.1544,-0.0990,-1.2659,0.2806,1.7456,3.2461,0.0641,0.3359,0.7131,0.0603,0.3186,0.7055,-0.003852,-0.017229,-0.007566
0.0000,WAIT_FOR_START,-0.1544,-0.0990,-1.2659,0.2808,1.7456,3.2463,0.0641,0.3359,0.7131,0.0603,0.3186,0.7055,-0.003853,-0.017232,-0.007562
0.0000,WAIT_FOR_START,-0.1543,-0.0990,-1.2659,0.2810,1.7456,3.2466,0.0641,0.3359,0.7131,0.0603,0.3186,0.7055,-0.003854,-0.017234,-0.007559
0.0000,WAIT_FOR_START,-0.1543,-0.0990,-1.2659,0.2813,1.7456,3.2468,0.0641,0.3359,0.7131,0.0603,0.3186,0.7055,-0.003856,-0.017236,-0.007555
0.0000,WAIT_FOR_START,-0.1543,-0.0990,-1.2659,0.2815,1.7456,3.2470,0.0641,0.3359,0.7131,0.0603,0.3186,0.7055,-0.003857,-0.017238,-0.007552
0.0000,WAIT_FOR_START,-0.1543,-0.0990,-1.2659,0.2817,1.7456,3.2473,0.0641,0.3359,0.7131,0.0603,0.3186,0.7055,-0.003858,-0.017241,-0.007548
0.0000,WAIT_FOR_START,-0.1542,-0.0990,-1.2659,0.2819,1.7456,3.2475,0.0641,0.3359,0.7131,0.0603,0.3186,0.7055,-0.003859,-0.017243,-0.007545
0.0000,WAIT_FOR_START,-0.1542,-0.0990,-1.2659,0.2821,1.7456,3.2477,0.0641,0.3359,0.7130,0.0603,0.3186,0.7055,-0.003861,-0.017245,-0.007541
0.0000,WAIT_FOR_START,-0.1542,-0.0990,-1.2659,0.2823,1.7456,3.2479,0.0641,0.3359,0.7130,0.0603,0.3186,0.7055,-0.003862,-0.017247,-0.007538
0.0000,WAIT_FOR_START,-0.1542,-0.0990,-1.2659,0.2825,1.7456,3.2481,0.0641,0.3359,0.7130,0.0603,0.3186,0.7055,-0.003863,-0.017250,-0.007534
0.0000,WAIT_FOR_START,-0.1542,-0.0991,-1.2659,0.2827,1.7456,3.2483,0.0641,0.3359,0.7130,0.0603,0.3186,0.7055,-0.003864,-0.017252,-0.007531
0.0000,WAIT_FOR_START,-0.1541,-0.0991,-1.2659,0.2829,1.7456,3.2485,0.0641,0.3359,0.7130,0.0603,0.3186,0.7055,-0.003865,-0.017254,-0.007527
0.0000,WAIT_FOR_START,-0.1541,-0.0991,-1.2659,0.2831,1.7456,3.2487,0.0641,0.3359,0.7130,0.0603,0.3186,0.7055,-0.003866,-0.017257,-0.007524
0.0000,WAIT_FOR_START,-0.1541,-0.0991,-1.2659,0.2832,1.7456,3.2489,0.0641,0.3359,0.7130,0.0603,0.3186,0.7055,-0.003867,-0.017259,-0.007521
0.0000,WAIT_FOR_START,-0.1541,-0.0991,-1.2659,0.2834,1.7456,3.2491,0.0641,0.3359,0.7130,0.0603,0.3186,0.7055,-0.003868,-0.017261,-0.007517
0.0000,WAIT_FOR_START,-0.1541,-0.0991,-1.2659,0.2836,1.7456,3.2492,0.0641,0.3359,0.7130,0.0603,0.3186,0.7055,-0.003869,-0.017263,-0.007514
0.0000,WAIT_FOR_START,-0.1541,-0.0991,-1.2659,0.2837,1.7456,3.2494,0.0641,0.3359,0.7130,0.0603,0.3186,0.7055,-0.003870,-0.017266,-0.007511
0.0000,WAIT_FOR_START,-0.1540,-0.0991,-1.2659,0.2839,1.7456,3.2496,0.0641,0.3359,0.7130,0.0603,0.3186,0.7055,-0.003871,-0.017268,-0.007507
0.0000,WAIT_FOR_START,-0.1540,-0.0991,-1.2659,0.2840,1.7456,3.2497,0.0641,0.3359,0.7130,0.0603,0.3186,0.7055,-0.003872,-0.017270,-0.007504
0.0000,WAIT_FOR_START,-0.1540,-0.0991,-1.2659,0.2842,1.7456,3.2499,0.0641,0.3359,0.7130,0.0603,0.3186,0.7055,-0.003873,-0.017272,-0.007501
0.0000,WAIT_FOR_START,-0.1540,-0.0991,-1.2659,0.2843,1.7456,3.2500,0.0641,0.3359,0.7130,0.0603,0.3186,0.7055,-0.003873,-0.017274,-0.007497
0.0000,WAIT_FOR_START,-0.1540,-0.0991,-1.2659,0.2845,1.7456,3.2502,0.0641,0.3359,0.7130,0.0603,0.3186,0.7055,-0.003874,-0.017277,-0.007494
0.0000,WAIT_FOR_START,-0.1540,-0.0992,-1.2659,0.2846,1.7456,3.2503,0.0641,0.3359,0.7130,0.0603,0.3186,0.7055,-0.003875,-0.017279,-0.007491
0.0000,WAIT_FOR_START,-0.1539,-0.0992,-1.2659,0.2847,1.7456,3.2505,0.0642,0.3359,0.7130,0.0603,0.3186,0.7055,-0.003876,-0.017281,-0.007488
0.0000,WAIT_FOR_START,-0.1539,-0.0992,-1.2659,0.2849,1.7456,3.2506,0.0642,0.3359,0.7130,0.0603,0.3186,0.7055,-0.003877,-0.017283,-0.007485
0.0000,WAIT_FOR_START,-0.1539,-0.0992,-1.2660,0.2850,1.7456,3.2507,0.0642,0.3359,0.7130,0.0603,0.3186,0.7055,-0.003878,-0.017286,-0.007481
0.0000,WAIT_FOR_START,-0.1539,-0.0992,-1.2660,0.2851,1.7456,3.2509,0.0642,0.3359,0.7130,0.0603,0.3186,0.7055,-0.003878,-0.017288,-0.007478
0.0000,WAIT_FOR_START,-0.1539,-0.0992,-1.2660,0.2852,1.7456,3.2510,0.0642,0.3359,0.7130,0.0603,0.3186,0.7055,-0.003879,-0.017290,-0.007475
0.0000,WAIT_FOR_START,-0.1539,-0.0992,-1.2660,0.2853,1.7456,3.2511,0.0642,0.3359,0.7130,0.0603,0.3186,0.7055,-0.003880,-0.017292,-0.007472
0.0000,WAIT_FOR_START,-0.1539,-0.0992,-1.2660,0.2854,1.7456,3.2512,0.0642,0.3359,0.7130,0.0603,0.3186,0.7055,-0.003880,-0.017294,-0.007469
0.0000,WAIT_FOR_START,-0.1539,-0.0992,-1.2660,0.2855,1.7456,3.2513,0.0642,0.3359,0.7130,0.0603,0.3186,0.7055,-0.003881,-0.017296,-0.007466
0.0000,WAIT_FOR_START,-0.1538,-0.0992,-1.2660,0.2857,1.7456,3.2514,0.0642,0.3359,0.7130,0.0603,0.3186,0.7055,-0.003882,-0.017299,-0.007462
0.0000,WAIT_FOR_START,-0.1538,-0.0992,-1.2660,0.2858,1.7456,3.2516,0.0642,0.3359,0.7130,0.0603,0.3186,0.7055,-0.003883,-0.017301,-0.007459
0.0000,WAIT_FOR_START,-0.1538,-0.0992,-1.2660,0.2859,1.7456,3.2517,0.0642,0.3359,0.7130,0.0603,0.3186,0.7055,-0.003883,-0.017303,-0.007456
0.0000,WAIT_FOR_START,-0.1538,-0.0993,-1.2660,0.2859,1.7456,3.2518,0.0642,0.3359,0.7130,0.0603,0.3186,0.7055,-0.003884,-0.017305,-0.007453
0.0000,WAIT_FOR_START,-0.1538,-0.0993,-1.2660,0.2860,1.7456,3.2519,0.0642,0.3359,0.7130,0.0603,0.3186,0.7055,-0.003884,-0.017307,-0.007450
0.0000,WAIT_FOR_START,-0.1538,-0.0993,-1.2660,0.2861,1.7456,3.2520,0.0642,0.3359,0.7130,0.0603,0.3186,0.7055,-0.003885,-0.017309,-0.007447
0.0000,WAIT_FOR_START,-0.1538,-0.0993,-1.2660,0.2862,1.7455,3.2520,0.0642,0.3359,0.7130,0.0603,0.3186,0.7055,-0.003886,-0.017312,-0.007444
0.0000,WAIT_FOR_START,-0.1538,-0.0993,-1.2660,0.2863,1.7455,3.2521,0.0642,0.3359,0.7129,0.0603,0.3186,0.7055,-0.003886,-0.017314,-0.007441
0.0000,WAIT_FOR_START,-0.1538,-0.0993,-1.2660,0.2864,1.7455,3.2522,0.0642,0.3359,0.7129,0.0603,0.3186,0.7055,-0.003887,-0.017316,-0.007438
0.0000,WAIT_FOR_START,-0.1538,-0.0993,-1.2660,0.2865,1.7455,3.2523,0.0642,0.3359,0.7129,0.0603,0.3186,0.7055,-0.003887,-0.017318,-0.007435
0.0000,WAIT_FOR_START,-0.1537,-0.0993,-1.2660,0.2865,1.7455,3.2524,0.0642,0.3359,0.7129,0.0603,0.3186,0.7055,-0.003888,-0.017320,-0.007432
0.0000,WAIT_FOR_START,-0.1537,-0.0993,-1.2660,0.2866,1.7455,3.2525,0.0642,0.3359,0.7129,0.0603,0.3186,0.7055,-0.003889,-0.017322,-0.007429
0.0000,WAIT_FOR_START,-0.1537,-0.0993,-1.2660,0.2867,1.7455,3.2526,0.0642,0.3359,0.7129,0.0603,0.3186,0.7055,-0.003889,-0.017324,-0.007426
0.0000,WAIT_FOR_START,-0.1537,-0.0993,-1.2660,0.2868,1.7455,3.2526,0.0642,0.3360,0.7129,0.0603,0.3186,0.7055,-0.003890,-0.017327,-0.007423
0.0000,WAIT_FOR_START,-0.1537,-0.0993,-1.2660,0.2868,1.7455,3.2527,0.0642,0.3360,0.7129,0.0603,0.3186,0.7055,-0.003890,-0.017329,-0.007420
0.0000,WAIT_FOR_START,-0.1537,-0.0993,-1.2660,0.2869,1.7455,3.2528,0.0642,0.3360,0.7129,0.0603,0.3186,0.7055,-0.003891,-0.017331,-0.007417
0.0000,WAIT_FOR_START,-0.1537,-0.0994,-1.2660,0.2870,1.7455,3.2528,0.0642,0.3360,0.7129,0.0603,0.3186,0.7055,-0.003891,-0.017333,-0.007414
0.0000,WAIT_FOR_START,-0.1537,-0.0994,-1.2661,0.2870,1.7455,3.2529,0.0642,0.3360,0.7129,0.0603,0.3186,0.7055,-0.003892,-0.017335,-0.007412
0.0000,WAIT_FOR_START,-0.1537,-0.0994,-1.2661,0.2871,1.7455,3.2530,0.0642,0.3360,0.7129,0.0603,0.3186,0.7055,-0.003892,-0.017337,-0.007409
0.0000,WAIT_FOR_START,-0.1537,-0.0994,-1.2661,0.2872,1.7455,3.2530,0.0642,0.3360,0.7129,0.0603,0.3186,0.7055,-0.003893,-0.017339,-0.007406
0.0000,WAIT_FOR_START,-0.1537,-0.0994,-1.2661,0.2872,1.7455,3.2531,0.0642,0.3360,0.7129,0.0603,0.3186,0.7055,-0.003893,-0.017341,-0.007403
0.0000,WAIT_FOR_START,-0.1537,-0.0994,-1.2661,0.2873,1.7455,3.2532,0.0642,0.3360,0.7129,0.0603,0.3186,0.7055,-0.003894,-0.017343,-0.007400
0.0000,WAIT_FOR_START,-0.1537,-0.0994,-1.2661,0.2873,1.7455,3.2532,0.0642,0.3360,0.7129,0.0603,0.3186,0.7055,-0.003894,-0.017345,-0.007397
0.0000,WAIT_FOR_START,-0.1536,-0.0994,-1.2661,0.2874,1.7455,3.2533,0.0642,0.3360,0.7129,0.0603,0.3186,0.7055,-0.003895,-0.017347,-0.007394
0.0000,WAIT_FOR_START,-0.1536,-0.0994,-1.2661,0.2874,1.7455,3.2533,0.0642,0.3360,0.7129,0.0603,0.3186,0.7055,-0.003895,-0.017349,-0.007392
0.0000,WAIT_FOR_START,-0.1536,-0.0994,-1.2661,0.2875,1.7455,3.2534,0.0642,0.3360,0.7129,0.0603,0.3186,0.7055,-0.003896,-0.017351,-0.007389
0.0000,WAIT_FOR_START,-0.1536,-0.0994,-1.2661,0.2875,1.7455,3.2534,0.0642,0.3360,0.7129,0.0603,0.3186,0.7055,-0.003896,-0.017353,-0.007386
0.0000,WAIT_FOR_START,-0.1536,-0.0994,-1.2661,0.2876,1.7455,3.2535,0.0642,0.3360,0.7129,0.0603,0.3186,0.7055,-0.003897,-0.017356,-0.007383
0.0000,WAIT_FOR_START,-0.1536,-0.0994,-1.2661,0.2876,1.7455,3.2535,0.0642,0.3360,0.7129,0.0603,0.3186,0.7055,-0.003897,-0.017358,-0.007380
0.0000,WAIT_FOR_START,-0.1536,-0.0995,-1.2661,0.2877,1.7455,3.2536,0.0642,0.3360,0.7129,0.0603,0.3186,0.7055,-0.003897,-0.017360,-0.007378
0.0000,WAIT_FOR_START,-0.1536,-0.0995,-1.2661,0.2877,1.7455,3.2536,0.0642,0.3360,0.7129,0.0603,0.3186,0.7055,-0.003898,-0.017362,-0.007375
0.0000,WAIT_FOR_START,-0.1536,-0.0995,-1.2661,0.2878,1.7455,3.2537,0.0642,0.3360,0.7129,0.0603,0.3186,0.7055,-0.003898,-0.017364,-0.007372
0.0000,WAIT_FOR_START,-0.1536,-0.0995,-1.2661,0.2878,1.7455,3.2537,0.0642,0.3360,0.7129,0.0603,0.3186,0.7055,-0.003899,-0.017366,-0.007369
0.0000,WAIT_FOR_START,-0.1536,-0.0995,-1.2661,0.2878,1.7455,3.2538,0.0642,0.3360,0.7129,0.0603,0.3186,0.7055,-0.003899,-0.017368,-0.007367
0.0000,WAIT_FOR_START,-0.1536,-0.0995,-1.2661,0.2879,1.7455,3.2538,0.0642,0.3360,0.7129,0.0603,0.3186,0.7055,-0.003900,-0.017370,-0.007364
0.0000,WAIT_FOR_START,-0.1536,-0.0995,-1.2661,0.2879,1.7455,3.2538,0.0642,0.3360,0.7129,0.0603,0.3186,0.7055,-0.003900,-0.017372,-0.007361
0.0000,WAIT_FOR_START,-0.1536,-0.0995,-1.2662,0.2879,1.7455,3.2539,0.0642,0.3360,0.7129,0.0603,0.3186,0.7055,-0.003900,-0.017374,-0.007359
0.0000,WAIT_FOR_START,-0.1536,-0.0995,-1.2662,0.2880,1.7455,3.2539,0.0642,0.3360,0.7129,0.0603,0.3186,0.7055,-0.003901,-0.017375,-0.007356
0.0000,WAIT_FOR_START,-0.1536,-0.0995,-1.2662,0.2880,1.7455,3.2540,0.0642,0.3360,0.7129,0.0603,0.3186,0.7055,-0.003901,-0.017377,-0.007353
0.0000,WAIT_FOR_START,-0.1536,-0.0995,-1.2662,0.2880,1.7455,3.2540,0.0642,0.3360,0.7129,0.0603,0.3186,0.7055,-0.003901,-0.017379,-0.007351
0.0000,WAIT_FOR_START,-0.1536,-0.0995,-1.2662,0.2881,1.7455,3.2540,0.0642,0.3360,0.7129,0.0603,0.3186,0.7055,-0.003902,-0.017381,-0.007348
0.0000,WAIT_FOR_START,-0.1536,-0.0995,-1.2662,0.2881,1.7455,3.2541,0.0642,0.3360,0.7129,0.0603,0.3186,0.7055,-0.003902,-0.017383,-0.007345
0.0000,WAIT_FOR_START,-0.1536,-0.0995,-1.2662,0.2881,1.7455,3.2541,0.0642,0.3360,0.7129,0.0603,0.3186,0.7055,-0.003903,-0.017385,-0.007343
0.0000,WAIT_FOR_START,-0.1536,-0.0996,-1.2662,0.2882,1.7455,3.2541,0.0642,0.3360,0.7128,0.0603,0.3186,0.7055,-0.003903,-0.017387,-0.007340
0.0000,WAIT_FOR_START,-0.1536,-0.0996,-1.2662,0.2882,1.7455,3.2542,0.0642,0.3360,0.7128,0.0603,0.3186,0.7055,-0.003903,-0.017389,-0.007338
0.0000,WAIT_FOR_START,-0.1536,-0.0996,-1.2662,0.2882,1.7455,3.2542,0.0642,0.3360,0.7128,0.0603,0.3186,0.7055,-0.003904,-0.017391,-0.007335
0.0000,WAIT_FOR_START,-0.1535,-0.0996,-1.2662,0.2883,1.7455,3.2542,0.0642,0.3360,0.7128,0.0603,0.3186,0.7055,-0.003904,-0.017393,-0.007332
0.0000,WAIT_FOR_START,-0.1535,-0.0996,-1.2662,0.2883,1.7455,3.2542,0.0642,0.3360,0.7128,0.0603,0.3186,0.7055,-0.003904,-0.017395,-0.007330
0.0000,WAIT_FOR_START,-0.1535,-0.0996,-1.2662,0.2883,1.7455,3.2543,0.0642,0.3360,0.7128,0.0603,0.3186,0.7055,-0.003905,-0.017397,-0.007327
0.0000,WAIT_FOR_START,-0.1535,-0.0996,-1.2662,0.2883,1.7455,3.2543,0.0642,0.3360,0.7128,0.0603,0.3186,0.7055,-0.003905,-0.017399,-0.007325
0.0000,WAIT_FOR_START,-0.1535,-0.0996,-1.2662,0.2884,1.7455,3.2543,0.0642,0.3360,0.7128,0.0603,0.3186,0.7055,-0.003905,-0.017401,-0.007322
0.0000,WAIT_FOR_START,-0.1535,-0.0996,-1.2662,0.2884,1.7455,3.2543,0.0642,0.3360,0.7128,0.0603,0.3186,0.7055,-0.003906,-0.017402,-0.007320
0.0000,WAIT_FOR_START,-0.1535,-0.0996,-1.2662,0.2884,1.7455,3.2544,0.0642,0.3360,0.7128,0.0603,0.3186,0.7055,-0.003906,-0.017404,-0.007317
0.0000,WAIT_FOR_START,-0.1535,-0.0996,-1.2662,0.2884,1.7455,3.2544,0.0642,0.3360,0.7128,0.0603,0.3186,0.7055,-0.003906,-0.017406,-0.007315
0.0000,WAIT_FOR_START,-0.1535,-0.0996,-1.2662,0.2884,1.7455,3.2544,0.0642,0.3360,0.7128,0.0603,0.3186,0.7055,-0.003907,-0.017408,-0.007312
0.0000,WAIT_FOR_START,-0.1535,-0.0996,-1.2663,0.2885,1.7455,3.2544,0.0642,0.3360,0.7128,0.0603,0.3186,0.7055,-0.003907,-0.017410,-0.007310
0.0000,WAIT_FOR_START,-0.1535,-0.0996,-1.2663,0.2885,1.7455,3.2545,0.0642,0.3360,0.7128,0.0603,0.3186,0.7055,-0.003907,-0.017412,-0.007307
0.0000,WAIT_FOR_START,-0.1535,-0.0997,-1.2663,0.2885,1.7455,3.2545,0.0642,0.3360,0.7128,0.0603,0.3186,0.7055,-0.003908,-0.017414,-0.007305
0.0000,WAIT_FOR_START,-0.1535,-0.0997,-1.2663,0.2885,1.7455,3.2545,0.0642,0.3360,0.7128,0.0603,0.3186,0.7055,-0.003908,-0.017415,-0.007302
0.0000,WAIT_FOR_START,-0.1535,-0.0997,-1.2663,0.2885,1.7455,3.2545,0.0642,0.3360,0.7128,0.0603,0.3186,0.7055,-0.003908,-0.017417,-0.007300
0.0000,WAIT_FOR_START,-0.1535,-0.0997,-1.2663,0.2886,1.7455,3.2545,0.0642,0.3360,0.7128,0.0603,0.3186,0.7055,-0.003909,-0.017419,-0.007297
0.0000,WAIT_FOR_START,-0.1535,-0.0997,-1.2663,0.2886,1.7455,3.2545,0.0642,0.3360,0.7128,0.0603,0.3186,0.7055,-0.003909,-0.017421,-0.007295
0.0000,WAIT_FOR_START,-0.1535,-0.0997,-1.2663,0.2886,1.7455,3.2546,0.0642,0.3360,0.7128,0.0603,0.3186,0.7055,-0.003909,-0.017423,-0.007292
0.0000,WAIT_FOR_START,-0.1535,-0.0997,-1.2663,0.2886,1.7455,3.2546,0.0642,0.3360,0.7128,0.0603,0.3186,0.7055,-0.003910,-0.017425,-0.007290
0.0000,WAIT_FOR_START,-0.1535,-0.0997,-1.2663,0.2886,1.7455,3.2546,0.0642,0.3361,0.7128,0.0603,0.3186,0.7055,-0.003910,-0.017426,-0.007288
0.0000,WAIT_FOR_START,-0.1535,-0.0997,-1.2663,0.2886,1.7455,3.2546,0.0642,0.3361,0.7128,0.0603,0.3186,0.7055,-0.003910,-0.017428,-0.007285
0.0000,WAIT_FOR_START,-0.1535,-0.0997,-1.2663,0.2887,1.7455,3.2546,0.0642,0.3361,0.7128,0.0603,0.3186,0.7055,-0.003911,-0.017430,-0.007283
0.0000,WAIT_FOR_START,-0.1535,-0.0997,-1.2663,0.2887,1.7455,3.2546,0.0642,0.3361,0.7128,0.0603,0.3186,0.7055,-0.003911,-0.017432,-0.007280
0.0000,WAIT_FOR_START,-0.1535,-0.0997,-1.2663,0.2887,1.7455,3.2547,0.0642,0.3361,0.7128,0.0603,0.3186,0.7055,-0.003911,-0.017434,-0.007278
0.0000,WAIT_FOR_START,-0.1535,-0.0997,-1.2663,0.2887,1.7455,3.2547,0.0642,0.3361,0.7128,0.0603,0.3186,0.7055,-0.003911,-0.017435,-0.007276
0.0000,WAIT_FOR_START,-0.1535,-0.0997,-1.2663,0.2887,1.7455,3.2547,0.0642,0.3361,0.7128,0.0603,0.3186,0.7055,-0.003912,-0.017437,-0.007273
0.0000,WAIT_FOR_START,-0.1535,-0.0997,-1.2663,0.2887,1.7455,3.2547,0.0642,0.3361,0.7128,0.0603,0.3186,0.7055,-0.003912,-0.017439,-0.007271
0.0000,WAIT_FOR_START,-0.1535,-0.0998,-1.2663,0.2887,1.7455,3.2547,0.0642,0.3361,0.7128,0.0603,0.3186,0.7055,-0.003912,-0.017441,-0.007269
0.0000,WAIT_FOR_START,-0.1535,-0.0998,-1.2663,0.2887,1.7455,3.2547,0.0642,0.3361,0.7128,0.0603,0.3186,0.7055,-0.003913,-0.017442,-0.007266
0.0000,WAIT_FOR_START,-0.1535,-0.0998,-1.2664,0.2888,1.7455,3.2547,0.0642,0.3361,0.7128,0.0603,0.3186,0.7055,-0.003913,-0.017444,-0.007264
0.0000,WAIT_FOR_START,-0.1535,-0.0998,-1.2664,0.2888,1.7455,3.2547,0.0642,0.3361,0.7128,0.0603,0.3186,0.7055,-0.003913,-0.017446,-0.007262
0.0000,WAIT_FOR_START,-0.1535,-0.0998,-1.2664,0.2888,1.7455,3.2547,0.0642,0.3361,0.7128,0.0603,0.3186,0.7055,-0.003913,-0.017448,-0.007259
0.0000,WAIT_FOR_START,-0.1535,-0.0998,-1.2664,0.2888,1.7455,3.2548,0.0642,0.3361,0.7128,0.0603,0.3186,0.7055,-0.003914,-0.017449,-0.007257
0.0000,WAIT_FOR_START,-0.1535,-0.0998,-1.2664,0.2888,1.7455,3.2548,0.0642,0.3361,0.7128,0.0603,0.3186,0.7055,-0.003914,-0.017451,-0.007255
0.0000,WAIT_FOR_START,-0.1535,-0.0998,-1.2664,0.2888,1.7455,3.2548,0.0642,0.3361,0.7128,0.0603,0.3186,0.7055,-0.003914,-0.017453,-0.007252
0.0000,WAIT_FOR_START,-0.1535,-0.0998,-1.2664,0.2888,1.7455,3.2548,0.0642,0.3361,0.7128,0.0603,0.3186,0.7055,-0.003915,-0.017455,-0.007250
0.0000,WAIT_FOR_START,-0.1535,-0.0998,-1.2664,0.2888,1.7455,3.2548,0.0642,0.3361,0.7128,0.0603,0.3186,0.7055,-0.003915,-0.017456,-0.007248
0.0000,WAIT_FOR_START,-0.1535,-0.0998,-1.2664,0.2888,1.7455,3.2548,0.0642,0.3361,0.7128,0.0603,0.3186,0.7055,-0.003915,-0.017458,-0.007246
0.0000,WAIT_FOR_START,-0.1535,-0.0998,-1.2664,0.2888,1.7455,3.2548,0.0642,0.3361,0.7128,0.0603,0.3186,0.7055,-0.003915,-0.017460,-0.007243
0.0000,WAIT_FOR_START,-0.1535,-0.0998,-1.2664,0.2888,1.7455,3.2548,0.0642,0.3361,0.7127,0.0603,0.3186,0.7055,-0.003916,-0.017461,-0.007241
0.0000,WAIT_FOR_START,-0.1535,-0.0998,-1.2664,0.2889,1.7455,3.2548,0.0642,0.3361,0.7127,0.0603,0.3186,0.7055,-0.003916,-0.017463,-0.007239
0.0000,WAIT_FOR_START,-0.1535,-0.0998,-1.2664,0.2889,1.7455,3.2548,0.0642,0.3361,0.7127,0.0603,0.3186,0.7055,-0.003916,-0.017465,-0.007237
0.0000,WAIT_FOR_START,-0.1535,-0.0998,-1.2664,0.2889,1.7455,3.2548,0.0642,0.3361,0.7127,0.0603,0.3186,0.7055,-0.003917,-0.017466,-0.007234
0.0000,WAIT_FOR_START,-0.1535,-0.0999,-1.2664,0.2889,1.7455,3.2548,0.0642,0.3361,0.7127,0.0603,0.3186,0.7055,-0.003917,-0.017468,-0.007232
0.0000,WAIT_FOR_START,-0.1535,-0.0999,-1.2664,0.2889,1.7455,3.2549,0.0642,0.3361,0.7127,0.0603,0.3186,0.7055,-0.003917,-0.017470,-0.007230
0.0000,WAIT_FOR_START,-0.1535,-0.0999,-1.2664,0.2889,1.7455,3.2549,0.0642,0.3361,0.7127,0.0603,0.3186,0.7055,-0.003917,-0.017471,-0.007228
0.0000,WAIT_FOR_START,-0.1535,-0.0999,-1.2664,0.2889,1.7455,3.2549,0.0642,0.3361,0.7127,0.0603,0.3186,0.7055,-0.003918,-0.017473,-0.007226
0.0000,WAIT_FOR_START,-0.1535,-0.0999,-1.2664,0.2889,1.7455,3.2549,0.0642,0.3361,0.7127,0.0603,0.3186,0.7055,-0.003918,-0.017475,-0.007223
0.0000,WAIT_FOR_START,-0.1535,-0.0999,-1.2664,0.2889,1.7455,3.2549,0.0642,0.3361,0.7127,0.0603,0.3186,0.7055,-0.003918,-0.017476,-0.007221
0.0000,WAIT_FOR_START,-0.1535,-0.0999,-1.2665,0.2889,1.7455,3.2549,0.0642,0.3361,0.7127,0.0603,0.3186,0.7055,-0.003918,-0.017478,-0.007219
0.0000,WAIT_FOR_START,-0.1535,-0.0999,-1.2665,0.2889,1.7455,3.2549,0.0642,0.3361,0.7127,0.0603,0.3186,0.7055,-0.003919,-0.017480,-0.007217
0.0000,WAIT_FOR_START,-0.1535,-0.0999,-1.2665,0.2889,1.7455,3.2549,0.0642,0.3361,0.7127,0.0603,0.3186,0.7055,-0.003919,-0.017481,-0.007215
0.0000,WAIT_FOR_START,-0.1535,-0.0999,-1.2665,0.2889,1.7455,3.2549,0.0642,0.3361,0.7127,0.0603,0.3186,0.7055,-0.003919,-0.017483,-0.007213
0.0000,WAIT_FOR_START,-0.1535,-0.0999,-1.2665,0.2889,1.7455,3.2549,0.0642,0.3361,0.7127,0.0603,0.3186,0.7055,-0.003919,-0.017484,-0.007211
0.0000,WAIT_FOR_START,-0.1535,-0.0999,-1.2665,0.2889,1.7455,3.2549,0.0642,0.3361,0.7127,0.0603,0.3186,0.7055,-0.003920,-0.017486,-0.007208
0.0000,WAIT_FOR_START,-0.1535,-0.0999,-1.2665,0.2889,1.7455,3.2549,0.0642,0.3361,0.7127,0.0603,0.3186,0.7055,-0.003920,-0.017488,-0.007206
0.0000,WAIT_FOR_START,-0.1535,-0.0999,-1.2665,0.2889,1.7455,3.2549,0.0642,0.3361,0.7127,0.0603,0.3186,0.7055,-0.003920,-0.017489,-0.007204
0.0000,WAIT_FOR_START,-0.1535,-0.0999,-1.2665,0.2889,1.7455,3.2549,0.0642,0.3361,0.7127,0.0603,0.3186,0.7055,-0.003921,-0.017491,-0.007202
0.0000,WAIT_FOR_START,-0.1535,-0.0999,-1.2665,0.2890,1.7455,3.2549,0.0642,0.3361,0.7127,0.0603,0.3186,0.7055,-0.003921,-0.017492,-0.007200
0.0000,WAIT_FOR_START,-0.1535,-0.0999,-1.2665,0.2890,1.7455,3.2549,0.0642,0.3361,0.7127,0.0603,0.3186,0.7055,-0.003921,-0.017494,-0.007198
0.0000,WAIT_FOR_START,-0.1535,-0.1000,-1.2665,0.2890,1.7455,3.2549,0.0642,0.3361,0.7127,0.0603,0.3186,0.7055,-0.003921,-0.017496,-0.007196
0.0000,WAIT_FOR_START,-0.1535,-0.1000,-1.2665,0.2890,1.7455,3.2549,0.0642,0.3361,0.7127,0.0603,0.3186,0.7055,-0.003922,-0.017497,-0.007194
0.0000,WAIT_FOR_START,-0.1535,-0.1000,-1.2665,0.2890,1.7455,3.2549,0.0642,0.3361,0.7127,0.0603,0.3186,0.7055,-0.003922,-0.017499,-0.007192
0.0000,WAIT_FOR_START,-0.1535,-0.1000,-1.2665,0.2890,1.7455,3.2549,0.0642,0.3361,0.7127,0.0603,0.3186,0.7055,-0.003922,-0.017500,-0.007190
0.0000,WAIT_FOR_START,-0.1535,-0.1000,-1.2665,0.2890,1.7455,3.2549,0.0642,0.3361,0.7127,0.0603,0.3186,0.7055,-0.003922,-0.017502,-0.007188
0.0000,WAIT_FOR_START,-0.1535,-0.1000,-1.2665,0.2890,1.7455,3.2549,0.0642,0.3361,0.7127,0.0603,0.3186,0.7055,-0.003923,-0.017503,-0.007186
0.0000,WAIT_FOR_START,-0.1535,-0.1000,-1.2665,0.2890,1.7455,3.2549,0.0642,0.3361,0.7127,0.0603,0.3186,0.7055,-0.003923,-0.017505,-0.007184
0.0000,WAIT_FOR_START,-0.1535,-0.1000,-1.2665,0.2890,1.7455,3.2549,0.0642,0.3361,0.7127,0.0603,0.3186,0.7055,-0.003923,-0.017506,-0.007182
0.0000,WAIT_FOR_START,-0.1535,-0.1000,-1.2665,0.2890,1.7455,3.2549,0.0642,0.3361,0.7127,0.0603,0.3186,0.7055,-0.003924,-0.017508,-0.007180
0.0000,WAIT_FOR_START,-0.1535,-0.1000,-1.2666,0.2890,1.7455,3.2549,0.0642,0.3361,0.7127,0.0603,0.3186,0.7055,-0.003924,-0.017509,-0.007178
0.0000,WAIT_FOR_START,-0.1535,-0.1000,-1.2666,0.2890,1.7455,3.2549,0.0642,0.3361,0.7127,0.0603,0.3186,0.7055,-0.003924,-0.017511,-0.007176
0.0000,WAIT_FOR_START,-0.1535,-0.1000,-1.2666,0.2890,1.7455,3.2549,0.0642,0.3361,0.7127,0.0603,0.3186,0.7055,-0.003924,-0.017512,-0.007174
0.0000,WAIT_FOR_START,-0.1535,-0.1000,-1.2666,0.2890,1.7455,3.2550,0.0642,0.3361,0.7127,0.0603,0.3186,0.7055,-0.003925,-0.017514,-0.007172
0.0000,WAIT_FOR_START,-0.1535,-0.1000,-1.2666,0.2890,1.7455,3.2550,0.0642,0.3361,0.7127,0.0603,0.3186,0.7055,-0.003925,-0.017515,-0.007170
0.0000,WAIT_FOR_START,-0.1535,-0.1000,-1.2666,0.2890,1.7455,3.2550,0.0642,0.3361,0.7127,0.0603,0.3186,0.7055,-0.003925,-0.017517,-0.007168
0.0000,WAIT_FOR_START,-0.1535,-0.1000,-1.2666,0.2890,1.7455,3.2550,0.0642,0.3361,0.7127,0.0603,0.3186,0.7055,-0.003925,-0.017518,-0.007166
0.0000,WAIT_FOR_START,-0.1535,-0.1000,-1.2666,0.2890,1.7455,3.2550,0.0642,0.3361,0.7127,0.0603,0.3186,0.7055,-0.003926,-0.017520,-0.007164
0.0000,WAIT_FOR_START,-0.1535,-0.1001,-1.2666,0.2890,1.7455,3.2550,0.0642,0.3361,0.7127,0.0603,0.3186,0.7055,-0.003926,-0.017521,-0.007162
0.0000,WAIT_FOR_START,-0.1535,-0.1001,-1.2666,0.2890,1.7455,3.2550,0.0642,0.3361,0.7127,0.0603,0.3186,0.7055,-0.003926,-0.017523,-0.007160
0.0000,WAIT_FOR_START,-0.1535,-0.1001,-1.2666,0.2890,1.7455,3.2550,0.0642,0.3361,0.7127,0.0603,0.3186,0.7055,-0.003927,-0.017524,-0.007158
0.0000,WAIT_FOR_START,-0.1535,-0.1001,-1.2666,0.2890,1.7455,3.2550,0.0642,0.3362,0.7127,0.0603,0.3186,0.7055,-0.003927,-0.017526,-0.007156
0.0000,WAIT_FOR_START,-0.1535,-0.1001,-1.2666,0.2890,1.7455,3.2550,0.0642,0.3362,0.7127,0.0603,0.3186,0.7055,-0.003927,-0.017527,-0.007154
0.0000,WAIT_FOR_START,-0.1535,-0.1001,-1.2666,0.2890,1.7455,3.2550,0.0642,0.3362,0.7127,0.0603,0.3186,0.7055,-0.003927,-0.017529,-0.007152
0.0000,WAIT_FOR_START,-0.1535,-0.1001,-1.2666,0.2890,1.7455,3.2550,0.0642,0.3362,0.7127,0.0603,0.3186,0.7055,-0.003928,-0.017530,-0.007150
0.0000,WAIT_FOR_START,-0.1535,-0.1001,-1.2666,0.2890,1.7455,3.2550,0.0642,0.3362,0.7127,0.0603,0.3186,0.7055,-0.003928,-0.017531,-0.007148
0.0000,WAIT_FOR_START,-0.1535,-0.1001,-1.2666,0.2890,1.7455,3.2550,0.0642,0.3362,0.7127,0.0603,0.3186,0.7055,-0.003928,-0.017533,-0.007146
0.0000,WAIT_FOR_START,-0.1535,-0.1001,-1.2666,0.2890,1.7455,3.2550,0.0642,0.3362,0.7127,0.0603,0.3186,0.7055,-0.003929,-0.017534,-0.007144
0.0000,WAIT_FOR_START,-0.1535,-0.1001,-1.2666,0.2890,1.7455,3.2550,0.0642,0.3362,0.7127,0.0603,0.3186,0.7055,-0.003929,-0.017536,-0.007143
0.0000,WAIT_FOR_START,-0.1535,-0.1001,-1.2666,0.2890,1.7455,3.2550,0.0642,0.3362,0.7126,0.0603,0.3186,0.7055,-0.003929,-0.017537,-0.007141
0.0000,WAIT_FOR_START,-0.1535,-0.1001,-1.2666,0.2890,1.7455,3.2550,0.0642,0.3362,0.7126,0.0603,0.3186,0.7055,-0.003929,-0.017539,-0.007139
0.0000,WAIT_FOR_START,-0.1535,-0.1001,-1.2666,0.2890,1.7454,3.2550,0.0642,0.3362,0.7126,0.0603,0.3186,0.7055,-0.003930,-0.017540,-0.007137
0.0000,WAIT_FOR_START,-0.1535,-0.1001,-1.2667,0.2890,1.7454,3.2550,0.0642,0.3362,0.7126,0.0603,0.3186,0.7055,-0.003930,-0.017541,-0.007135
0.0000,WAIT_FOR_START,-0.1535,-0.1001,-1.2667,0.2890,1.7454,3.2550,0.0642,0.3362,0.7126,0.0603,0.3186,0.7055,-0.003930,-0.017543,-0.007133
0.0000,WAIT_FOR_START,-0.1535,-0.1001,-1.2667,0.2890,1.7454,3.2550,0.0642,0.3362,0.7126,0.0603,0.3186,0.7055,-0.003930,-0.017544,-0.007131
0.0000,WAIT_FOR_START,-0.1535,-0.1001,-1.2667,0.2890,1.7454,3.2550,0.0642,0.3362,0.7126,0.0603,0.3186,0.7055,-0.003931,-0.017546,-0.007130
0.0000,WAIT_FOR_START,-0.1535,-0.1001,-1.2667,0.2890,1.7454,3.2550,0.0642,0.3362,0.7126,0.0603,0.3186,0.7055,-0.003931,-0.017547,-0.007128
0.0000,WAIT_FOR_START,-0.1535,-0.1002,-1.2667,0.2890,1.7454,3.2550,0.0642,0.3362,0.7126,0.0603,0.3186,0.7055,-0.003931,-0.017548,-0.007126
0.0000,WAIT_FOR_START,-0.1535,-0.1002,-1.2667,0.2890,1.7454,3.2550,0.0642,0.3362,0.7126,0.0603,0.3186,0.7055,-0.003932,-0.017550,-0.007124
0.0000,WAIT_FOR_START,-0.1535,-0.1002,-1.2667,0.2890,1.7454,3.2550,0.0642,0.3362,0.7126,0.0603,0.3186,0.7055,-0.003932,-0.017551,-0.007122
0.0000,WAIT_FOR_START,-0.1535,-0.1002,-1.2667,0.2890,1.7454,3.2550,0.0642,0.3362,0.7126,0.0603,0.3186,0.7055,-0.003932,-0.017552,-0.007120
0.0000,WAIT_FOR_START,-0.1535,-0.1002,-1.2667,0.2890,1.7454,3.2550,0.0642,0.3362,0.7126,0.0603,0.3186,0.7055,-0.003932,-0.017554,-0.007119
0.0000,WAIT_FOR_START,-0.1535,-0.1002,-1.2667,0.2890,1.7454,3.2550,0.0642,0.3362,0.7126,0.0603,0.3186,0.7055,-0.003933,-0.017555,-0.007117
0.0000,WAIT_FOR_START,-0.1535,-0.1002,-1.2667,0.2890,1.7454,3.2550,0.0642,0.3362,0.7126,0.0603,0.3186,0.7055,-0.003933,-0.017557,-0.007115
0.0000,WAIT_FOR_START,-0.1535,-0.1002,-1.2667,0.2890,1.7454,3.2550,0.0642,0.3362,0.7126,0.0603,0.3186,0.7055,-0.003933,-0.017558,-0.007113
0.0000,WAIT_FOR_START,-0.1535,-0.1002,-1.2667,0.2890,1.7454,3.2550,0.0642,0.3362,0.7126,0.0603,0.3186,0.7055,-0.003933,-0.017559,-0.007112
0.0000,WAIT_FOR_START,-0.1535,-0.1002,-1.2667,0.2890,1.7454,3.2550,0.0642,0.3362,0.7126,0.0603,0.3186,0.7055,-0.003934,-0.017561,-0.007110
0.0000,WAIT_FOR_START,-0.1535,-0.1002,-1.2667,0.2890,1.7454,3.2549,0.0642,0.3362,0.7126,0.0603,0.3186,0.7055,-0.003934,-0.017562,-0.007108
0.0000,WAIT_FOR_START,-0.1535,-0.1002,-1.2667,0.2890,1.7454,3.2549,0.0642,0.3362,0.7126,0.0603,0.3186,0.7055,-0.003934,-0.017563,-0.007106
0.0000,WAIT_FOR_START,-0.1535,-0.1002,-1.2667,0.2890,1.7454,3.2549,0.0642,0.3362,0.7126,0.0603,0.3186,0.7055,-0.003935,-0.017564,-0.007105
0.0000,WAIT_FOR_START,-0.1535,-0.1002,-1.2667,0.2890,1.7454,3.2549,0.0642,0.3362,0.7126,0.0603,0.3186,0.7055,-0.003935,-0.017566,-0.007103
0.0000,WAIT_FOR_START,-0.1535,-0.1002,-1.2667,0.2890,1.7454,3.2549,0.0642,0.3362,0.7126,0.0603,0.3186,0.7055,-0.003935,-0.017567,-0.007101
0.0000,WAIT_FOR_START,-0.1535,-0.1002,-1.2667,0.2890,1.7454,3.2549,0.0642,0.3362,0.7126,0.0603,0.3186,0.7055,-0.003935,-0.017568,-0.007099
0.0000,WAIT_FOR_START,-0.1535,-0.1002,-1.2667,0.2890,1.7454,3.2549,0.0642,0.3362,0.7126,0.0603,0.3186,0.7055,-0.003936,-0.017570,-0.007098
0.0000,WAIT_FOR_START,-0.1535,-0.1002,-1.2667,0.2890,1.7454,3.2549,0.0642,0.3362,0.7126,0.0603,0.3186,0.7055,-0.003936,-0.017571,-0.007096
0.0000,WAIT_FOR_START,-0.1535,-0.1002,-1.2667,0.2890,1.7454,3.2549,0.0642,0.3362,0.7126,0.0603,0.3186,0.7055,-0.003936,-0.017572,-0.007094
0.0000,WAIT_FOR_START,-0.1535,-0.1002,-1.2668,0.2890,1.7454,3.2549,0.0642,0.3362,0.7126,0.0603,0.3186,0.7055,-0.003936,-0.017574,-0.007092
0.0000,WAIT_FOR_START,-0.1535,-0.1003,-1.2668,0.2890,1.7454,3.2549,0.0642,0.3362,0.7126,0.0603,0.3186,0.7055,-0.003937,-0.017575,-0.007091
0.0000,WAIT_FOR_START,-0.1535,-0.1003,-1.2668,0.2890,1.7454,3.2549,0.0642,0.3362,0.7126,0.0603,0.3186,0.7055,-0.003937,-0.017576,-0.007089
0.0000,WAIT_FOR_START,-0.1535,-0.1003,-1.2668,0.2890,1.7454,3.2549,0.0642,0.3362,0.7126,0.0603,0.3186,0.7055,-0.003937,-0.017577,-0.007087
0.0000,WAIT_FOR_START,-0.1535,-0.1003,-1.2668,0.2890,1.7454,3.2549,0.0642,0.3362,0.7126,0.0603,0.3186,0.7055,-0.003938,-0.017579,-0.007086
0.0000,WAIT_FOR_START,-0.1535,-0.1003,-1.2668,0.2890,1.7454,3.2549,0.0642,0.3362,0.7126,0.0603,0.3186,0.7055,-0.003938,-0.017580,-0.007084
0.0000,WAIT_FOR_START,-0.1535,-0.1003,-1.2668,0.2890,1.7454,3.2549,0.0642,0.3362,0.7126,0.0603,0.3186,0.7055,-0.003938,-0.017581,-0.007082
0.0000,WAIT_FOR_START,-0.1535,-0.1003,-1.2668,0.2890,1.7454,3.2549,0.0642,0.3362,0.7126,0.0603,0.3186,0.7055,-0.003938,-0.017582,-0.007081
0.0000,WAIT_FOR_START,-0.1535,-0.1003,-1.2668,0.2890,1.7454,3.2549,0.0642,0.3362,0.7126,0.0603,0.3186,0.7055,-0.003939,-0.017584,-0.007079
0.0000,WAIT_FOR_START,-0.1535,-0.1003,-1.2668,0.2890,1.7454,3.2549,0.0642,0.3362,0.7126,0.0603,0.3186,0.7055,-0.003939,-0.017585,-0.007077
0.0000,WAIT_FOR_START,-0.1535,-0.1003,-1.2668,0.2890,1.7454,3.2549,0.0642,0.3362,0.7126,0.0603,0.3186,0.7055,-0.003939,-0.017586,-0.007076
0.0000,WAIT_FOR_START,-0.1535,-0.1003,-1.2668,0.2890,1.7454,3.2549,0.0642,0.3362,0.7126,0.0603,0.3186,0.7055,-0.003939,-0.017587,-0.007074
0.0000,WAIT_FOR_START,-0.1535,-0.1003,-1.2668,0.2890,1.7454,3.2549,0.0642,0.3362,0.7126,0.0603,0.3186,0.7055,-0.003940,-0.017589,-0.007073
0.0000,WAIT_FOR_START,-0.1535,-0.1003,-1.2668,0.2890,1.7454,3.2549,0.0642,0.3362,0.7126,0.0603,0.3186,0.7055,-0.003940,-0.017590,-0.007071
0.0000,WAIT_FOR_START,-0.1535,-0.1003,-1.2668,0.2890,1.7454,3.2549,0.0642,0.3362,0.7126,0.0603,0.3186,0.7055,-0.003940,-0.017591,-0.007069
0.0000,WAIT_FOR_START,-0.1535,-0.1003,-1.2668,0.2890,1.7454,3.2549,0.0642,0.3362,0.7126,0.0603,0.3186,0.7055,-0.003941,-0.017592,-0.007068
0.0000,WAIT_FOR_START,-0.1535,-0.1003,-1.2668,0.2890,1.7454,3.2549,0.0642,0.3362,0.7126,0.0603,0.3186,0.7055,-0.003941,-0.017594,-0.007066
0.0000,WAIT_FOR_START,-0.1535,-0.1003,-1.2668,0.2890,1.7454,3.2549,0.0642,0.3362,0.7126,0.0603,0.3186,0.7055,-0.003941,-0.017595,-0.007064
0.0000,WAIT_FOR_START,-0.1535,-0.1003,-1.2668,0.2890,1.7454,3.2549,0.0642,0.3362,0.7126,0.0603,0.3186,0.7055,-0.003941,-0.017596,-0.007063
0.0000,WAIT_FOR_START,-0.1535,-0.1003,-1.2668,0.2890,1.7454,3.2549,0.0642,0.3362,0.7126,0.0603,0.3186,0.7055,-0.003942,-0.017597,-0.007061
0.0000,WAIT_FOR_START,-0.1535,-0.1003,-1.2668,0.2890,1.7454,3.2549,0.0642,0.3362,0.7126,0.0603,0.3186,0.7055,-0.003942,-0.017598,-0.007060
0.0000,WAIT_FOR_START,-0.1535,-0.1003,-1.2668,0.2890,1.7454,3.2549,0.0642,0.3362,0.7126,0.0603,0.3186,0.7055,-0.003942,-0.017600,-0.007058
0.0000,WAIT_FOR_START,-0.1535,-0.1003,-1.2668,0.2890,1.7454,3.2549,0.0642,0.3362,0.7126,0.0603,0.3186,0.7055,-0.003942,-0.017601,-0.007057
0.0000,WAIT_FOR_START,-0.1535,-0.1004,-1.2668,0.2890,1.7454,3.2549,0.0642,0.3362,0.7126,0.0603,0.3186,0.7055,-0.003943,-0.017602,-0.007055
0.0000,WAIT_FOR_START,-0.1535,-0.1004,-1.2668,0.2890,1.7454,3.2549,0.0642,0.3362,0.7126,0.0603,0.3186,0.7055,-0.003943,-0.017603,-0.007053
0.0000,WAIT_FOR_START,-0.1535,-0.1004,-1.2669,0.2890,1.7454,3.2549,0.0642,0.3362,0.7126,0.0603,0.3186,0.7055,-0.003943,-0.017604,-0.007052
0.0000,WAIT_FOR_START,-0.1535,-0.1004,-1.2669,0.2890,1.7454,3.2549,0.0642,0.3362,0.7126,0.0603,0.3186,0.7055,-0.003944,-0.017605,-0.007050
0.0000,WAIT_FOR_START,-0.1535,-0.1004,-1.2669,0.2890,1.7454,3.2549,0.0642,0.3362,0.7126,0.0603,0.3186,0.7055,-0.003944,-0.017607,-0.007049
0.0000,WAIT_FOR_START,-0.1535,-0.1004,-1.2669,0.2890,1.7454,3.2549,0.0642,0.3362,0.7126,0.0603,0.3186,0.7055,-0.003944,-0.017608,-0.007047
0.0000,WAIT_FOR_START,-0.1535,-0.1004,-1.2669,0.2890,1.7454,3.2549,0.0642,0.3362,0.7126,0.0603,0.3186,0.7055,-0.003944,-0.017609,-0.007046
0.0000,WAIT_FOR_START,-0.1535,-0.1004,-1.2669,0.2890,1.7454,3.2549,0.0642,0.3362,0.7126,0.0603,0.3186,0.7055,-0.003945,-0.017610,-0.007044
0.0000,WAIT_FOR_START,-0.1535,-0.1004,-1.2669,0.2890,1.7454,3.2549,0.0642,0.3362,0.7126,0.0603,0.3186,0.7055,-0.003945,-0.017611,-0.007043
0.0000,WAIT_FOR_START,-0.1535,-0.1004,-1.2669,0.2890,1.7454,3.2549,0.0642,0.3362,0.7125,0.0603,0.3186,0.7055,-0.003945,-0.017612,-0.007041
0.0000,WAIT_FOR_START,-0.1535,-0.1004,-1.2669,0.2890,1.7454,3.2549,0.0642,0.3362,0.7125,0.0603,0.3186,0.7055,-0.003945,-0.017614,-0.007040
0.0000,WAIT_FOR_START,-0.1535,-0.1004,-1.2669,0.2890,1.7454,3.2549,0.0642,0.3362,0.7125,0.0603,0.3186,0.7055,-0.003946,-0.017615,-0.007038
0.0000,WAIT_FOR_START,-0.1535,-0.1004,-1.2669,0.2890,1.7454,3.2549,0.0642,0.3362,0.7125,0.0603,0.3186,0.7055,-0.003946,-0.017616,-0.007037
0.0000,WAIT_FOR_START,-0.1535,-0.1004,-1.2669,0.2890,1.7454,3.2549,0.0642,0.3362,0.7125,0.0603,0.3186,0.7055,-0.003946,-0.017617,-0.007035
0.0000,WAIT_FOR_START,-0.1535,-0.1004,-1.2669,0.2890,1.7454,3.2549,0.0642,0.3362,0.7125,0.0603,0.3186,0.7055,-0.003946,-0.017618,-0.007034
0.0000,WAIT_FOR_START,-0.1535,-0.1004,-1.2669,0.2890,1.7454,3.2549,0.0642,0.3362,0.7125,0.0603,0.3186,0.7055,-0.003947,-0.017619,-0.007032
0.0000,WAIT_FOR_START,-0.1535,-0.1004,-1.2669,0.2890,1.7454,3.2549,0.0642,0.3362,0.7125,0.0603,0.3186,0.7055,-0.003947,-0.017620,-0.007031
0.0000,WAIT_FOR_START,-0.1535,-0.1004,-1.2669,0.2890,1.7454,3.2549,0.0642,0.3362,0.7125,0.0603,0.3186,0.7055,-0.003947,-0.017621,-0.007029
0.0000,WAIT_FOR_START,-0.1535,-0.1004,-1.2669,0.2890,1.7454,3.2549,0.0642,0.3362,0.7125,0.0603,0.3186,0.7055,-0.003947,-0.017623,-0.007028
0.0000,WAIT_FOR_START,-0.1535,-0.1004,-1.2669,0.2890,1.7454,3.2549,0.0642,0.3362,0.7125,0.0603,0.3186,0.7055,-0.003948,-0.017624,-0.007026
0.0000,WAIT_FOR_START,-0.1535,-0.1004,-1.2669,0.2890,1.7454,3.2549,0.0642,0.3362,0.7125,0.0603,0.3186,0.7055,-0.003948,-0.017625,-0.007025
0.0000,WAIT_FOR_START,-0.1535,-0.1004,-1.2669,0.2890,1.7454,3.2549,0.0642,0.3363,0.7125,0.0603,0.3186,0.7055,-0.003948,-0.017626,-0.007023
0.0000,WAIT_FOR_START,-0.1535,-0.1004,-1.2669,0.2890,1.7454,3.2549,0.0642,0.3363,0.7125,0.0603,0.3186,0.7055,-0.003948,-0.017627,-0.007022
0.0000,WAIT_FOR_START,-0.1535,-0.1005,-1.2669,0.2890,1.7454,3.2549,0.0642,0.3363,0.7125,0.0603,0.3186,0.7055,-0.003949,-0.017628,-0.007020
0.0000,WAIT_FOR_START,-0.1535,-0.1005,-1.2669,0.2890,1.7454,3.2549,0.0642,0.3363,0.7125,0.0603,0.3186,0.7055,-0.003949,-0.017629,-0.007019
0.0000,WAIT_FOR_START,-0.1535,-0.1005,-1.2669,0.2890,1.7454,3.2549,0.0642,0.3363,0.7125,0.0603,0.3186,0.7055,-0.003949,-0.017630,-0.007018
0.0000,WAIT_FOR_START,-0.1535,-0.1005,-1.2669,0.2890,1.7454,3.2549,0.0642,0.3363,0.7125,0.0603,0.3186,0.7055,-0.003950,-0.017631,-0.007016
0.0000,WAIT_FOR_START,-0.1535,-0.1005,-1.2669,0.2890,1.7454,3.2549,0.0642,0.3363,0.7125,0.0603,0.3186,0.7055,-0.003950,-0.017632,-0.007015
0.0000,WAIT_FOR_START,-0.1535,-0.1005,-1.2669,0.2890,1.7454,3.2549,0.0642,0.3363,0.7125,0.0603,0.3186,0.7055,-0.003950,-0.017633,-0.007013
0.0000,WAIT_FOR_START,-0.1535,-0.1005,-1.2669,0.2890,1.7454,3.2549,0.0642,0.3363,0.7125,0.0603,0.3186,0.7055,-0.003950,-0.017634,-0.007012
0.0000,WAIT_FOR_START,-0.1535,-0.1005,-1.2669,0.2890,1.7454,3.2548,0.0642,0.3363,0.7125,0.0603,0.3186,0.7055,-0.003951,-0.017636,-0.007010
0.0000,WAIT_FOR_START,-0.1535,-0.1005,-1.2670,0.2890,1.7454,3.2548,0.0642,0.3363,0.7125,0.0603,0.3186,0.7055,-0.003951,-0.017637,-0.007009
0.0000,WAIT_FOR_START,-0.1535,-0.1005,-1.2670,0.2890,1.7454,3.2548,0.0642,0.3363,0.7125,0.0603,0.3186,0.7055,-0.003951,-0.017638,-0.007008
0.0000,WAIT_FOR_START,-0.1535,-0.1005,-1.2670,0.2890,1.7454,3.2548,0.0642,0.3363,0.7125,0.0603,0.3186,0.7055,-0.003951,-0.017639,-0.007006
0.0000,WAIT_FOR_START,-0.1535,-0.1005,-1.2670,0.2890,1.7454,3.2548,0.0642,0.3363,0.7125,0.0603,0.3186,0.7055,-0.003952,-0.017640,-0.007005
0.0000,WAIT_FOR_START,-0.1535,-0.1005,-1.2670,0.2890,1.7454,3.2548,0.0642,0.3363,0.7125,0.0603,0.3186,0.7055,-0.003952,-0.017641,-0.007004
0.0000,WAIT_FOR_START,-0.1535,-0.1005,-1.2670,0.2890,1.7454,3.2548,0.0642,0.3363,0.7125,0.0603,0.3186,0.7055,-0.003952,-0.017642,-0.007002
0.0000,WAIT_FOR_START,-0.1535,-0.1005,-1.2670,0.2890,1.7454,3.2548,0.0642,0.3363,0.7125,0.0603,0.3186,0.7055,-0.003952,-0.017643,-0.007001
0.0000,WAIT_FOR_START,-0.1535,-0.1005,-1.2670,0.2890,1.7454,3.2548,0.0642,0.3363,0.7125,0.0603,0.3186,0.7055,-0.003953,-0.017644,-0.006999
0.0000,WAIT_FOR_START,-0.1535,-0.1005,-1.2670,0.2890,1.7454,3.2548,0.0642,0.3363,0.7125,0.0603,0.3186,0.7055,-0.003953,-0.017645,-0.006998
0.0000,WAIT_FOR_START,-0.1535,-0.1005,-1.2670,0.2890,1.7454,3.2548,0.0642,0.3363,0.7125,0.0603,0.3186,0.7055,-0.003953,-0.017646,-0.006997
0.0000,WAIT_FOR_START,-0.1535,-0.1005,-1.2670,0.2890,1.7454,3.2548,0.0642,0.3363,0.7125,0.0603,0.3186,0.7055,-0.003953,-0.017647,-0.006995
0.0000,WAIT_FOR_START,-0.1535,-0.1005,-1.2670,0.2890,1.7454,3.2548,0.0642,0.3363,0.7125,0.0603,0.3186,0.7055,-0.003954,-0.017648,-0.006994
0.0000,WAIT_FOR_START,-0.1535,-0.1005,-1.2670,0.2890,1.7454,3.2548,0.0642,0.3363,0.7125,0.0603,0.3186,0.7055,-0.003954,-0.017649,-0.006993
0.0000,WAIT_FOR_START,-0.1535,-0.1005,-1.2670,0.2890,1.7454,3.2548,0.0642,0.3363,0.7125,0.0603,0.3186,0.7055,-0.003954,-0.017650,-0.006991
0.0000,WAIT_FOR_START,-0.1535,-0.1005,-1.2670,0.2890,1.7454,3.2548,0.0642,0.3363,0.7125,0.0603,0.3186,0.7055,-0.003954,-0.017651,-0.006990
0.0000,WAIT_FOR_START,-0.1535,-0.1005,-1.2670,0.2890,1.7454,3.2548,0.0642,0.3363,0.7125,0.0603,0.3186,0.7055,-0.003955,-0.017652,-0.006989
0.0000,WAIT_FOR_START,-0.1535,-0.1005,-1.2670,0.2890,1.7454,3.2548,0.0642,0.3363,0.7125,0.0603,0.3186,0.7055,-0.003955,-0.017653,-0.006987
0.0000,WAIT_FOR_START,-0.1535,-0.1005,-1.2670,0.2890,1.7454,3.2548,0.0642,0.3363,0.7125,0.0603,0.3186,0.7055,-0.003955,-0.017654,-0.006986
0.0000,WAIT_FOR_START,-0.1535,-0.1006,-1.2670,0.2890,1.7454,3.2548,0.0642,0.3363,0.7125,0.0603,0.3186,0.7055,-0.003955,-0.017655,-0.006985
0.0000,WAIT_FOR_START,-0.1535,-0.1006,-1.2670,0.2890,1.7454,3.2548,0.0642,0.3363,0.7125,0.0603,0.3186,0.7055,-0.003955,-0.017656,-0.006983
0.0000,WAIT_FOR_START,-0.1535,-0.1006,-1.2670,0.2890,1.7454,3.2548,0.0642,0.3363,0.7125,0.0603,0.3186,0.7055,-0.003956,-0.017657,-0.006982
0.0000,WAIT_FOR_START,-0.1535,-0.1006,-1.2670,0.2890,1.7454,3.2548,0.0642,0.3363,0.7125,0.0603,0.3186,0.7055,-0.003956,-0.017658,-0.006981
0.0000,WAIT_FOR_START,-0.1535,-0.1006,-1.2670,0.2890,1.7454,3.2548,0.0642,0.3363,0.7125,0.0603,0.3186,0.7055,-0.003956,-0.017659,-0.006979
0.0000,WAIT_FOR_START,-0.1535,-0.1006,-1.2670,0.2890,1.7454,3.2548,0.0642,0.3363,0.7125,0.0603,0.3186,0.7055,-0.003956,-0.017660,-0.006978
0.0000,WAIT_FOR_START,-0.1535,-0.1006,-1.2670,0.2890,1.7454,3.2548,0.0642,0.3363,0.7125,0.0603,0.3186,0.7055,-0.003957,-0.017661,-0.006977
0.0000,WAIT_FOR_START,-0.1535,-0.1006,-1.2670,0.2890,1.7454,3.2548,0.0642,0.3363,0.7125,0.0603,0.3186,0.7055,-0.003957,-0.017662,-0.006976
0.0000,WAIT_FOR_START,-0.1535,-0.1006,-1.2670,0.2890,1.7454,3.2548,0.0642,0.3363,0.7125,0.0603,0.3186,0.7055,-0.003957,-0.017663,-0.006974
0.0000,WAIT_FOR_START,-0.1535,-0.1006,-1.2670,0.2890,1.7454,3.2548,0.0642,0.3363,0.7125,0.0603,0.3186,0.7055,-0.003957,-0.017664,-0.006973
0.0000,WAIT_FOR_START,-0.1535,-0.1006,-1.2670,0.2890,1.7454,3.2548,0.0642,0.3363,0.7125,0.0603,0.3186,0.7055,-0.003958,-0.017665,-0.006972
0.0000,WAIT_FOR_START,-0.1535,-0.1006,-1.2670,0.2890,1.7454,3.2548,0.0642,0.3363,0.7125,0.0603,0.3186,0.7055,-0.003958,-0.017666,-0.006971
0.0000,WAIT_FOR_START,-0.1535,-0.1006,-1.2670,0.2890,1.7454,3.2548,0.0642,0.3363,0.7125,0.0603,0.3186,0.7055,-0.003958,-0.017667,-0.006969
0.0000,WAIT_FOR_START,-0.1535,-0.1006,-1.2670,0.2890,1.7454,3.2548,0.0642,0.3363,0.7125,0.0603,0.3186,0.7055,-0.003958,-0.017668,-0.006968
0.0000,WAIT_FOR_START,-0.1535,-0.1006,-1.2671,0.2890,1.7454,3.2548,0.0642,0.3363,0.7125,0.0603,0.3186,0.7055,-0.003959,-0.017669,-0.006967
0.0000,WAIT_FOR_START,-0.1535,-0.1006,-1.2671,0.2890,1.7454,3.2548,0.0642,0.3363,0.7125,0.0603,0.3186,0.7055,-0.003959,-0.017670,-0.006966
0.0000,WAIT_FOR_START,-0.1535,-0.1006,-1.2671,0.2890,1.7454,3.2548,0.0642,0.3363,0.7125,0.0603,0.3186,0.7055,-0.003959,-0.017670,-0.006964
0.0000,WAIT_FOR_START,-0.1535,-0.1006,-1.2671,0.2890,1.7454,3.2548,0.0642,0.3363,0.7125,0.0603,0.3186,0.7055,-0.003959,-0.017671,-0.006963
0.0000,WAIT_FOR_START,-0.1535,-0.1006,-1.2671,0.2890,1.7454,3.2548,0.0642,0.3363,0.7125,0.0603,0.3186,0.7055,-0.003960,-0.017672,-0.006962
0.0000,WAIT_FOR_START,-0.1535,-0.1006,-1.2671,0.2890,1.7454,3.2548,0.0642,0.3363,0.7125,0.0603,0.3186,0.7055,-0.003960,-0.017673,-0.006961
0.0000,WAIT_FOR_START,-0.1535,-0.1006,-1.2671,0.2890,1.7454,3.2548,0.0642,0.3363,0.7125,0.0603,0.3186,0.7055,-0.003960,-0.017674,-0.006959
0.0000,WAIT_FOR_START,-0.1535,-0.1006,-1.2671,0.2890,1.7454,3.2548,0.0642,0.3363,0.7125,0.0603,0.3186,0.7055,-0.003960,-0.017675,-0.006958
0.0000,WAIT_FOR_START,-0.1535,-0.1006,-1.2671,0.2890,1.7454,3.2548,0.0642,0.3363,0.7125,0.0603,0.3186,0.7055,-0.003960,-0.017676,-0.006957
0.0000,WAIT_FOR_START,-0.1535,-0.1006,-1.2671,0.2890,1.7454,3.2548,0.0642,0.3363,0.7125,0.0603,0.3186,0.7055,-0.003961,-0.017677,-0.006956
0.0000,WAIT_FOR_START,-0.1535,-0.1006,-1.2671,0.2890,1.7454,3.2548,0.0642,0.3363,0.7125,0.0603,0.3186,0.7055,-0.003961,-0.017678,-0.006955
0.0000,WAIT_FOR_START,-0.1535,-0.1006,-1.2671,0.2890,1.7454,3.2548,0.0642,0.3363,0.7125,0.0603,0.3186,0.7055,-0.003961,-0.017679,-0.006953
0.0000,WAIT_FOR_START,-0.1535,-0.1006,-1.2671,0.2890,1.7454,3.2548,0.0642,0.3363,0.7125,0.0603,0.3186,0.7055,-0.003961,-0.017680,-0.006952
0.0000,WAIT_FOR_START,-0.1535,-0.1006,-1.2671,0.2890,1.7454,3.2548,0.0642,0.3363,0.7125,0.0603,0.3186,0.7055,-0.003962,-0.017681,-0.006951
0.0000,WAIT_FOR_START,-0.1535,-0.1007,-1.2671,0.2890,1.7454,3.2548,0.0642,0.3363,0.7125,0.0603,0.3186,0.7055,-0.003962,-0.017681,-0.006950
0.0000,WAIT_FOR_START,-0.1535,-0.1007,-1.2671,0.2890,1.7454,3.2548,0.0642,0.3363,0.7125,0.0603,0.3186,0.7055,-0.003962,-0.017682,-0.006949
0.0000,WAIT_FOR_START,-0.1535,-0.1007,-1.2671,0.2890,1.7454,3.2548,0.0642,0.3363,0.7125,0.0603,0.3186,0.7055,-0.003962,-0.017683,-0.006947
0.0000,WAIT_FOR_START,-0.1535,-0.1007,-1.2671,0.2890,1.7454,3.2548,0.0642,0.3363,0.7125,0.0603,0.3186,0.7055,-0.003962,-0.017684,-0.006946
0.0000,WAIT_FOR_START,-0.1535,-0.1007,-1.2671,0.2890,1.7454,3.2548,0.0642,0.3363,0.7125,0.0603,0.3186,0.7055,-0.003963,-0.017685,-0.006945
0.0000,WAIT_FOR_START,-0.1535,-0.1007,-1.2671,0.2890,1.7454,3.2548,0.0642,0.3363,0.7125,0.0603,0.3186,0.7055,-0.003963,-0.017686,-0.006944
0.0000,WAIT_FOR_START,-0.1535,-0.1007,-1.2671,0.2890,1.7454,3.2548,0.0642,0.3363,0.7125,0.0603,0.3186,0.7055,-0.003963,-0.017687,-0.006943
0.0000,WAIT_FOR_START,-0.1535,-0.1007,-1.2671,0.2890,1.7454,3.2548,0.0642,0.3363,0.7124,0.0603,0.3186,0.7055,-0.003963,-0.017688,-0.006942
0.0000,WAIT_FOR_START,-0.1535,-0.1007,-1.2671,0.2890,1.7454,3.2548,0.0642,0.3363,0.7124,0.0603,0.3186,0.7055,-0.003964,-0.017689,-0.006940
0.0000,WAIT_FOR_START,-0.1535,-0.1007,-1.2671,0.2890,1.7454,3.2548,0.0642,0.3363,0.7124,0.0603,0.3186,0.7055,-0.003964,-0.017689,-0.006939
0.0000,WAIT_FOR_START,-0.1535,-0.1007,-1.2671,0.2890,1.7454,3.2548,0.0642,0.3363,0.7124,0.0603,0.3186,0.7055,-0.003964,-0.017690,-0.006938
0.0000,WAIT_FOR_START,-0.1535,-0.1007,-1.2671,0.2890,1.7454,3.2547,0.0642,0.3363,0.7124,0.0603,0.3186,0.7055,-0.003964,-0.017691,-0.006937
0.0000,WAIT_FOR_START,-0.1535,-0.1007,-1.2671,0.2890,1.7454,3.2547,0.0642,0.3363,0.7124,0.0603,0.3186,0.7055,-0.003964,-0.017692,-0.006936
0.0000,WAIT_FOR_START,-0.1535,-0.1007,-1.2671,0.2890,1.7454,3.2547,0.0642,0.3363,0.7124,0.0603,0.3186,0.7055,-0.003965,-0.017693,-0.006935
0.0000,WAIT_FOR_START,-0.1535,-0.1007,-1.2671,0.2890,1.7454,3.2547,0.0642,0.3363,0.7124,0.0603,0.3186,0.7055,-0.003965,-0.017694,-0.006934
0.0000,WAIT_FOR_START,-0.1535,-0.1007,-1.2671,0.2890,1.7454,3.2547,0.0642,0.3363,0.7124,0.0603,0.3186,0.7055,-0.003965,-0.017695,-0.006932
0.0000,WAIT_FOR_START,-0.1535,-0.1007,-1.2671,0.2890,1.7454,3.2547,0.0642,0.3363,0.7124,0.0603,0.3186,0.7055,-0.003965,-0.017695,-0.006931
0.0000,WAIT_FOR_START,-0.1535,-0.1007,-1.2671,0.2890,1.7454,3.2547,0.0642,0.3363,0.7124,0.0603,0.3186,0.7055,-0.003966,-0.017696,-0.006930
0.0000,WAIT_FOR_START,-0.1535,-0.1007,-1.2671,0.2890,1.7454,3.2547,0.0642,0.3363,0.7124,0.0603,0.3186,0.7055,-0.003966,-0.017697,-0.006929
0.0000,WAIT_FOR_START,-0.1535,-0.1007,-1.2671,0.2890,1.7454,3.2547,0.0642,0.3363,0.7124,0.0603,0.3186,0.7055,-0.003966,-0.017698,-0.006928
0.0000,WAIT_FOR_START,-0.1535,-0.1007,-1.2671,0.2890,1.7454,3.2547,0.0642,0.3363,0.7124,0.0603,0.3186,0.7055,-0.003966,-0.017699,-0.006927
0.0000,WAIT_FOR_START,-0.1535,-0.1007,-1.2671,0.2890,1.7454,3.2547,0.0642,0.3363,0.7124,0.0603,0.3186,0.7055,-0.003966,-0.017700,-0.006926
0.0000,WAIT_FOR_START,-0.1535,-0.1007,-1.2671,0.2890,1.7454,3.2547,0.0642,0.3363,0.7124,0.0603,0.3186,0.7055,-0.003967,-0.017700,-0.006925
0.0000,WAIT_FOR_START,-0.1535,-0.1007,-1.2672,0.2890,1.7454,3.2547,0.0642,0.3363,0.7124,0.0603,0.3186,0.7055,-0.003967,-0.017701,-0.006924
0.0000,WAIT_FOR_START,-0.1535,-0.1007,-1.2672,0.2890,1.7454,3.2547,0.0642,0.3363,0.7124,0.0603,0.3186,0.7055,-0.003967,-0.017702,-0.006923
0.0000,WAIT_FOR_START,-0.1535,-0.1007,-1.2672,0.2890,1.7454,3.2547,0.0642,0.3363,0.7124,0.0603,0.3186,0.7055,-0.003967,-0.017703,-0.006921
0.0000,WAIT_FOR_START,-0.1535,-0.1007,-1.2672,0.2890,1.7454,3.2547,0.0642,0.3363,0.7124,0.0603,0.3186,0.7055,-0.003967,-0.017704,-0.006920
0.0000,WAIT_FOR_START,-0.1535,-0.1007,-1.2672,0.2890,1.7454,3.2547,0.0642,0.3363,0.7124,0.0603,0.3186,0.7055,-0.003968,-0.017705,-0.006919
0.0000,WAIT_FOR_START,-0.1535,-0.1007,-1.2672,0.2890,1.7454,3.2547,0.0642,0.3363,0.7124,0.0603,0.3186,0.7055,-0.003968,-0.017705,-0.006918
0.0000,WAIT_FOR_START,-0.1535,-0.1007,-1.2672,0.2890,1.7454,3.2547,0.0642,0.3363,0.7124,0.0603,0.3186,0.7055,-0.003968,-0.017706,-0.006917
0.0000,WAIT_FOR_START,-0.1535,-0.1007,-1.2672,0.2890,1.7454,3.2547,0.0642,0.3363,0.7124,0.0603,0.3186,0.7055,-0.003968,-0.017707,-0.006916
0.0000,WAIT_FOR_START,-0.1535,-0.1008,-1.2672,0.2890,1.7454,3.2547,0.0642,0.3363,0.7124,0.0603,0.3186,0.7055,-0.003969,-0.017708,-0.006915
0.0000,WAIT_FOR_START,-0.1535,-0.1008,-1.2672,0.2890,1.7454,3.2547,0.0642,0.3363,0.7124,0.0603,0.3186,0.7055,-0.003969,-0.017709,-0.006914
0.0000,WAIT_FOR_START,-0.1535,-0.1008,-1.2672,0.2890,1.7454,3.2547,0.0642,0.3363,0.7124,0.0603,0.3186,0.7055,-0.003969,-0.017709,-0.006913
0.0000,WAIT_FOR_START,-0.1535,-0.1008,-1.2672,0.2890,1.7454,3.2547,0.0642,0.3363,0.7124,0.0603,0.3186,0.7055,-0.003969,-0.017710,-0.006912
0.0000,WAIT_FOR_START,-0.1535,-0.1008,-1.2672,0.2890,1.7454,3.2547,0.0642,0.3363,0.7124,0.0603,0.3186,0.7055,-0.003969,-0.017711,-0.006911
0.0000,WAIT_FOR_START,-0.1535,-0.1008,-1.2672,0.2890,1.7454,3.2547,0.0642,0.3363,0.7124,0.0603,0.3186,0.7055,-0.003970,-0.017712,-0.006910
0.0000,WAIT_FOR_START,-0.1535,-0.1008,-1.2672,0.2890,1.7454,3.2547,0.0642,0.3363,0.7124,0.0603,0.3186,0.7055,-0.003970,-0.017713,-0.006909
0.0000,WAIT_FOR_START,-0.1535,-0.1008,-1.2672,0.2890,1.7454,3.2547,0.0642,0.3363,0.7124,0.0603,0.3186,0.7055,-0.003970,-0.017713,-0.006908
0.0000,WAIT_FOR_START,-0.1535,-0.1008,-1.2672,0.2890,1.7454,3.2547,0.0642,0.3363,0.7124,0.0603,0.3186,0.7055,-0.003970,-0.017714,-0.006907
0.0000,WAIT_FOR_START,-0.1535,-0.1008,-1.2672,0.2890,1.7454,3.2547,0.0642,0.3363,0.7124,0.0603,0.3186,0.7055,-0.003970,-0.017715,-0.006906
0.0000,WAIT_FOR_START,-0.1535,-0.1008,-1.2672,0.2890,1.7454,3.2547,0.0642,0.3363,0.7124,0.0603,0.3186,0.7055,-0.003971,-0.017716,-0.006905
0.0000,WAIT_FOR_START,-0.1535,-0.1008,-1.2672,0.2890,1.7454,3.2547,0.0642,0.3363,0.7124,0.0603,0.3186,0.7055,-0.003971,-0.017717,-0.006904
0.0000,WAIT_FOR_START,-0.1535,-0.1008,-1.2672,0.2890,1.7454,3.2547,0.0642,0.3363,0.7124,0.0603,0.3186,0.7055,-0.003971,-0.017717,-0.006903
0.0000,WAIT_FOR_START,-0.1535,-0.1008,-1.2672,0.2890,1.7454,3.2547,0.0642,0.3363,0.7124,0.0603,0.3186,0.7055,-0.003971,-0.017718,-0.006902
0.0000,WAIT_FOR_START,-0.1535,-0.1008,-1.2672,0.2890,1.7454,3.2547,0.0642,0.3363,0.7124,0.0603,0.3186,0.7055,-0.003971,-0.017719,-0.006901
0.0000,WAIT_FOR_START,-0.1535,-0.1008,-1.2672,0.2890,1.7454,3.2547,0.0642,0.3363,0.7124,0.0603,0.3186,0.7055,-0.003972,-0.017720,-0.006900
0.0000,WAIT_FOR_START,-0.1535,-0.1008,-1.2672,0.2890,1.7454,3.2547,0.0642,0.3363,0.7124,0.0603,0.3186,0.7055,-0.003972,-0.017720,-0.006899
0.0000,WAIT_FOR_START,-0.1535,-0.1008,-1.2672,0.2890,1.7454,3.2547,0.0642,0.3363,0.7124,0.0603,0.3186,0.7055,-0.003972,-0.017721,-0.006898
0.0000,WAIT_FOR_START,-0.1535,-0.1008,-1.2672,0.2890,1.7454,3.2547,0.0642,0.3363,0.7124,0.0603,0.3186,0.7055,-0.003972,-0.017722,-0.006897
0.0000,WAIT_FOR_START,-0.1535,-0.1008,-1.2672,0.2890,1.7454,3.2547,0.0642,0.3363,0.7124,0.0603,0.3186,0.7055,-0.003972,-0.017723,-0.006896
0.0000,WAIT_FOR_START,-0.1535,-0.1008,-1.2672,0.2890,1.7454,3.2547,0.0642,0.3363,0.7124,0.0603,0.3186,0.7055,-0.003973,-0.017723,-0.006895
0.0000,WAIT_FOR_START,-0.1535,-0.1008,-1.2672,0.2890,1.7454,3.2547,0.0642,0.3363,0.7124,0.0603,0.3186,0.7055,-0.003973,-0.017724,-0.006894
0.0000,WAIT_FOR_START,-0.1535,-0.1008,-1.2672,0.2890,1.7454,3.2547,0.0642,0.3363,0.7124,0.0603,0.3186,0.7055,-0.003973,-0.017725,-0.006893
0.0000,WAIT_FOR_START,-0.1535,-0.1008,-1.2672,0.2890,1.7454,3.2547,0.0642,0.3364,0.7124,0.0603,0.3186,0.7055,-0.003973,-0.017726,-0.006892
0.0000,WAIT_FOR_START,-0.1535,-0.1008,-1.2672,0.2890,1.7454,3.2547,0.0642,0.3364,0.7124,0.0603,0.3186,0.7055,-0.003973,-0.017726,-0.006891
0.0000,WAIT_FOR_START,-0.1535,-0.1008,-1.2672,0.2890,1.7454,3.2547,0.0642,0.3364,0.7124,0.0603,0.3186,0.7055,-0.003973,-0.017727,-0.006890
0.0000,WAIT_FOR_START,-0.1535,-0.1008,-1.2672,0.2890,1.7454,3.2547,0.0642,0.3364,0.7124,0.0603,0.3186,0.7055,-0.003974,-0.017728,-0.006889
0.0000,WAIT_FOR_START,-0.1535,-0.1008,-1.2672,0.2890,1.7454,3.2547,0.0642,0.3364,0.7124,0.0603,0.3186,0.7055,-0.003974,-0.017729,-0.006888
0.0000,WAIT_FOR_START,-0.1535,-0.1008,-1.2672,0.2890,1.7454,3.2547,0.0642,0.3364,0.7124,0.0603,0.3186,0.7055,-0.003974,-0.017729,-0.006887
0.0000,WAIT_FOR_START,-0.1535,-0.1008,-1.2672,0.2890,1.7454,3.2547,0.0642,0.3364,0.7124,0.0603,0.3186,0.7055,-0.003974,-0.017730,-0.006886
0.0000,WAIT_FOR_START,-0.1535,-0.1008,-1.2672,0.2890,1.7454,3.2547,0.0642,0.3364,0.7124,0.0603,0.3186,0.7055,-0.003974,-0.017731,-0.006885
0.0000,WAIT_FOR_START,-0.1535,-0.1008,-1.2672,0.2890,1.7454,3.2547,0.0642,0.3364,0.7124,0.0603,0.3186,0.7055,-0.003975,-0.017731,-0.006884
0.0000,WAIT_FOR_START,-0.1535,-0.1008,-1.2672,0.2890,1.7454,3.2547,0.0642,0.3364,0.7124,0.0603,0.3186,0.7055,-0.003975,-0.017732,-0.006883
0.0000,WAIT_FOR_START,-0.1535,-0.1008,-1.2672,0.2890,1.7454,3.2547,0.0642,0.3364,0.7124,0.0603,0.3186,0.7055,-0.003975,-0.017733,-0.006882
0.0000,WAIT_FOR_START,-0.1535,-0.1009,-1.2672,0.2890,1.7454,3.2547,0.0642,0.3364,0.7124,0.0603,0.3186,0.7055,-0.003975,-0.017734,-0.006881
0.0000,WAIT_FOR_START,-0.1535,-0.1009,-1.2673,0.2890,1.7454,3.2547,0.0643,0.3364,0.7124,0.0603,0.3186,0.7055,-0.003975,-0.017734,-0.006880
0.0000,WAIT_FOR_START,-0.1535,-0.1009,-1.2673,0.2890,1.7454,3.2547,0.0643,0.3364,0.7124,0.0603,0.3186,0.7055,-0.003976,-0.017735,-0.006879
0.0000,WAIT_FOR_START,-0.1535,-0.1009,-1.2673,0.2890,1.7454,3.2547,0.0643,0.3364,0.7124,0.0603,0.3186,0.7055,-0.003976,-0.017736,-0.006878
0.0000,WAIT_FOR_START,-0.1535,-0.1009,-1.2673,0.2890,1.7454,3.2547,0.0643,0.3364,0.7124,0.0603,0.3186,0.7055,-0.003976,-0.017736,-0.006877
0.0000,WAIT_FOR_START,-0.1535,-0.1009,-1.2673,0.2890,1.7454,3.2547,0.0643,0.3364,0.7124,0.0603,0.3186,0.7055,-0.003976,-0.017737,-0.006876
0.0000,WAIT_FOR_START,-0.1536,-0.1009,-1.2673,0.2890,1.7453,3.2547,0.0643,0.3364,0.7124,0.0603,0.3186,0.7055,-0.003976,-0.017738,-0.006876
0.0000,WAIT_FOR_START,-0.1536,-0.1009,-1.2673,0.2890,1.7453,3.2547,0.0643,0.3364,0.7124,0.0603,0.3186,0.7055,-0.003976,-0.017739,-0.006875
0.0000,WAIT_FOR_START,-0.1536,-0.1009,-1.2673,0.2890,1.7453,3.2547,0.0643,0.3364,0.7124,0.0603,0.3186,0.7055,-0.003977,-0.017739,-0.006874
0.0000,WAIT_FOR_START,-0.1536,-0.1009,-1.2673,0.2890,1.7453,3.2547,0.0643,0.3364,0.7124,0.0603,0.3186,0.7055,-0.003977,-0.017740,-0.006873
0.0000,WAIT_FOR_START,-0.1536,-0.1009,-1.2673,0.2890,1.7453,3.2547,0.0643,0.3364,0.7124,0.0603,0.3186,0.7055,-0.003977,-0.017741,-0.006872
0.0000,WAIT_FOR_START,-0.1536,-0.1009,-1.2673,0.2890,1.7453,3.2547,0.0643,0.3364,0.7124,0.0603,0.3186,0.7055,-0.003977,-0.017741,-0.006871
0.0000,WAIT_FOR_START,-0.1536,-0.1009,-1.2673,0.2890,1.7453,3.2547,0.0643,0.3364,0.7124,0.0603,0.3186,0.7055,-0.003977,-0.017742,-0.006870
0.0000,WAIT_FOR_START,-0.1536,-0.1009,-1.2673,0.2890,1.7453,3.2547,0.0643,0.3364,0.7124,0.0603,0.3186,0.7055,-0.003978,-0.017743,-0.006869
0.0000,WAIT_FOR_START,-0.1536,-0.1009,-1.2673,0.2890,1.7453,3.2547,0.0643,0.3364,0.7124,0.0603,0.3186,0.7055,-0.003978,-0.017743,-0.006868
0.0000,WAIT_FOR_START,-0.1536,-0.1009,-1.2673,0.2890,1.7453,3.2547,0.0643,0.3364,0.7124,0.0603,0.3186,0.7055,-0.003978,-0.017744,-0.006867
0.0000,WAIT_FOR_START,-0.1536,-0.1009,-1.2673,0.2890,1.7453,3.2547,0.0643,0.3364,0.7124,0.0603,0.3186,0.7055,-0.003978,-0.017745,-0.006867
0.0000,WAIT_FOR_START,-0.1536,-0.1009,-1.2673,0.2891,1.7453,3.2547,0.0643,0.3364,0.7124,0.0603,0.3186,0.7055,-0.003978,-0.017745,-0.006866
0.0000,WAIT_FOR_START,-0.1536,-0.1009,-1.2673,0.2891,1.7453,3.2546,0.0643,0.3364,0.7124,0.0603,0.3186,0.7055,-0.003978,-0.017746,-0.006865
0.0000,WAIT_FOR_START,-0.1536,-0.1009,-1.2673,0.2891,1.7453,3.2546,0.0643,0.3364,0.7124,0.0603,0.3186,0.7055,-0.003979,-0.017747,-0.006864
0.0000,WAIT_FOR_START,-0.1536,-0.1009,-1.2673,0.2891,1.7453,3.2546,0.0643,0.3364,0.7124,0.0603,0.3186,0.7055,-0.003979,-0.017747,-0.006863
0.0000,WAIT_FOR_START,-0.1536,-0.1009,-1.2673,0.2891,1.7453,3.2546,0.0643,0.3364,0.7124,0.0603,0.3186,0.7055,-0.003979,-0.017748,-0.006862
0.0000,WAIT_FOR_START,-0.1536,-0.1009,-1.2673,0.2891,1.7453,3.2546,0.0643,0.3364,0.7124,0.0603,0.3186,0.7055,-0.003979,-0.017749,-0.006861
0.0000,WAIT_FOR_START,-0.1536,-0.1009,-1.2673,0.2891,1.7453,3.2546,0.0643,0.3364,0.7124,0.0603,0.3186,0.7055,-0.003979,-0.017749,-0.006860
0.0000,WAIT_FOR_START,-0.1536,-0.1009,-1.2673,0.2891,1.7453,3.2546,0.0643,0.3364,0.7124,0.0603,0.3186,0.7055,-0.003979,-0.017750,-0.006860
0.0000,WAIT_FOR_START,-0.1536,-0.1009,-1.2673,0.2891,1.7453,3.2546,0.0643,0.3364,0.7124,0.0603,0.3186,0.7055,-0.003980,-0.017751,-0.006859
0.0000,WAIT_FOR_START,-0.1536,-0.1009,-1.2673,0.2891,1.7453,3.2546,0.0643,0.3364,0.7124,0.0603,0.3186,0.7055,-0.003980,-0.017751,-0.006858
0.0000,WAIT_FOR_START,-0.1536,-0.1009,-1.2673,0.2891,1.7453,3.2546,0.0643,0.3364,0.7124,0.0603,0.3186,0.7055,-0.003980,-0.017752,-0.006857
0.0000,WAIT_FOR_START,-0.1536,-0.1009,-1.2673,0.2891,1.7453,3.2546,0.0643,0.3364,0.7124,0.0603,0.3186,0.7055,-0.003980,-0.017753,-0.006856
0.0000,WAIT_FOR_START,-0.1536,-0.1009,-1.2673,0.2891,1.7453,3.2546,0.0643,0.3364,0.7124,0.0603,0.3186,0.7055,-0.003980,-0.017753,-0.006855
0.0000,WAIT_FOR_START,-0.1536,-0.1009,-1.2673,0.2891,1.7453,3.2546,0.0643,0.3364,0.7124,0.0603,0.3186,0.7055,-0.003980,-0.017754,-0.006854
0.0000,WAIT_FOR_START,-0.1536,-0.1009,-1.2673,0.2891,1.7453,3.2546,0.0643,0.3364,0.7124,0.0603,0.3186,0.7055,-0.003981,-0.017755,-0.006854
0.0000,WAIT_FOR_START,-0.1536,-0.1009,-1.2673,0.2891,1.7453,3.2546,0.0643,0.3364,0.7124,0.0603,0.3186,0.7055,-0.003981,-0.017755,-0.006853
0.0000,WAIT_FOR_START,-0.1536,-0.1009,-1.2673,0.2891,1.7453,3.2546,0.0643,0.3364,0.7124,0.0603,0.3186,0.7055,-0.003981,-0.017756,-0.006852
0.0000,WAIT_FOR_START,-0.1536,-0.1009,-1.2673,0.2891,1.7453,3.2546,0.0643,0.3364,0.7124,0.0603,0.3186,0.7055,-0.003981,-0.017756,-0.006851
0.0000,WAIT_FOR_START,-0.1536,-0.1009,-1.2673,0.2891,1.7453,3.2546,0.0643,0.3364,0.7124,0.0603,0.3186,0.7055,-0.003981,-0.017757,-0.006850
0.0000,WAIT_FOR_START,-0.1536,-0.1009,-1.2673,0.2891,1.7453,3.2546,0.0643,0.3364,0.7124,0.0603,0.3186,0.7055,-0.003981,-0.017758,-0.006849
0.0000,WAIT_FOR_START,-0.1536,-0.1009,-1.2673,0.2891,1.7453,3.2546,0.0643,0.3364,0.7124,0.0603,0.3186,0.7055,-0.003982,-0.017758,-0.006849
0.0000,WAIT_FOR_START,-0.1536,-0.1009,-1.2673,0.2891,1.7453,3.2546,0.0643,0.3364,0.7124,0.0603,0.3186,0.7055,-0.003982,-0.017759,-0.006848
0.0000,WAIT_FOR_START,-0.1536,-0.1009,-1.2673,0.2891,1.7453,3.2546,0.0643,0.3364,0.7124,0.0603,0.3186,0.7055,-0.003982,-0.017760,-0.006847
0.0000,WAIT_FOR_START,-0.1536,-0.1010,-1.2673,0.2891,1.7453,3.2546,0.0643,0.3364,0.7124,0.0603,0.3186,0.7055,-0.003982,-0.017760,-0.006846
0.0000,WAIT_FOR_START,-0.1536,-0.1010,-1.2673,0.2891,1.7453,3.2546,0.0643,0.3364,0.7124,0.0603,0.3186,0.7055,-0.003982,-0.017761,-0.006845
0.0000,WAIT_FOR_START,-0.1536,-0.1010,-1.2673,0.2891,1.7453,3.2546,0.0643,0.3364,0.7124,0.0603,0.3186,0.7055,-0.003982,-0.017761,-0.006845
0.0000,WAIT_FOR_START,-0.1536,-0.1010,-1.2673,0.2891,1.7453,3.2546,0.0643,0.3364,0.7124,0.0603,0.3186,0.7055,-0.003983,-0.017762,-0.006844
0.0000,WAIT_FOR_START,-0.1536,-0.1010,-1.2673,0.2891,1.7453,3.2546,0.0643,0.3364,0.7124,0.0603,0.3186,0.7055,-0.003983,-0.017763,-0.006843
0.0000,WAIT_FOR_START,-0.1536,-0.1010,-1.2673,0.2891,1.7453,3.2546,0.0643,0.3364,0.7123,0.0603,0.3186,0.7055,-0.003983,-0.017763,-0.006842
0.0000,WAIT_FOR_START,-0.1536,-0.1010,-1.2673,0.2891,1.7453,3.2546,0.0643,0.3364,0.7123,0.0603,0.3186,0.7055,-0.003983,-0.017764,-0.006841
0.0000,WAIT_FOR_START,-0.1536,-0.1010,-1.2673,0.2891,1.7453,3.2546,0.0643,0.3364,0.7123,0.0603,0.3186,0.7055,-0.003983,-0.017764,-0.006841
0.0000,WAIT_FOR_START,-0.1536,-0.1010,-1.2673,0.2891,1.7453,3.2546,0.0643,0.3364,0.7123,0.0603,0.3186,0.7055,-0.003983,-0.017765,-0.006840
0.0000,WAIT_FOR_START,-0.1536,-0.1010,-1.2673,0.2891,1.7453,3.2546,0.0643,0.3364,0.7123,0.0603,0.3186,0.7055,-0.003984,-0.017766,-0.006839
0.0000,WAIT_FOR_START,-0.1536,-0.1010,-1.2673,0.2891,1.7453,3.2546,0.0643,0.3364,0.7123,0.0603,0.3186,0.7055,-0.003984,-0.017766,-0.006838
0.0000,WAIT_FOR_START,-0.1536,-0.1010,-1.2673,0.2891,1.7453,3.2546,0.0643,0.3364,0.7123,0.0603,0.3186,0.7055,-0.003984,-0.017767,-0.006837
0.0000,WAIT_FOR_START,-0.1536,-0.1010,-1.2673,0.2891,1.7453,3.2546,0.0643,0.3364,0.7123,0.0603,0.3186,0.7055,-0.003984,-0.017767,-0.006837
0.0000,WAIT_FOR_START,-0.1536,-0.1010,-1.2674,0.2891,1.7453,3.2546,0.0643,0.3364,0.7123,0.0603,0.3186,0.7055,-0.003984,-0.017768,-0.006836
0.0000,WAIT_FOR_START,-0.1536,-0.1010,-1.2674,0.2891,1.7453,3.2546,0.0643,0.3364,0.7123,0.0603,0.3186,0.7055,-0.003984,-0.017769,-0.006835
0.0000,WAIT_FOR_START,-0.1536,-0.1010,-1.2674,0.2891,1.7453,3.2546,0.0643,0.3364,0.7123,0.0603,0.3186,0.7055,-0.003985,-0.017769,-0.006834
0.0000,WAIT_FOR_START,-0.1536,-0.1010,-1.2674,0.2891,1.7453,3.2546,0.0643,0.3364,0.7123,0.0603,0.3186,0.7055,-0.003985,-0.017770,-0.006834
0.0000,WAIT_FOR_START,-0.1536,-0.1010,-1.2674,0.2891,1.7453,3.2546,0.0643,0.3364,0.7123,0.0603,0.3186,0.7055,-0.003985,-0.017770,-0.006833
0.0000,WAIT_FOR_START,-0.1536,-0.1010,-1.2674,0.2891,1.7453,3.2546,0.0643,0.3364,0.7123,0.0603,0.3186,0.7055,-0.003985,-0.017771,-0.006832
0.0000,WAIT_FOR_START,-0.1536,-0.1010,-1.2674,0.2891,1.7453,3.2546,0.0643,0.3364,0.7123,0.0603,0.3186,0.7055,-0.003985,-0.017772,-0.006831
0.0000,WAIT_FOR_START,-0.1536,-0.1010,-1.2674,0.2891,1.7453,3.2546,0.0643,0.3364,0.7123,0.0603,0.3186,0.7055,-0.003985,-0.017772,-0.006830
0.0000,WAIT_FOR_START,-0.1536,-0.1010,-1.2674,0.2891,1.7453,3.2546,0.0643,0.3364,0.7123,0.0603,0.3186,0.7055,-0.003985,-0.017773,-0.006830
0.0000,WAIT_FOR_START,-0.1536,-0.1010,-1.2674,0.2891,1.7453,3.2546,0.0643,0.3364,0.7123,0.0603,0.3186,0.7055,-0.003986,-0.017773,-0.006829
0.0000,WAIT_FOR_START,-0.1536,-0.1010,-1.2674,0.2891,1.7453,3.2546,0.0643,0.3364,0.7123,0.0603,0.3186,0.7055,-0.003986,-0.017774,-0.006828
0.0000,WAIT_FOR_START,-0.1536,-0.1010,-1.2674,0.2891,1.7453,3.2546,0.0643,0.3364,0.7123,0.0603,0.3186,0.7055,-0.003986,-0.017774,-0.006827
0.0000,WAIT_FOR_START,-0.1536,-0.1010,-1.2674,0.2891,1.7453,3.2546,0.0643,0.3364,0.7123,0.0603,0.3186,0.7055,-0.003986,-0.017775,-0.006827
0.0000,WAIT_FOR_START,-0.1536,-0.1010,-1.2674,0.2891,1.7453,3.2546,0.0643,0.3364,0.7123,0.0603,0.3186,0.7055,-0.003986,-0.017776,-0.006826
0.0000,WAIT_FOR_START,-0.1536,-0.1010,-1.2674,0.2891,1.7453,3.2546,0.0643,0.3364,0.7123,0.0603,0.3186,0.7055,-0.003986,-0.017776,-0.006825
0.0000,WAIT_FOR_START,-0.1536,-0.1010,-1.2674,0.2891,1.7453,3.2546,0.0643,0.3364,0.7123,0.0603,0.3186,0.7055,-0.003986,-0.017777,-0.006824
0.0000,WAIT_FOR_START,-0.1536,-0.1010,-1.2674,0.2891,1.7453,3.2546,0.0643,0.3364,0.7123,0.0603,0.3186,0.7055,-0.003987,-0.017777,-0.006824
0.0000,WAIT_FOR_START,-0.1536,-0.1010,-1.2674,0.2891,1.7453,3.2546,0.0643,0.3364,0.7123,0.0603,0.3186,0.7055,-0.003987,-0.017778,-0.006823
0.0000,WAIT_FOR_START,-0.1536,-0.1010,-1.2674,0.2891,1.7453,3.2546,0.0643,0.3364,0.7123,0.0603,0.3186,0.7055,-0.003987,-0.017778,-0.006822
0.0000,WAIT_FOR_START,-0.1536,-0.1010,-1.2674,0.2891,1.7453,3.2546,0.0643,0.3364,0.7123,0.0603,0.3186,0.7055,-0.003987,-0.017779,-0.006821
0.0000,WAIT_FOR_START,-0.1536,-0.1010,-1.2674,0.2891,1.7453,3.2546,0.0643,0.3364,0.7123,0.0603,0.3186,0.7055,-0.003987,-0.017780,-0.006821
0.0000,WAIT_FOR_START,-0.1536,-0.1010,-1.2674,0.2891,1.7453,3.2546,0.0643,0.3364,0.7123,0.0603,0.3186,0.7055,-0.003987,-0.017780,-0.006820
0.0000,WAIT_FOR_START,-0.1536,-0.1010,-1.2674,0.2891,1.7453,3.2546,0.0643,0.3364,0.7123,0.0603,0.3186,0.7055,-0.003987,-0.017781,-0.006819
0.0000,WAIT_FOR_START,-0.1536,-0.1010,-1.2674,0.2891,1.7453,3.2546,0.0643,0.3364,0.7123,0.0603,0.3186,0.7055,-0.003988,-0.017781,-0.006819
0.0000,WAIT_FOR_START,-0.1536,-0.1010,-1.2674,0.2891,1.7453,3.2546,0.0643,0.3364,0.7123,0.0603,0.3186,0.7055,-0.003988,-0.017782,-0.006818
0.0000,WAIT_FOR_START,-0.1536,-0.1010,-1.2674,0.2891,1.7453,3.2546,0.0643,0.3364,0.7123,0.0603,0.3186,0.7055,-0.003988,-0.017782,-0.006817
0.0020,APPROACH,-0.1536,-0.1010,-1.2674,0.2891,1.7453,3.2546,0.0643,0.3364,0.7123,0.0603,0.3186,0.7055,-0.003988,-0.017783,-0.006816
0.0249,APPROACH,-0.1536,-0.1010,-1.2674,0.2891,1.7453,3.2546,0.0643,0.3364,0.7123,0.0603,0.3186,0.7055,-0.003985,-0.017785,-0.006831
0.0467,APPROACH,-0.1536,-0.1010,-1.2674,0.2891,1.7453,3.2546,0.0643,0.3364,0.7123,0.0603,0.3186,0.7054,-0.003978,-0.017790,-0.006871
0.0696,APPROACH,-0.1536,-0.1010,-1.2675,0.2891,1.7453,3.2546,0.0643,0.3364,0.7123,0.0603,0.3186,0.7054,-0.003966,-0.017799,-0.006937
0.0922,APPROACH,-0.1536,-0.1010,-1.2676,0.2891,1.7453,3.2547,0.0643,0.3364,0.7123,0.0603,0.3186,0.7052,-0.003950,-0.017810,-0.007024
0.1130,APPROACH,-0.1536,-0.1010,-1.2678,0.2891,1.7453,3.2547,0.0643,0.3364,0.7122,0.0604,0.3186,0.7051,-0.003933,-0.017824,-0.007117
0.1344,APPROACH,-0.1537,-0.1009,-1.2680,0.2891,1.7453,3.2548,0.0643,0.3364,0.7122,0.0604,0.3186,0.7049,-0.003913,-0.017841,-0.007229
0.1551,APPROACH,-0.1537,-0.1009,-1.2683,0.2892,1.7453,3.2549,0.0643,0.3364,0.7121,0.0604,0.3186,0.7048,-0.003892,-0.017861,-0.007349
0.1761,APPROACH,-0.1537,-0.1008,-1.2687,0.2892,1.7453,3.2550,0.0643,0.3364,0.7120,0.0605,0.3185,0.7045,-0.003870,-0.017883,-0.007480
0.1989,APPROACH,-0.1538,-0.1007,-1.2691,0.2893,1.7453,3.2552,0.0644,0.3364,0.7119,0.0605,0.3185,0.7043,-0.003843,-0.017910,-0.007638
0.2216,APPROACH,-0.1539,-0.1006,-1.2696,0.2894,1.7453,3.2554,0.0644,0.3364,0.7118,0.0606,0.3185,0.7040,-0.003814,-0.017940,-0.007811
0.2435,APPROACH,-0.1540,-0.1004,-1.2703,0.2895,1.7453,3.2556,0.0644,0.3364,0.7116,0.0606,0.3185,0.7037,-0.003785,-0.017973,-0.007983
0.2651,APPROACH,-0.1541,-0.1003,-1.2710,0.2896,1.7453,3.2559,0.0645,0.3364,0.7115,0.0607,0.3184,0.7033,-0.003759,-0.018007,-0.008149
0.2878,APPROACH,-0.1542,-0.1001,-1.2718,0.2897,1.7453,3.2562,0.0645,0.3364,0.7113,0.0608,0.3184,0.7029,-0.003727,-0.018046,-0.008344
0.3101,APPROACH,-0.1543,-0.0999,-1.2728,0.2899,1.7453,3.2565,0.0646,0.3364,0.7110,0.0609,0.3184,0.7025,-0.003697,-0.018088,-0.008537
0.3330,APPROACH,-0.1544,-0.0996,-1.2738,0.2900,1.7453,3.2569,0.0646,0.3364,0.7108,0.0609,0.3183,0.7020,-0.003664,-0.018133,-0.008746
0.3556,APPROACH,-0.1546,-0.0993,-1.2750,0.2902,1.7453,3.2574,0.0647,0.3364,0.7105,0.0610,0.3183,0.7016,-0.003631,-0.018182,-0.008957
0.3780,APPROACH,-0.1548,-0.0990,-1.2763,0.2905,1.7453,3.2578,0.0647,0.3365,0.7102,0.0611,0.3182,0.7010,-0.003601,-0.018232,-0.009161
0.4010,APPROACH,-0.1549,-0.0987,-1.2777,0.2907,1.7453,3.2584,0.0648,0.3365,0.7099,0.0612,0.3182,0.7005,-0.003569,-0.018285,-0.009378
0.4235,APPROACH,-0.1551,-0.0984,-1.2793,0.2910,1.7453,3.2590,0.0649,0.3365,0.7095,0.0614,0.3181,0.6999,-0.003537,-0.018342,-0.009597
0.4460,APPROACH,-0.1554,-0.0980,-1.2809,0.2913,1.7453,3.2596,0.0650,0.3365,0.7091,0.0615,0.3181,0.6993,-0.003508,-0.018400,-0.009806
0.4682,APPROACH,-0.1556,-0.0976,-1.2827,0.2917,1.7453,3.2602,0.0651,0.3365,0.7087,0.0616,0.3180,0.6987,-0.003479,-0.018460,-0.010018
0.4891,APPROACH,-0.1558,-0.0972,-1.2846,0.2921,1.7453,3.2610,0.0652,0.3365,0.7083,0.0617,0.3179,0.6981,-0.003457,-0.018518,-0.010192
0.5102,APPROACH,-0.1561,-0.0967,-1.2865,0.2925,1.7453,3.2617,0.0653,0.3365,0.7078,0.0618,0.3179,0.6974,-0.003436,-0.018579,-0.010371
0.5308,APPROACH,-0.1563,-0.0962,-1.2886,0.2930,1.7453,3.2625,0.0654,0.3365,0.7073,0.0620,0.3178,0.6967,-0.003416,-0.018641,-0.010543
0.5523,APPROACH,-0.1566,-0.0957,-1.2908,0.2934,1.7453,3.2634,0.0655,0.3365,0.7068,0.0621,0.3178,0.6960,-0.003393,-0.018706,-0.010734
0.5732,APPROACH,-0.1569,-0.0952,-1.2931,0.2940,1.7453,3.2643,0.0656,0.3365,0.7062,0.0622,0.3177,0.6953,-0.003374,-0.018771,-0.010906
0.5936,APPROACH,-0.1572,-0.0947,-1.2954,0.2945,1.7453,3.2652,0.0657,0.3365,0.7057,0.0624,0.3176,0.6946,-0.003358,-0.018837,-0.011065
0.6144,APPROACH,-0.1575,-0.0941,-1.2979,0.2951,1.7453,3.2662,0.0659,0.3365,0.7051,0.0625,0.3176,0.6938,-0.003340,-0.018906,-0.011243
0.6357,APPROACH,-0.1578,-0.0935,-1.3005,0.2958,1.7453,3.2672,0.0660,0.3365,0.7044,0.0627,0.3175,0.6930,-0.003320,-0.018977,-0.011425
0.6580,APPROACH,-0.1581,-0.0929,-1.3032,0.2964,1.7453,3.2683,0.0662,0.3365,0.7038,0.0629,0.3174,0.6922,-0.003295,-0.019054,-0.011644
0.6790,APPROACH,-0.1585,-0.0923,-1.3060,0.2972,1.7453,3.2694,0.0663,0.3365,0.7031,0.0630,0.3173,0.6913,-0.003278,-0.019128,-0.011821
0.7002,APPROACH,-0.1588,-0.0917,-1.3089,0.2979,1.7453,3.2706,0.0665,0.3365,0.7024,0.0632,0.3173,0.6904,-0.003261,-0.019205,-0.011999
0.7212,APPROACH,-0.1592,-0.0910,-1.3119,0.2987,1.7453,3.2719,0.0666,0.3365,0.7017,0.0634,0.3172,0.6895,-0.003247,-0.019282,-0.012171
0.7422,APPROACH,-0.1596,-0.0903,-1.3150,0.2996,1.7453,3.2732,0.0668,0.3365,0.7009,0.0635,0.3171,0.6886,-0.003233,-0.019361,-0.012336
0.7636,APPROACH,-0.1600,-0.0896,-1.3182,0.3004,1.7453,3.2745,0.0669,0.3364,0.7002,0.0637,0.3170,0.6876,-0.003219,-0.019442,-0.012513
0.7848,APPROACH,-0.1604,-0.0889,-1.3214,0.3014,1.7453,3.2759,0.0671,0.3364,0.6994,0.0639,0.3169,0.6867,-0.003205,-0.019524,-0.012685
0.8058,APPROACH,-0.1608,-0.0882,-1.3248,0.3023,1.7453,3.2774,0.0673,0.3364,0.6985,0.0641,0.3168,0.6857,-0.003195,-0.019607,-0.012846
0.8273,APPROACH,-0.1612,-0.0874,-1.3283,0.3034,1.7453,3.2789,0.0675,0.3364,0.6977,0.0643,0.3167,0.6846,-0.003181,-0.019693,-0.013023
0.8482,APPROACH,-0.1616,-0.0866,-1.3319,0.3044,1.7453,3.2805,0.0677,0.3364,0.6968,0.0645,0.3166,0.6836,-0.003175,-0.019777,-0.013167
0.8702,APPROACH,-0.1621,-0.0859,-1.3355,0.3055,1.7453,3.2821,0.0679,0.3364,0.6959,0.0647,0.3165,0.6825,-0.003162,-0.019866,-0.013348
0.8916,APPROACH,-0.1625,-0.0851,-1.3393,0.3067,1.7453,3.2838,0.0681,0.3364,0.6949,0.0649,0.3164,0.6814,-0.003148,-0.019958,-0.013535
0.9130,APPROACH,-0.1630,-0.0843,-1.3432,0.3079,1.7453,3.2855,0.0683,0.3364,0.6940,0.0652,0.3163,0.6803,-0.003140,-0.020049,-0.013698
0.9345,APPROACH,-0.1635,-0.0834,-1.3471,0.3092,1.7453,3.2873,0.0685,0.3364,0.6930,0.0654,0.3162,0.6791,-0.003134,-0.020141,-0.013851
0.9565,APPROACH,-0.1640,-0.0826,-1.3512,0.3105,1.7453,3.2892,0.0687,0.3364,0.6920,0.0656,0.3161,0.6779,-0.003123,-0.020236,-0.014034
0.9780,APPROACH,-0.1644,-0.0818,-1.3553,0.3119,1.7453,3.2911,0.0690,0.3363,0.6909,0.0658,0.3160,0.6767,-0.003119,-0.020331,-0.014182
0.9989,APPROACH,-0.1650,-0.0809,-1.3595,0.3133,1.7453,3.2931,0.0692,0.3363,0.6899,0.0661,0.3159,0.6756,-0.003122,-0.020422,-0.014295
1.0200,APPROACH,-0.1655,-0.0801,-1.3638,0.3147,1.7453,3.2952,0.0694,0.3363,0.6888,0.0663,0.3158,0.6743,-0.003122,-0.020517,-0.014428
1.0413,APPROACH,-0.1660,-0.0792,-1.3681,0.3162,1.7453,3.2973,0.0697,0.3363,0.6876,0.0665,0.3157,0.6731,-0.003123,-0.020611,-0.014552
1.0623,APPROACH,-0.1665,-0.0783,-1.3725,0.3178,1.7453,3.2994,0.0699,0.3363,0.6865,0.0668,0.3156,0.6719,-0.003128,-0.020706,-0.014663
1.0834,APPROACH,-0.1671,-0.0775,-1.3770,0.3194,1.7453,3.3016,0.0702,0.3363,0.6854,0.0670,0.3155,0.6706,-0.003132,-0.020801,-0.014778
1.1047,APPROACH,-0.1676,-0.0766,-1.3815,0.3211,1.7453,3.3039,0.0704,0.3362,0.6842,0.0673,0.3153,0.6693,-0.003136,-0.020898,-0.014899
1.1256,APPROACH,-0.1682,-0.0757,-1.3861,0.3229,1.7453,3.3062,0.0707,0.3362,0.6830,0.0675,0.3152,0.6680,-0.003144,-0.020994,-0.014997
1.1465,APPROACH,-0.1687,-0.0749,-1.3907,0.3246,1.7453,3.3086,0.0709,0.3362,0.6818,0.0678,0.3151,0.6667,-0.003154,-0.021089,-0.015088
1.1676,APPROACH,-0.1693,-0.0740,-1.3955,0.3265,1.7453,3.3111,0.0712,0.3362,0.6805,0.0680,0.3150,0.6653,-0.003161,-0.021187,-0.015193
1.1887,APPROACH,-0.1699,-0.0731,-1.4002,0.3284,1.7453,3.3136,0.0715,0.3361,0.6793,0.0683,0.3149,0.6640,-0.003170,-0.021285,-0.015296
1.2099,APPROACH,-0.1704,-0.0723,-1.4050,0.3303,1.7453,3.3162,0.0718,0.3361,0.6780,0.0686,0.3147,0.6626,-0.003180,-0.021384,-0.015392
1.2309,APPROACH,-0.1710,-0.0714,-1.4099,0.3323,1.7453,3.3189,0.0720,0.3361,0.6767,0.0688,0.3146,0.6612,-0.003193,-0.021481,-0.015475
1.2520,APPROACH,-0.1716,-0.0705,-1.4148,0.3344,1.7453,3.3216,0.0723,0.3361,0.6754,0.0691,0.3145,0.6598,-0.003206,-0.021580,-0.015557
1.2732,APPROACH,-0.1722,-0.0697,-1.4198,0.3365,1.7453,3.3244,0.0726,0.3360,0.6740,0.0694,0.3144,0.6584,-0.003218,-0.021679,-0.015649
1.2946,APPROACH,-0.1728,-0.0688,-1.4248,0.3387,1.7453,3.3272,0.0729,0.3360,0.6727,0.0697,0.3142,0.6569,-0.003229,-0.021781,-0.015747
1.3159,APPROACH,-0.1734,-0.0680,-1.4299,0.3410,1.7453,3.3301,0.0732,0.3360,0.6713,0.0700,0.3141,0.6555,-0.003246,-0.021880,-0.015817
1.3373,APPROACH,-0.1740,-0.0672,-1.4350,0.3433,1.7453,3.3331,0.0735,0.3359,0.6699,0.0702,0.3140,0.6539,-0.003258,-0.021982,-0.015914
1.3586,APPROACH,-0.1747,-0.0664,-1.4402,0.3456,1.7453,3.3361,0.0738,0.3359,0.6684,0.0705,0.3138,0.6525,-0.003277,-0.022082,-0.015975
1.3797,APPROACH,-0.1753,-0.0656,-1.4454,0.3481,1.7453,3.3393,0.0741,0.3359,0.6670,0.0708,0.3137,0.6510,-0.003298,-0.022180,-0.016027
1.4011,APPROACH,-0.1759,-0.0648,-1.4506,0.3505,1.7453,3.3425,0.0744,0.3358,0.6655,0.0711,0.3135,0.6494,-0.003317,-0.022281,-0.016094
1.4224,APPROACH,-0.1766,-0.0640,-1.4559,0.3531,1.7453,3.3457,0.0747,0.3358,0.6641,0.0714,0.3134,0.6479,-0.003333,-0.022384,-0.016176
1.4438,APPROACH,-0.1772,-0.0632,-1.4612,0.3557,1.7453,3.3490,0.0751,0.3357,0.6626,0.0717,0.3133,0.6463,-0.003355,-0.022484,-0.016227
1.4649,APPROACH,-0.1779,-0.0624,-1.4666,0.3584,1.7453,3.3524,0.0754,0.3357,0.6610,0.0720,0.3131,0.6448,-0.003382,-0.022582,-0.016254
1.4862,APPROACH,-0.1785,-0.0617,-1.4720,0.3611,1.7453,3.3559,0.0757,0.3357,0.6595,0.0723,0.3130,0.6432,-0.003406,-0.022682,-0.016302
1.5075,APPROACH,-0.1792,-0.0610,-1.4774,0.3640,1.7453,3.3595,0.0761,0.3356,0.6580,0.0726,0.3128,0.6416,-0.003431,-0.022781,-0.016342
1.5288,APPROACH,-0.1798,-0.0602,-1.4828,0.3668,1.7453,3.3631,0.0764,0.3356,0.6564,0.0729,0.3127,0.6400,-0.003460,-0.022878,-0.016364
1.5500,APPROACH,-0.1805,-0.0595,-1.4882,0.3698,1.7453,3.3668,0.0767,0.3355,0.6548,0.0732,0.3125,0.6384,-0.003489,-0.022976,-0.016388
1.5716,APPROACH,-0.1811,-0.0589,-1.4937,0.3728,1.7453,3.3705,0.0771,0.3355,0.6532,0.0736,0.3124,0.6368,-0.003514,-0.023076,-0.016431
1.5930,APPROACH,-0.1818,-0.0582,-1.4992,0.3759,1.7453,3.3744,0.0774,0.3354,0.6516,0.0739,0.3122,0.6352,-0.003547,-0.023172,-0.016436
1.6138,APPROACH,-0.1825,-0.0576,-1.5047,0.3790,1.7453,3.3783,0.0778,0.3354,0.6500,0.0742,0.3121,0.6336,-0.003585,-0.023264,-0.016413
1.6352,APPROACH,-0.1831,-0.0569,-1.5102,0.3823,1.7453,3.3823,0.0781,0.3353,0.6483,0.0745,0.3120,0.6319,-0.003615,-0.023361,-0.016434
1.6563,APPROACH,-0.1838,-0.0564,-1.5157,0.3856,1.7453,3.3863,0.0785,0.3353,0.6467,0.0748,0.3118,0.6303,-0.003653,-0.023453,-0.016413
1.6780,APPROACH,-0.1845,-0.0558,-1.5212,0.3889,1.7453,3.3905,0.0788,0.3352,0.6450,0.0751,0.3117,0.6286,-0.003683,-0.023549,-0.016434
1.6993,APPROACH,-0.1851,-0.0552,-1.5268,0.3924,1.7453,3.3947,0.0792,0.3351,0.6433,0.0755,0.3115,0.6269,-0.003720,-0.023641,-0.016422
1.7212,APPROACH,-0.1858,-0.0547,-1.5323,0.3959,1.7453,3.3990,0.0795,0.3351,0.6416,0.0758,0.3113,0.6252,-0.003754,-0.023736,-0.016429
1.7424,APPROACH,-0.1865,-0.0542,-1.5379,0.3995,1.7453,3.4033,0.0799,0.3350,0.6399,0.0761,0.3112,0.6235,-0.003792,-0.023827,-0.016412
1.7632,APPROACH,-0.1871,-0.0537,-1.5434,0.4031,1.7453,3.4078,0.0803,0.3350,0.6382,0.0764,0.3110,0.6219,-0.003840,-0.023913,-0.016343
1.7849,APPROACH,-0.1878,-0.0533,-1.5490,0.4069,1.7453,3.4123,0.0806,0.3349,0.6365,0.0768,0.3109,0.6202,-0.003877,-0.024003,-0.016332
1.8057,APPROACH,-0.1885,-0.0528,-1.5545,0.4107,1.7453,3.4169,0.0810,0.3348,0.6348,0.0771,0.3107,0.6185,-0.003923,-0.024088,-0.016271
1.8275,APPROACH,-0.1891,-0.0524,-1.5600,0.4146,1.7453,3.4216,0.0814,0.3348,0.6330,0.0774,0.3106,0.6168,-0.003963,-0.024175,-0.016245
1.8487,APPROACH,-0.1898,-0.0520,-1.5656,0.4186,1.7453,3.4264,0.0818,0.3347,0.6313,0.0778,0.3104,0.6150,-0.004005,-0.024261,-0.016212
1.8704,APPROACH,-0.1904,-0.0517,-1.5711,0.4226,1.7453,3.4312,0.0821,0.3346,0.6295,0.0781,0.3103,0.6133,-0.004047,-0.024347,-0.016177
1.8915,APPROACH,-0.1911,-0.0514,-1.5766,0.4267,1.7453,3.4361,0.0825,0.3345,0.6277,0.0784,0.3101,0.6116,-0.004097,-0.024427,-0.016096
1.9125,APPROACH,-0.1918,-0.0511,-1.5821,0.4309,1.7453,3.4412,0.0829,0.3345,0.6259,0.0788,0.3100,0.6099,-0.004149,-0.024505,-0.016008
1.9340,APPROACH,-0.1924,-0.0508,-1.5876,0.4352,1.7453,3.4462,0.0833,0.3344,0.6241,0.0791,0.3098,0.6082,-0.004195,-0.024585,-0.015954
1.9554,APPROACH,-0.1931,-0.0506,-1.5931,0.4396,1.7453,3.4514,0.0837,0.3343,0.6223,0.0794,0.3096,0.6065,-0.004243,-0.024662,-0.015883
1.9770,APPROACH,-0.1937,-0.0504,-1.5985,0.4441,1.7453,3.4567,0.0840,0.3342,0.6205,0.0798,0.3095,0.6047,-0.004290,-0.024740,-0.015822
1.9990,APPROACH,-0.1944,-0.0502,-1.6040,0.4486,1.7453,3.4620,0.0844,0.3341,0.6187,0.0801,0.3093,0.6030,-0.004336,-0.024818,-0.015768
2.0215,APPROACH,-0.1950,-0.0500,-1.6094,0.4532,1.7453,3.4675,0.0848,0.3341,0.6169,0.0805,0.3092,0.6011,-0.004372,-0.024899,-0.015763
2.0425,APPROACH,-0.1956,-0.0499,-1.6148,0.4579,1.7453,3.4730,0.0852,0.3340,0.6151,0.0808,0.3090,0.5995,-0.004436,-0.024966,-0.015614
2.0643,APPROACH,-0.1963,-0.0498,-1.6202,0.4627,1.7453,3.4786,0.0856,0.3339,0.6132,0.0811,0.3089,0.5977,-0.004488,-0.025036,-0.015523
2.0868,APPROACH,-0.1969,-0.0498,-1.6256,0.4676,1.7453,3.4844,0.0860,0.3338,0.6114,0.0815,0.3087,0.5959,-0.004527,-0.025113,-0.015503
2.1091,APPROACH,-0.1975,-0.0497,-1.6310,0.4726,1.7453,3.4902,0.0864,0.3337,0.6095,0.0818,0.3085,0.5941,-0.004573,-0.025185,-0.015448
2.1313,APPROACH,-0.1982,-0.0497,-1.6364,0.4777,1.7453,3.4961,0.0868,0.3336,0.6077,0.0822,0.3084,0.5923,-0.004626,-0.025253,-0.015352
2.1537,APPROACH,-0.1988,-0.0498,-1.6417,0.4828,1.7453,3.5021,0.0872,0.3335,0.6058,0.0825,0.3082,0.5905,-0.004677,-0.025320,-0.015269
2.1767,APPROACH,-0.1994,-0.0499,-1.6470,0.4881,1.7453,3.5082,0.0876,0.3334,0.6039,0.0829,0.3080,0.5887,-0.004725,-0.025388,-0.015206
2.1988,APPROACH,-0.2000,-0.0500,-1.6524,0.4934,1.7453,3.5144,0.0880,0.3333,0.6020,0.0832,0.3079,0.5869,-0.004777,-0.025453,-0.015115
2.2201,APPROACH,-0.2006,-0.0501,-1.6576,0.4989,1.7453,3.5207,0.0884,0.3332,0.6001,0.0835,0.3077,0.5852,-0.004847,-0.025506,-0.014929
2.2414,APPROACH,-0.2012,-0.0502,-1.6628,0.5044,1.7453,3.5271,0.0888,0.3331,0.5982,0.0839,0.3076,0.5835,-0.004919,-0.025555,-0.014736
2.2632,APPROACH,-0.2018,-0.0504,-1.6680,0.5101,1.7453,3.5336,0.0892,0.3330,0.5964,0.0842,0.3074,0.5818,-0.004982,-0.025607,-0.014582
2.2849,APPROACH,-0.2024,-0.0507,-1.6731,0.5158,1.7453,3.5401,0.0896,0.3329,0.5945,0.0845,0.3073,0.5801,-0.005050,-0.025653,-0.014403
2.3063,APPROACH,-0.2030,-0.0509,-1.6781,0.5216,1.7453,3.5467,0.0900,0.3328,0.5926,0.0848,0.3071,0.5784,-0.005118,-0.025698,-0.014222
2.3277,APPROACH,-0.2035,-0.0512,-1.6831,0.5276,1.7453,3.5534,0.0904,0.3327,0.5907,0.0852,0.3070,0.5767,-0.005187,-0.025739,-0.014034
2.3487,APPROACH,-0.2041,-0.0515,-1.6881,0.5336,1.7453,3.5602,0.0907,0.3326,0.5889,0.0855,0.3068,0.5751,-0.005261,-0.025774,-0.013812
2.3702,APPROACH,-0.2046,-0.0518,-1.6930,0.5397,1.7453,3.5671,0.0911,0.3325,0.5870,0.0858,0.3067,0.5734,-0.005330,-0.025810,-0.013620
2.3915,APPROACH,-0.2051,-0.0522,-1.6978,0.5459,1.7453,3.5740,0.0915,0.3323,0.5852,0.0861,0.3065,0.5718,-0.005398,-0.025843,-0.013429
2.4129,APPROACH,-0.2056,-0.0526,-1.7026,0.5522,1.7453,3.5810,0.0919,0.3322,0.5834,0.0864,0.3064,0.5701,-0.005465,-0.025875,-0.013239
2.4345,APPROACH,-0.2061,-0.0530,-1.7073,0.5586,1.7453,3.5881,0.0923,0.3321,0.5815,0.0868,0.3062,0.5685,-0.005534,-0.025904,-0.013041
2.4561,APPROACH,-0.2066,-0.0535,-1.7119,0.5651,1.7453,3.5953,0.0927,0.3320,0.5797,0.0871,0.3061,0.5669,-0.005603,-0.025929,-0.012838
2.4774,APPROACH,-0.2071,-0.0539,-1.7165,0.5717,1.7453,3.6026,0.0931,0.3319,0.5779,0.0874,0.3059,0.5652,-0.005672,-0.025953,-0.012635
2.4987,APPROACH,-0.2076,-0.0544,-1.7211,0.5784,1.7453,3.6100,0.0934,0.3317,0.5761,0.0877,0.3058,0.5636,-0.005739,-0.025975,-0.012438
2.5200,APPROACH,-0.2080,-0.0549,-1.7255,0.5851,1.7453,3.6174,0.0938,0.3316,0.5743,0.0880,0.3056,0.5621,-0.005814,-0.025990,-0.012200
2.5411,APPROACH,-0.2085,-0.0555,-1.7300,0.5920,1.7453,3.6250,0.0942,0.3315,0.5725,0.0883,0.3055,0.5605,-0.005882,-0.026007,-0.011995
2.5628,APPROACH,-0.2089,-0.0561,-1.7343,0.5990,1.7453,3.6326,0.0946,0.3314,0.5707,0.0886,0.3053,0.5589,-0.005948,-0.026021,-0.011795
2.5849,APPROACH,-0.2093,-0.0567,-1.7386,0.6060,1.7453,3.6403,0.0949,0.3312,0.5689,0.0889,0.3052,0.5573,-0.006012,-0.026035,-0.011607
2.6071,APPROACH,-0.2097,-0.0573,-1.7429,0.6132,1.7453,3.6481,0.0953,0.3311,0.5671,0.0892,0.3050,0.5557,-0.006074,-0.026048,-0.011426
2.6286,APPROACH,-0.2101,-0.0579,-1.7471,0.6205,1.7453,3.6559,0.0957,0.3310,0.5654,0.0895,0.3049,0.5542,-0.006143,-0.026054,-0.011204
2.6512,APPROACH,-0.2105,-0.0586,-1.7512,0.6278,1.7453,3.6639,0.0960,0.3308,0.5636,0.0898,0.3048,0.5526,-0.006200,-0.026064,-0.011045
2.6730,APPROACH,-0.2109,-0.0593,-1.7553,0.6353,1.7453,3.6720,0.0964,0.3307,0.5619,0.0901,0.3046,0.5510,-0.006271,-0.026066,-0.010812
2.6944,APPROACH,-0.2113,-0.0600,-1.7593,0.6428,1.7453,3.6801,0.0968,0.3306,0.5601,0.0904,0.3045,0.5496,-0.006346,-0.026061,-0.010551
2.7160,APPROACH,-0.2116,-0.0608,-1.7633,0.6504,1.7453,3.6883,0.0971,0.3304,0.5584,0.0907,0.3044,0.5481,-0.006413,-0.026058,-0.010329
2.7380,APPROACH,-0.2120,-0.0615,-1.7672,0.6582,1.7453,3.6966,0.0975,0.3303,0.5567,0.0910,0.3042,0.5466,-0.006484,-0.026051,-0.010086
2.7588,APPROACH,-0.2123,-0.0623,-1.7710,0.6660,1.7453,3.7050,0.0978,0.3301,0.5550,0.0913,0.3041,0.5452,-0.006562,-0.026037,-0.009803
2.7802,APPROACH,-0.2126,-0.0631,-1.7747,0.6739,1.7453,3.7134,0.0982,0.3300,0.5533,0.0915,0.3040,0.5437,-0.006635,-0.026023,-0.009545
2.8020,APPROACH,-0.2129,-0.0639,-1.7784,0.6819,1.7453,3.7219,0.0985,0.3298,0.5516,0.0918,0.3038,0.5423,-0.006703,-0.026008,-0.009305
2.8234,APPROACH,-0.2132,-0.0647,-1.7820,0.6900,1.7453,3.7305,0.0989,0.3297,0.5500,0.0921,0.3037,0.5409,-0.006775,-0.025989,-0.009044
2.8451,APPROACH,-0.2135,-0.0655,-1.7855,0.6982,1.7453,3.7391,0.0992,0.3296,0.5483,0.0924,0.3036,0.5395,-0.006844,-0.025968,-0.008792
2.8664,APPROACH,-0.2138,-0.0663,-1.7890,0.7065,1.7453,3.7478,0.0995,0.3294,0.5467,0.0926,0.3035,0.5382,-0.006917,-0.025942,-0.008520
2.8874,APPROACH,-0.2140,-0.0672,-1.7923,0.7148,1.7453,3.7566,0.0999,0.3293,0.5451,0.0929,0.3033,0.5369,-0.006993,-0.025912,-0.008226
2.9088,APPROACH,-0.2142,-0.0680,-1.7957,0.7232,1.7453,3.7654,0.1002,0.3291,0.5435,0.0931,0.3032,0.5356,-0.007061,-0.025883,-0.007970
2.9309,APPROACH,-0.2145,-0.0689,-1.7989,0.7318,1.7453,3.7743,0.1005,0.3290,0.5420,0.0934,0.3031,0.5342,-0.007126,-0.025854,-0.007726
2.9534,APPROACH,-0.2147,-0.0698,-1.8021,0.7404,1.7453,3.7832,0.1008,0.3288,0.5404,0.0936,0.3030,0.5329,-0.007190,-0.025822,-0.007488
2.9749,APPROACH,-0.2149,-0.0707,-1.8052,0.7490,1.7453,3.7923,0.1011,0.3287,0.5389,0.0939,0.3029,0.5316,-0.007256,-0.025787,-0.007235
2.9966,APPROACH,-0.2151,-0.0716,-1.8082,0.7578,1.7453,3.8013,0.1015,0.3285,0.5373,0.0941,0.3028,0.5304,-0.007324,-0.025748,-0.006962
3.0185,APPROACH,-0.2153,-0.0725,-1.8111,0.7666,1.7453,3.8105,0.1018,0.3283,0.5358,0.0944,0.3026,0.5291,-0.007390,-0.025708,-0.006702
3.0397,APPROACH,-0.2154,-0.0734,-1.8140,0.7755,1.7453,3.8196,0.1021,0.3282,0.5343,0.0946,0.3025,0.5279,-0.007463,-0.025662,-0.006403
3.0614,APPROACH,-0.2156,-0.0743,-1.8168,0.7845,1.7453,3.8289,0.1024,0.3280,0.5329,0.0948,0.3024,0.5267,-0.007529,-0.025617,-0.006135
3.0841,APPROACH,-0.2158,-0.0752,-1.8196,0.7936,1.7453,3.8382,0.1027,0.3279,0.5314,0.0951,0.3023,0.5255,-0.007590,-0.025572,-0.005890
3.1060,APPROACH,-0.2159,-0.0761,-1.8222,0.8027,1.7453,3.8475,0.1029,0.3277,0.5300,0.0953,0.3022,0.5244,-0.007655,-0.025523,-0.005620
3.1279,APPROACH,-0.2160,-0.0771,-1.8248,0.8119,1.7453,3.8569,0.1032,0.3276,0.5286,0.0955,0.3021,0.5233,-0.007721,-0.025470,-0.005340
3.1494,APPROACH,-0.2161,-0.0780,-1.8274,0.8211,1.7453,3.8663,0.1035,0.3274,0.5272,0.0957,0.3020,0.5222,-0.007790,-0.025415,-0.005046
3.1708,APPROACH,-0.2162,-0.0789,-1.8298,0.8304,1.7453,3.8757,0.1038,0.3273,0.5258,0.0959,0.3019,0.5211,-0.007860,-0.025355,-0.004736
3.1925,APPROACH,-0.2163,-0.0798,-1.8322,0.8398,1.7453,3.8852,0.1040,0.3271,0.5245,0.0961,0.3018,0.5200,-0.007924,-0.025297,-0.004456
3.2141,APPROACH,-0.2164,-0.0807,-1.8344,0.8492,1.7453,3.8947,0.1043,0.3270,0.5232,0.0963,0.3017,0.5190,-0.007990,-0.025235,-0.004166
3.2360,APPROACH,-0.2165,-0.0816,-1.8366,0.8587,1.7453,3.9042,0.1046,0.3268,0.5219,0.0965,0.3016,0.5180,-0.008056,-0.025171,-0.003868
3.2570,APPROACH,-0.2165,-0.0825,-1.8388,0.8682,1.7453,3.9137,0.1048,0.3267,0.5206,0.0967,0.3015,0.5171,-0.008124,-0.025104,-0.003558
3.2782,APPROACH,-0.2166,-0.0834,-1.8408,0.8777,1.7453,3.9232,0.1051,0.3265,0.5194,0.0969,0.3015,0.5161,-0.008189,-0.025037,-0.003258
3.3004,APPROACH,-0.2166,-0.0843,-1.8428,0.8873,1.7453,3.9328,0.1053,0.3263,0.5182,0.0971,0.3014,0.5152,-0.008249,-0.024970,-0.002983
3.3218,APPROACH,-0.2166,-0.0851,-1.8447,0.8970,1.7453,3.9423,0.1055,0.3262,0.5170,0.0972,0.3013,0.5143,-0.008312,-0.024899,-0.002687
3.3437,APPROACH,-0.2166,-0.0860,-1.8465,0.9066,1.7453,3.9519,0.1058,0.3260,0.5158,0.0974,0.3012,0.5134,-0.008373,-0.024828,-0.002398
3.3651,APPROACH,-0.2167,-0.0869,-1.8483,0.9163,1.7453,3.9615,0.1060,0.3259,0.5147,0.0976,0.3011,0.5126,-0.008435,-0.024755,-0.002099
3.3868,APPROACH,-0.2166,-0.0877,-1.8500,0.9261,1.7453,3.9711,0.1062,0.3257,0.5135,0.0977,0.3011,0.5117,-0.008497,-0.024680,-0.001799
3.4074,APPROACH,-0.2166,-0.0885,-1.8515,0.9358,1.7453,3.9806,0.1064,0.3256,0.5125,0.0979,0.3010,0.5110,-0.008562,-0.024602,-0.001482
3.4289,APPROACH,-0.2166,-0.0893,-1.8531,0.9455,1.7453,3.9902,0.1066,0.3255,0.5114,0.0980,0.3009,0.5102,-0.008625,-0.024524,-0.001172
3.4503,APPROACH,-0.2166,-0.0901,-1.8545,0.9553,1.7453,3.9997,0.1068,0.3253,0.5104,0.0982,0.3009,0.5095,-0.008681,-0.024447,-0.000892
3.4715,APPROACH,-0.2165,-0.0909,-1.8559,0.9651,1.7453,4.0092,0.1070,0.3252,0.5094,0.0983,0.3008,0.5088,-0.008740,-0.024368,-0.000592
3.4927,APPROACH,-0.2165,-0.0916,-1.8572,0.9749,1.7453,4.0187,0.1072,0.3250,0.5084,0.0984,0.3007,0.5081,-0.008799,-0.024288,-0.000292
3.5143,APPROACH,-0.2164,-0.0923,-1.8584,0.9847,1.7453,4.0281,0.1074,0.3249,0.5074,0.0986,0.3007,0.5074,-0.008855,-0.024208,-0.000005
3.5355,APPROACH,-0.2164,-0.0931,-1.8595,0.9944,1.7453,4.0376,0.1076,0.3247,0.5065,0.0987,0.3006,0.5068,-0.008913,-0.024126,0.000297
3.5572,APPROACH,-0.2163,-0.0938,-1.8606,1.0042,1.7453,4.0470,0.1078,0.3246,0.5056,0.0988,0.3006,0.5062,-0.008967,-0.024046,0.000575
3.5780,APPROACH,-0.2162,-0.0944,-1.8616,1.0139,1.7453,4.0563,0.1079,0.3245,0.5047,0.0989,0.3005,0.5056,-0.009025,-0.023962,0.000884
3.5995,APPROACH,-0.2161,-0.0951,-1.8626,1.0237,1.7453,4.0656,0.1081,0.3243,0.5039,0.0990,0.3005,0.5051,-0.009079,-0.023880,0.001168
3.6211,APPROACH,-0.2160,-0.0957,-1.8634,1.0334,1.7453,4.0749,0.1083,0.3242,0.5031,0.0991,0.3004,0.5046,-0.009133,-0.023798,0.001459
3.6422,APPROACH,-0.2159,-0.0963,-1.8642,1.0431,1.7453,4.0841,0.1084,0.3241,0.5023,0.0992,0.3004,0.5041,-0.009185,-0.023715,0.001743
