thejerrycheng/MEng_project/meng_ws/demonstration_data.csv
time,joint_1,joint_2,joint_3,joint_4,joint_5,joint_6
1.430511474609375e-06,0.46198255634738816,0.03977333247859204,1.9986628973680698,0.6383725705786799,1.5914784603688805,-0.24136627180833226
0.005182027816772461,0.46198255634738816,0.03977333247859204,1.9986628973680698,0.6383725705786799,1.5914784603688805,-0.24136627180833226
0.010091543197631836,0.46198255634738816,0.03977333247859204,1.9986326148183213,0.6383422880289314,1.5914784603688805,-0.24136627180833226
0.01506352424621582,0.46198255634738816,0.03977333247859204,1.9986326148183213,0.6383725705786799,1.5914784603688805,-0.24139655435808074
0.02006387710571289,0.46198255634738816,0.03977333247859204,1.9986326148183213,0.6383422880289314,1.5914784603688805,-0.24139655435808074
0.025194168090820312,0.4619219535830283,0.03977333247859204,1.9986326148183213,0.6383725705786799,1.5915087429186292,-0.24136627180833226
0.0301513671875,0.4619219535830283,0.03977333247859204,1.9986326148183213,0.6383725705786799,1.5915087429186292,-0.24136627180833226
0.03505396842956543,0.46195223613277675,0.03977333247859204,1.9986326148183213,0.6383725705786799,1.5914784603688805,-0.24139655435808074
0.04012942314147949,0.46198255634738816,0.03977333247859204,1.9986023322685729,0.6383422880289314,1.5914784603688805,-0.24139655435808074
0.045281171798706055,0.46198255634738816,0.03974304051262782,1.9986326148183213,0.6383725705786799,1.5914784603688805,-0.24136627180833226
0.05017566680908203,0.46198255634738816,0.03974304051262782,1.9986326148183213,0.6383725705786799,1.5914784603688805,-0.24136627180833226
0.055069923400878906,0.46198255634738816,0.03974304051262782,1.9986326148183213,0.6383725705786799,1.591448177819132,-0.24142685574026068
0.06012606620788574,0.46198255634738816,0.03977333247859204,1.9986326148183213,0.6383422880289314,1.5914784603688805,-0.24139655435808074
0.06512665748596191,0.46198255634738816,0.03977333247859204,1.9986326148183213,0.6383422880289314,1.5914784603688805,-0.24139655435808074
0.07013607025146484,0.46198255634738816,0.03980362444455627,1.9986023322685729,0.6383725705786799,1.591448177819132,-0.24139655435808074
0.07506370544433594,0.46195223613277675,0.03977333247859204,1.9986023322685729,0.6383725705786799,1.5914784603688805,-0.24136627180833226
0.08014631271362305,0.46195223613277675,0.03977333247859204,1.9986023322685729,0.6383725705786799,1.5914784603688805,-0.24136627180833226
0.0851445198059082,0.46198255634738816,0.0397127485466636,1.9986023322685729,0.6383725705786799,1.5914784603688805,-0.24142685574026068
0.09015440940856934,0.46198255634738816,0.03977333247859204,1.9986326148183213,0.6383725705786799,1.5914784603688805,-0.24136627180833226
0.09515738487243652,0.46195223613277675,0.03977333247859204,1.9985720497188242,0.6383422880289314,1.5914784603688805,-0.24139655435808074
0.10011506080627441,0.46195223613277675,0.03977333247859204,1.9985720497188242,0.6383422880289314,1.5914784603688805,-0.24139655435808074
0.10512590408325195,0.46198255634738816,0.03977333247859204,1.9985720497188242,0.6383422880289314,1.5914784603688805,-0.24136627180833226
0.11008024215698242,0.46195223613277675,0.03977333247859204,1.9986326148183213,0.6383725705786799,1.5915087429186292,-0.24136627180833226
0.11506819725036621,0.46198255634738816,0.03977333247859204,1.9986023322685729,0.6383725705786799,1.591448177819132,-0.24133597042615232
0.12008500099182129,0.46198255634738816,0.03977333247859204,1.9986023322685729,0.6383725705786799,1.591448177819132,-0.24133597042615232
0.125138521194458,0.46198255634738816,0.03977333247859204,1.9986326148183213,0.6383725705786799,1.5914784603688805,-0.24136627180833226
0.1301259994506836,0.46198255634738816,0.03974304051262782,1.9986023322685729,0.6383725705786799,1.5914784603688805,-0.24136627180833226
0.13516998291015625,0.46195223613277675,0.03977333247859204,1.9986023322685729,0.6383725705786799,1.5914784603688805,-0.24139655435808074
0.14014363288879395,0.46195223613277675,0.03977333247859204,1.9986023322685729,0.6383725705786799,1.5914784603688805,-0.24139655435808074
0.14513278007507324,0.46198255634738816,0.03977333247859204,1.9986326148183213,0.6383725705786799,1.591448177819132,-0.24136627180833226
0.15012812614440918,0.46195223613277675,0.03968245658069938,1.9986326148183213,0.6383422880289314,1.591448177819132,-0.24136627180833226
0.15504789352416992,0.46195223613277675,0.03968245658069938,1.9986326148183213,0.6383422880289314,1.591448177819132,-0.24136627180833226
0.160125732421875,0.4620128388971367,0.03977333247859204,1.9986326148183213,0.6383422880289314,1.5914784603688805,-0.24136627180833226
0.16513967514038086,0.46198255634738816,0.03974304051262782,1.9986023322685729,0.6383422880289314,1.5914784603688805,-0.24136627180833226
0.17016220092773438,0.46198255634738816,0.03974304051262782,1.9986023322685729,0.6383422880289314,1.5914784603688805,-0.24136627180833226
0.17513155937194824,0.46198255634738816,0.03980362444455627,1.9986023322685729,0.6383725705786799,1.591448177819132,-0.24139655435808074
0.18013787269592285,0.46198255634738816,0.03977333247859204,1.9985720497188242,0.6383422880289314,1.5914784603688805,-0.24136627180833226
0.18512916564941406,0.4620128388971367,0.03977333247859204,1.9986023322685729,0.6383725705786799,1.591448177819132,-0.24139655435808074
0.19015026092529297,0.46198255634738816,0.03974304051262782,1.9986023322685729,0.6383422880289314,1.5914784603688805,-0.24139655435808074
0.19514060020446777,0.46198255634738816,0.03974304051262782,1.9986023322685729,0.6383422880289314,1.5914784603688805,-0.24139655435808074
0.20008349418640137,0.4620128388971367,0.03977333247859204,1.9986023322685729,0.6383422880289314,1.5914784603688805,-0.24136627180833226
0.20512866973876953,0.4620128388971367,0.03977333247859204,1.9986023322685729,0.6383725705786799,1.5915087429186292,-0.24136627180833226
0.21007943153381348,0.46198255634738816,0.03977333247859204,1.9986023322685729,0.6383725705786799,1.5914784603688805,-0.24139655435808074
0.2152109146118164,0.46195223613277675,0.03977333247859204,1.9986023322685729,0.638312005479183,1.591448177819132,-0.24136627180833226
0.22008228302001953,0.46195223613277675,0.03977333247859204,1.9986023322685729,0.638312005479183,1.591448177819132,-0.24136627180833226
0.22513103485107422,0.46198255634738816,0.03977333247859204,1.9986023322685729,0.6383422880289314,1.5914784603688805,-0.24139655435808074
0.23014092445373535,0.46198255634738816,0.03977333247859204,1.9986023322685729,0.6383725705786799,1.591448177819132,-0.24142685574026068
0.23506402969360352,0.46198255634738816,0.03974304051262782,1.9985720497188242,0.6384028531284285,1.5914784603688805,-0.24136627180833226
0.24013566970825195,0.46198255634738816,0.03977333247859204,1.9985720497188242,0.6383725705786799,1.5915087429186292,-0.24133597042615232
0.24514245986938477,0.46198255634738816,0.03977333247859204,1.9986023322685729,0.6383725705786799,1.5915087429186292,-0.24136627180833226
0.2500793933868408,0.46198255634738816,0.03977333247859204,1.9986023322685729,0.6383725705786799,1.5915087429186292,-0.24136627180833226
0.255063533782959,0.46198255634738816,0.03977333247859204,1.9985114846193273,0.6383422880289314,1.5914178952693836,-0.24139655435808074
0.26012182235717773,0.46195223613277675,0.03977333247859204,1.9985417671690757,0.6383725705786799,1.5914784603688805,-0.24139655435808074
0.26516008377075195,0.46198255634738816,0.03977333247859204,1.9985720497188242,0.6383422880289314,1.5915087429186292,-0.24136627180833226
0.27013206481933594,0.46198255634738816,0.03977333247859204,1.9985720497188242,0.6383422880289314,1.5915087429186292,-0.24136627180833226
0.2751476764678955,0.4620128388971367,0.03977333247859204,1.9985720497188242,0.6383725705786799,1.591448177819132,-0.24136627180833226
0.28012967109680176,0.46198255634738816,0.03977333247859204,1.9985417671690757,0.6383725705786799,1.5915087429186292,-0.24133597042615232
0.2851245403289795,0.46195223613277675,0.03974304051262782,1.9985720497188242,0.6383422880289314,1.5914784603688805,-0.24139655435808074
0.29019904136657715,0.46198255634738816,0.03977333247859204,1.9985417671690757,0.6383422880289314,1.591448177819132,-0.24136627180833226
0.295062780380249,0.46198255634738816,0.03977333247859204,1.9985417671690757,0.6383422880289314,1.591448177819132,-0.24136627180833226
0.30013442039489746,0.46195223613277675,0.03980362444455627,1.9985720497188242,0.6383725705786799,1.5914784603688805,-0.24139655435808074
0.3051297664642334,0.46198255634738816,0.03977333247859204,1.9985417671690757,0.6383422880289314,1.5914784603688805,-0.24136627180833226
0.3100612163543701,0.46198255634738816,0.03977333247859204,1.9985114846193273,0.6383725705786799,1.591448177819132,-0.24139655435808074
0.31505680084228516,0.46198255634738816,0.03977333247859204,1.9985114846193273,0.6383725705786799,1.591448177819132,-0.24139655435808074
0.3201296329498291,0.46198255634738816,0.03977333247859204,1.9985417671690757,0.6383422880289314,1.591448177819132,-0.24139655435808074
0.32512688636779785,0.46198255634738816,0.03977333247859204,1.9985720497188242,0.6383422880289314,1.591448177819132,-0.24139655435808074
0.3301217555999756,0.46198255634738816,0.03980362444455627,1.9985720497188242,0.6383725705786799,1.591448177819132,-0.24136627180833226
0.33506274223327637,0.46198255634738816,0.03980362444455627,1.9985720497188242,0.6383725705786799,1.591448177819132,-0.24136627180833226
0.3401365280151367,0.46198255634738816,0.03974304051262782,1.9985417671690757,0.6383422880289314,1.5915087429186292,-0.24139655435808074
0.3451273441314697,0.46198255634738816,0.03974304051262782,1.9985417671690757,0.6383422880289314,1.5914784603688805,-0.24133597042615232
0.35013675689697266,0.46198255634738816,0.03977333247859204,1.9985417671690757,0.6383422880289314,1.5914784603688805,-0.24142685574026068
0.35506343841552734,0.46198255634738816,0.03977333247859204,1.9985417671690757,0.6383422880289314,1.5914784603688805,-0.24142685574026068
0.36012911796569824,0.46195223613277675,0.03977333247859204,1.9985417671690757,0.6383422880289314,1.5914784603688805,-0.24133597042615232
0.3651278018951416,0.46198255634738816,0.03977333247859204,1.9985114846193273,0.6383422880289314,1.591448177819132,-0.24139655435808074
0.37012791633605957,0.46198255634738816,0.03977333247859204,1.9985114846193273,0.6383725705786799,1.5915087429186292,-0.24136627180833226
0.3751356601715088,0.46198255634738816,0.03974304051262782,1.9985114846193273,0.6383422880289314,1.5914784603688805,-0.24136627180833226
0.38014769554138184,0.46198255634738816,0.03977333247859204,1.9985417671690757,0.6383725705786799,1.591448177819132,-0.24139655435808074
0.38512563705444336,0.46198255634738816,0.03977333247859204,1.9985417671690757,0.6383725705786799,1.591448177819132,-0.24139655435808074
0.39012622833251953,0.46198255634738816,0.03977333247859204,1.9985720497188242,0.6383422880289314,1.591448177819132,-0.24142685574026068
0.3951547145843506,0.46198255634738816,0.03974304051262782,1.9985417671690757,0.6383422880289314,1.591448177819132,-0.24136627180833226
0.4000844955444336,0.46198255634738816,0.03977333247859204,1.9985114846193273,0.6383422880289314,1.591448177819132,-0.24139655435808074
0.40514087677001953,0.46198255634738816,0.03977333247859204,1.9985114846193273,0.6383725705786799,1.5914784603688805,-0.24133597042615232
0.4100620746612549,0.46198255634738816,0.03977333247859204,1.9985114846193273,0.6383725705786799,1.5914784603688805,-0.24133597042615232
0.41515254974365234,0.46198255634738816,0.03974304051262782,1.9985114846193273,0.6383422880289314,1.5914784603688805,-0.24136627180833226
0.42013025283813477,0.46198255634738816,0.03974304051262782,1.9985114846193273,0.638312005479183,1.5914784603688805,-0.24139655435808074
0.4251279830932617,0.4620128388971367,0.03977333247859204,1.9985114846193273,0.6383422880289314,1.5914784603688805,-0.24136627180833226
0.43013429641723633,0.46198255634738816,0.03977333247859204,1.9985417671690757,0.6383422880289314,1.5915087429186292,-0.24136627180833226
0.43506360054016113,0.46198255634738816,0.03977333247859204,1.9985417671690757,0.6383422880289314,1.5915087429186292,-0.24136627180833226
0.4401364326477051,0.46198255634738816,0.03977333247859204,1.9985417671690757,0.6383422880289314,1.591448177819132,-0.24136627180833226
0.44514036178588867,0.46198255634738816,0.03977333247859204,1.9985114846193273,0.6383725705786799,1.5914784603688805,-0.24136627180833226
0.45012950897216797,0.46195223613277675,0.03977333247859204,1.9985417671690757,0.6383422880289314,1.591448177819132,-0.24136627180833226
0.4550628662109375,0.46195223613277675,0.03977333247859204,1.9985417671690757,0.6383422880289314,1.591448177819132,-0.24136627180833226
0.4601328372955322,0.46198255634738816,0.03977333247859204,1.9984812020695788,0.6383725705786799,1.5914784603688805,-0.24142685574026068
0.46512556076049805,0.46198255634738816,0.03977333247859204,1.9985114846193273,0.6383422880289314,1.5914784603688805,-0.24139655435808074
0.470142126083374,0.46198255634738816,0.03974304051262782,1.9984812020695788,0.6383725705786799,1.5914784603688805,-0.24133597042615232
0.4751317501068115,0.46198255634738816,0.03974304051262782,1.9984812020695788,0.6383725705786799,1.5914784603688805,-0.24133597042615232
0.48012566566467285,0.46195223613277675,0.03977333247859204,1.9984812020695788,0.6383422880289314,1.5914784603688805,-0.24142685574026068
0.48513293266296387,0.46198255634738816,0.03977333247859204,1.9985114846193273,0.6383725705786799,1.5914784603688805,-0.24139655435808074
0.4901273250579834,0.46198255634738816,0.03977333247859204,1.9985114846193273,0.6383725705786799,1.5914784603688805,-0.24139655435808074
0.4951479434967041,0.46198255634738816,0.03977333247859204,1.9985114846193273,0.6383725705786799,1.5914784603688805,-0.24136627180833226
0.5000624656677246,0.46198255634738816,0.03977333247859204,1.9985417671690757,0.6383725705786799,1.5914784603688805,-0.24136627180833226
0.5051367282867432,0.46195223613277675,0.03974304051262782,1.9984812020695788,0.6383422880289314,1.5914784603688805,-0.24136627180833226
0.5101439952850342,0.46195223613277675,0.03974304051262782,1.9985114846193273,0.6383422880289314,1.591448177819132,-0.24139655435808074
0.5150537490844727,0.46195223613277675,0.03974304051262782,1.9985114846193273,0.6383422880289314,1.591448177819132,-0.24139655435808074
0.520127534866333,0.46195223613277675,0.03977333247859204,1.9985114846193273,0.6383725705786799,1.591448177819132,-0.24139655435808074
0.5251286029815674,0.46195223613277675,0.03974304051262782,1.9984812020695788,0.6383422880289314,1.5914784603688805,-0.24136627180833226
0.530148983001709,0.46198255634738816,0.03977333247859204,1.9985114846193273,0.6383725705786799,1.5914784603688805,-0.24139655435808074
0.5351471900939941,0.46198255634738816,0.03977333247859204,1.9985114846193273,0.6383725705786799,1.5914784603688805,-0.24139655435808074
0.5401318073272705,0.4620128388971367,0.03974304051262782,1.9985114846193273,0.6383725705786799,1.591448177819132,-0.24142685574026068
0.5451264381408691,0.46198255634738816,0.03977333247859204,1.9984812020695788,0.6383422880289314,1.5914784603688805,-0.24139655435808074
0.55013108253479,0.46198255634738816,0.03977333247859204,1.9984812020695788,0.6383725705786799,1.5914784603688805,-0.24136627180833226
0.5551304817199707,0.46198255634738816,0.03977333247859204,1.9984812020695788,0.6383725705786799,1.5914784603688805,-0.24139655435808074
0.5601291656494141,0.46198255634738816,0.03977333247859204,1.9984812020695788,0.6383725705786799,1.5914784603688805,-0.24139655435808074
0.5651278495788574,0.46198255634738816,0.03974304051262782,1.9984509195198303,0.6383422880289314,1.5914784603688805,-0.24136627180833226
0.5701379776000977,0.46198255634738816,0.03974304051262782,1.9984812020695788,0.6383422880289314,1.5914784603688805,-0.24139655435808074
0.575153112411499,0.46198255634738816,0.0397127485466636,1.9984812020695788,0.6383725705786799,1.591448177819132,-0.24139655435808074
0.5801246166229248,0.46198255634738816,0.03977333247859204,1.9984812020695788,0.6383422880289314,1.5914784603688805,-0.24139655435808074
0.5851335525512695,0.46198255634738816,0.03977333247859204,1.9984812020695788,0.6383422880289314,1.5914784603688805,-0.24139655435808074
0.5901303291320801,0.46198255634738816,0.03977333247859204,1.9984812020695788,0.6383422880289314,1.5914784603688805,-0.24139655435808074
0.5951433181762695,0.46195223613277675,0.0397127485466636,1.9984812020695788,0.6383725705786799,1.591448177819132,-0.24136627180833226
0.6001524925231934,0.46198255634738816,0.03977333247859204,1.9984812020695788,0.6384028531284285,1.5914784603688805,-0.24136627180833226
0.6051375865936279,0.46198255634738816,0.03977333247859204,1.9984812020695788,0.6384028531284285,1.5914784603688805,-0.24136627180833226
0.6101369857788086,0.46198255634738816,0.03977333247859204,1.9984509195198303,0.6383725705786799,1.5914784603688805,-0.24142685574026068
0.6151354312896729,0.4620128388971367,0.03977333247859204,1.9984509195198303,0.6383725705786799,1.5915087429186292,-0.24142685574026068
0.6200737953186035,0.46198255634738816,0.03974304051262782,1.9984812020695788,0.6383725705786799,1.5914784603688805,-0.24139655435808074
0.6251282691955566,0.46198255634738816,0.03974304051262782,1.9984812020695788,0.6383725705786799,1.5914784603688805,-0.24139655435808074
0.6301319599151611,0.4620128388971367,0.03974304051262782,1.9984812020695788,0.6383422880289314,1.5914784603688805,-0.24139655435808074
0.6351277828216553,0.46198255634738816,0.03977333247859204,1.9984812020695788,0.6383422880289314,1.5914784603688805,-0.24133597042615232
0.6401300430297852,0.46198255634738816,0.03974304051262782,1.9984812020695788,0.6383422880289314,1.5915087429186292,-0.24139655435808074
0.6451380252838135,0.4620128388971367,0.03974304051262782,1.9984812020695788,0.6383422880289314,1.5914784603688805,-0.24139655435808074
0.6501379013061523,0.4620128388971367,0.03974304051262782,1.9984812020695788,0.6383422880289314,1.5914784603688805,-0.24139655435808074
0.6550650596618652,0.46198255634738816,0.03974304051262782,1.9984812020695788,0.6383422880289314,1.5914784603688805,-0.24136627180833226
0.6601395606994629,0.46198255634738816,0.03974304051262782,1.9984812020695788,0.6383725705786799,1.5915087429186292,-0.24136627180833226
0.6651322841644287,0.46198255634738816,0.03977333247859204,1.9984509195198303,0.6383725705786799,1.5914784603688805,-0.24139655435808074
0.6701264381408691,0.46198255634738816,0.03977333247859204,1.9984509195198303,0.6383725705786799,1.5914784603688805,-0.24139655435808074
0.6750645637512207,0.46198255634738816,0.03977333247859204,1.9984509195198303,0.6383725705786799,1.5914784603688805,-0.24136627180833226
0.6801235675811768,0.4620128388971367,0.03974304051262782,1.9984812020695788,0.6383725705786799,1.5914784603688805,-0.24133597042615232
0.6851282119750977,0.46198255634738816,0.0397127485466636,1.9984812020695788,0.6383725705786799,1.5914784603688805,-0.24136627180833226
0.6901280879974365,0.46198255634738816,0.0397127485466636,1.9984812020695788,0.6383725705786799,1.5914784603688805,-0.24136627180833226
0.6951367855072021,0.46198255634738816,0.03977333247859204,1.9984812020695788,0.6383422880289314,1.591448177819132,-0.24136627180833226
0.7001230716705322,0.46198255634738816,0.03974304051262782,1.9984206369700817,0.6383725705786799,1.5914784603688805,-0.24139655435808074
0.7051281929016113,0.46198255634738816,0.03974304051262782,1.9984812020695788,0.6383422880289314,1.5914784603688805,-0.24136627180833226
0.7101366519927979,0.46198255634738816,0.03974304051262782,1.9984812020695788,0.6383422880289314,1.5914784603688805,-0.24136627180833226
0.7151246070861816,0.46198255634738816,0.03977333247859204,1.9984812020695788,0.6383725705786799,1.5914784603688805,-0.24136627180833226
0.7201685905456543,0.46198255634738816,0.03977333247859204,1.9984509195198303,0.6383422880289314,1.5914784603688805,-0.24142685574026068
0.7251317501068115,0.46198255634738816,0.03977333247859204,1.9984509195198303,0.6383422880289314,1.5914784603688805,-0.24142685574026068
0.7301316261291504,0.46198255634738816,0.03974304051262782,1.9984509195198303,0.6383725705786799,1.5914784603688805,-0.24136627180833226
0.7351396083831787,0.4620128388971367,0.03977333247859204,1.9984812020695788,0.6383725705786799,1.5914784603688805,-0.24136627180833226
0.7401437759399414,0.4620128388971367,0.03977333247859204,1.9984509195198303,0.6383422880289314,1.5914784603688805,-0.24139655435808074
0.7451260089874268,0.46198255634738816,0.03974304051262782,1.9984812020695788,0.6383422880289314,1.5914784603688805,-0.24136627180833226
0.7501473426818848,0.46198255634738816,0.03974304051262782,1.9984812020695788,0.6383422880289314,1.5914784603688805,-0.24136627180833226
0.7550644874572754,0.4620128388971367,0.03974304051262782,1.9984509195198303,0.6383422880289314,1.5914784603688805,-0.24136627180833226
0.7601220607757568,0.46198255634738816,0.03977333247859204,1.9984509195198303,0.6383422880289314,1.5914784603688805,-0.24136627180833226
0.765127420425415,0.46198255634738816,0.03980362444455627,1.9984509195198303,0.6383725705786799,1.5914784603688805,-0.24139655435808074
0.7701416015625,0.4620128388971367,0.03974304051262782,1.9984509195198303,0.6383422880289314,1.5914784603688805,-0.24133597042615232
0.7751436233520508,0.4620128388971367,0.03974304051262782,1.9984509195198303,0.6383422880289314,1.5914784603688805,-0.24133597042615232
0.7801656723022461,0.46195223613277675,0.03974304051262782,1.9984509195198303,0.6384028531284285,1.591448177819132,-0.24139655435808074
0.7851264476776123,0.46198255634738816,0.03977333247859204,1.9984509195198303,0.6383725705786799,1.5915087429186292,-0.24136627180833226
0.790128231048584,0.46198255634738816,0.03977333247859204,1.9984509195198303,0.6383725705786799,1.591448177819132,-0.24139655435808074
0.7951219081878662,0.46198255634738816,0.03977333247859204,1.9984812020695788,0.6383725705786799,1.5914784603688805,-0.24136627180833226
0.8001294136047363,0.46198255634738816,0.03977333247859204,1.9984812020695788,0.6383725705786799,1.5914784603688805,-0.24136627180833226
0.8051309585571289,0.46198255634738816,0.03974304051262782,1.9984509195198303,0.6383422880289314,1.591448177819132,-0.24139655435808074
0.810133695602417,0.4619219535830283,0.03977333247859204,1.9984509195198303,0.6383725705786799,1.5915087429186292,-0.24136627180833226
0.8150637149810791,0.46198255634738816,0.03977333247859204,1.9984206369700817,0.6383422880289314,1.5915087429186292,-0.24136627180833226
0.8201322555541992,0.46198255634738816,0.03974304051262782,1.9984509195198303,0.6383422880289314,1.5914784603688805,-0.24139655435808074
0.8251264095306396,0.46198255634738816,0.03974304051262782,1.9984509195198303,0.6383422880289314,1.5914784603688805,-0.24139655435808074
0.8300802707672119,0.46198255634738816,0.03977333247859204,1.9984509195198303,0.6383422880289314,1.5915087429186292,-0.24136627180833226
0.8351321220397949,0.46198255634738816,0.03977333247859204,1.9984509195198303,0.6383422880289314,1.5914784603688805,-0.24139655435808074
0.8401303291320801,0.46195223613277675,0.03977333247859204,1.9984509195198303,0.6383725705786799,1.5914784603688805,-0.24133597042615232
0.8451268672943115,0.46198255634738816,0.03977333247859204,1.9984509195198303,0.6383422880289314,1.591448177819132,-0.24136627180833226
0.8501408100128174,0.46198255634738816,0.03977333247859204,1.9984509195198303,0.6383422880289314,1.591448177819132,-0.24136627180833226
0.855064868927002,0.46195223613277675,0.03977333247859204,1.9984509195198303,0.6383422880289314,1.5914784603688805,-0.24136627180833226
0.8601343631744385,0.46198255634738816,0.03974304051262782,1.9984509195198303,0.6383725705786799,1.5915087429186292,-0.24136627180833226
0.8651323318481445,0.46198255634738816,0.03974304051262782,1.9984509195198303,0.6383422880289314,1.5914784603688805,-0.24136627180833226
0.8701331615447998,0.46198255634738816,0.03974304051262782,1.9984509195198303,0.6383422880289314,1.5914784603688805,-0.24136627180833226
0.8751380443572998,0.46198255634738816,0.03977333247859204,1.9984812020695788,0.6383422880289314,1.5914784603688805,-0.24136627180833226
0.8800821304321289,0.46198255634738816,0.03974304051262782,1.9984509195198303,0.6383725705786799,1.5914784603688805,-0.24133597042615232
0.8851296901702881,0.46198255634738816,0.03977333247859204,1.9984509195198303,0.6383725705786799,1.5915087429186292,-0.24136627180833226
0.890131950378418,0.46198255634738816,0.03977333247859204,1.9984509195198303,0.6383725705786799,1.5915087429186292,-0.24136627180833226
0.8951246738433838,0.46198255634738816,0.03977333247859204,1.9984509195198303,0.6383725705786799,1.591448177819132,-0.24133597042615232
0.9001305103302002,0.46198255634738816,0.03974304051262782,1.9984509195198303,0.6383422880289314,1.5914784603688805,-0.24139655435808074
0.9050803184509277,0.46195223613277675,0.03977333247859204,1.9984509195198303,0.6383725705786799,1.591448177819132,-0.24136627180833226
0.9101371765136719,0.46195223613277675,0.03977333247859204,1.9984509195198303,0.6383725705786799,1.591448177819132,-0.24136627180833226
0.9150652885437012,0.46195223613277675,0.03977333247859204,1.9984812020695788,0.6383422880289314,1.5915087429186292,-0.24139655435808074
0.9201240539550781,0.46198255634738816,0.03974304051262782,1.9984509195198303,0.6383422880289314,1.5914784603688805,-0.24139655435808074
0.9251267910003662,0.46198255634738816,0.03977333247859204,1.9984509195198303,0.6383422880289314,1.5914784603688805,-0.24139655435808074
0.9300611019134521,0.46198255634738816,0.03977333247859204,1.9984509195198303,0.6383422880289314,1.5914784603688805,-0.24139655435808074
0.935154914855957,0.46198255634738816,0.03977333247859204,1.9984812020695788,0.6383725705786799,1.5915087429186292,-0.24136627180833226
0.9401297569274902,0.46198255634738816,0.03977333247859204,1.9984509195198303,0.6383725705786799,1.5914784603688805,-0.24136627180833226
0.9451425075531006,0.46195223613277675,0.03977333247859204,1.9984206369700817,0.6383422880289314,1.5914784603688805,-0.24139655435808074
0.9501309394836426,0.46198255634738816,0.03974304051262782,1.9984509195198303,0.6383725705786799,1.5914784603688805,-0.24136627180833226
0.9550676345825195,0.46198255634738816,0.03977333247859204,1.9984509195198303,0.6383725705786799,1.5914784603688805,-0.24136627180833226
0.9601294994354248,0.46198255634738816,0.03977333247859204,1.9984509195198303,0.6383725705786799,1.5914784603688805,-0.24136627180833226
0.9651291370391846,0.46198255634738816,0.03974304051262782,1.9984509195198303,0.6383725705786799,1.5914784603688805,-0.24142685574026068
0.9701321125030518,0.4620128388971367,0.0397127485466636,1.9984509195198303,0.6383725705786799,1.5914784603688805,-0.24136627180833226
0.9751341342926025,0.46195223613277675,0.03974304051262782,1.9984206369700817,0.6383725705786799,1.5914784603688805,-0.24139655435808074
0.9801089763641357,0.46198255634738816,0.03974304051262782,1.9984509195198303,0.6383422880289314,1.5914784603688805,-0.24139655435808074
0.9851274490356445,0.46198255634738816,0.03974304051262782,1.9984509195198303,0.6383422880289314,1.5914784603688805,-0.24139655435808074
0.9901340007781982,0.46195223613277675,0.03974304051262782,1.9984206369700817,0.6383725705786799,1.5914784603688805,-0.24139655435808074
0.9951376914978027,0.46198255634738816,0.03977333247859204,1.9984812020695788,0.6383725705786799,1.5914784603688805,-0.24139655435808074
1.0001261234283447,0.46195223613277675,0.03974304051262782,1.9984206369700817,0.6383422880289314,1.5914784603688805,-0.24139655435808074
1.0051586627960205,0.46195223613277675,0.0397127485466636,1.9984509195198303,0.6383725705786799,1.5914784603688805,-0.24139655435808074
1.0100669860839844,0.46195223613277675,0.0397127485466636,1.9984509195198303,0.6383725705786799,1.5914784603688805,-0.24139655435808074
1.0150697231292725,0.46195223613277675,0.03977333247859204,1.9984509195198303,0.6384028531284285,1.591448177819132,-0.24136627180833226
1.0201587677001953,0.46198255634738816,0.03974304051262782,1.9984206369700817,0.6383725705786799,1.5914784603688805,-0.24142685574026068
1.025144100189209,0.46198255634738816,0.03974304051262782,1.9984206369700817,0.6383725705786799,1.5914784603688805,-0.24142685574026068
1.0301005840301514,0.46198255634738816,0.03974304051262782,1.9984206369700817,0.6383422880289314,1.591448177819132,-0.24136627180833226
1.0350494384765625,0.46198255634738816,0.03977333247859204,1.9984206369700817,0.6383422880289314,1.5914784603688805,-0.24136627180833226
1.0401232242584229,0.4620128388971367,0.03974304051262782,1.9984206369700817,0.6383725705786799,1.5914784603688805,-0.24139655435808074
1.0451273918151855,0.4620128388971367,0.03974304051262782,1.9984206369700817,0.6383725705786799,1.5914784603688805,-0.24139655435808074
1.0501282215118408,0.46198255634738816,0.03974304051262782,1.9984206369700817,0.6383725705786799,1.5914784603688805,-0.24136627180833226
1.0550658702850342,0.46195223613277675,0.03977333247859204,1.9984206369700817,0.6383422880289314,1.5914784603688805,-0.24136627180833226
1.0601341724395752,0.46195223613277675,0.03977333247859204,1.9984206369700817,0.6383422880289314,1.5914784603688805,-0.24136627180833226
1.0651330947875977,0.46198255634738816,0.03974304051262782,1.9984206369700817,0.6383725705786799,1.5915087429186292,-0.24136627180833226
1.0701258182525635,0.4620128388971367,0.03977333247859204,1.9984509195198303,0.6383725705786799,1.5914784603688805,-0.24136627180833226
1.0750706195831299,0.46195223613277675,0.03977333247859204,1.9984206369700817,0.6383422880289314,1.591448177819132,-0.24142685574026068
1.0801303386688232,0.46195223613277675,0.03977333247859204,1.9984206369700817,0.6383422880289314,1.591448177819132,-0.24142685574026068
1.0851337909698486,0.46198255634738816,0.03977333247859204,1.9984206369700817,0.6383725705786799,1.591448177819132,-0.24142685574026068
1.0901331901550293,0.46195223613277675,0.03977333247859204,1.9984206369700817,0.6383725705786799,1.5914784603688805,-0.24136627180833226
1.0951416492462158,0.46195223613277675,0.03977333247859204,1.9984206369700817,0.6383725705786799,1.5914784603688805,-0.24136627180833226
1.1001434326171875,0.4620128388971367,0.03974304051262782,1.9983903544203332,0.6383725705786799,1.5914784603688805,-0.24136627180833226
1.105130672454834,0.46198255634738816,0.0397127485466636,1.9984206369700817,0.6383422880289314,1.5914784603688805,-0.24139655435808074
1.1101336479187012,0.46198255634738816,0.03974304051262782,1.9983903544203332,0.6383725705786799,1.591448177819132,-0.24136627180833226
1.1151671409606934,0.46198255634738816,0.03974304051262782,1.9983903544203332,0.6383725705786799,1.591448177819132,-0.24136627180833226
1.1201515197753906,0.46198255634738816,0.03974304051262782,1.9984206369700817,0.6383725705786799,1.5914784603688805,-0.24139655435808074
1.1251575946807861,0.46198255634738816,0.03974304051262782,1.9984206369700817,0.6383422880289314,1.5915087429186292,-0.24139655435808074
1.1301255226135254,0.46198255634738816,0.03974304051262782,1.9984206369700817,0.6383422880289314,1.5915087429186292,-0.24139655435808074
1.1350650787353516,0.46198255634738816,0.03977333247859204,1.9984206369700817,0.6383422880289314,1.5914784603688805,-0.24142685574026068
1.1401312351226807,0.4620128388971367,0.03974304051262782,1.9984206369700817,0.6383725705786799,1.5914784603688805,-0.24139655435808074
1.1451268196105957,0.46198255634738816,0.03977333247859204,1.9983903544203332,0.6383725705786799,1.5914784603688805,-0.24136627180833226
1.1501262187957764,0.46198255634738816,0.03977333247859204,1.9983903544203332,0.6383725705786799,1.5914784603688805,-0.24136627180833226
1.1551363468170166,0.46198255634738816,0.03974304051262782,1.9984206369700817,0.6383725705786799,1.5914784603688805,-0.24136627180833226
1.1601295471191406,0.46198255634738816,0.03974304051262782,1.9984206369700817,0.6383422880289314,1.5914784603688805,-0.24136627180833226
1.1651549339294434,0.46198255634738816,0.03977333247859204,1.9984206369700817,0.6383422880289314,1.5914784603688805,-0.24136627180833226
1.1701302528381348,0.46198255634738816,0.03977333247859204,1.9984206369700817,0.6383422880289314,1.5914784603688805,-0.24136627180833226
1.17512845993042,0.46198255634738816,0.03974304051262782,1.9984206369700817,0.6383422880289314,1.5914784603688805,-0.24139655435808074
1.1801512241363525,0.46198255634738816,0.03974304051262782,1.9984206369700817,0.6383725705786799,1.5914784603688805,-0.24142685574026068
1.1851344108581543,0.46198255634738816,0.03974304051262782,1.9984206369700817,0.6383725705786799,1.5914784603688805,-0.24142685574026068
1.1901283264160156,0.46198255634738816,0.03977333247859204,1.9984509195198303,0.6383725705786799,1.5914784603688805,-0.24139655435808074
1.1950678825378418,0.46198255634738816,0.03974304051262782,1.9984206369700817,0.6383422880289314,1.5914784603688805,-0.24139655435808074
1.2001380920410156,0.46198255634738816,0.03977333247859204,1.9983903544203332,0.6383422880289314,1.5914784603688805,-0.24136627180833226
1.2051458358764648,0.46198255634738816,0.03977333247859204,1.9983903544203332,0.6383422880289314,1.5914784603688805,-0.24136627180833226
1.2101309299468994,0.46195223613277675,0.03977333247859204,1.9984206369700817,0.6384028531284285,1.5914784603688805,-0.24139655435808074
1.2150659561157227,0.46198255634738816,0.03977333247859204,1.9983903544203332,0.6383422880289314,1.5914784603688805,-0.24139655435808074
1.2201285362243652,0.46195223613277675,0.03977333247859204,1.9983903544203332,0.6383422880289314,1.5915087429186292,-0.24136627180833226
1.2251393795013428,0.46195223613277675,0.03977333247859204,1.9983903544203332,0.6383422880289314,1.5915087429186292,-0.24136627180833226
1.2301385402679443,0.46198255634738816,0.03977333247859204,1.9984206369700817,0.6383725705786799,1.5914784603688805,-0.24139655435808074
1.2350671291351318,0.46198255634738816,0.03977333247859204,1.9983600718705847,0.6383422880289314,1.5914784603688805,-0.24139655435808074
1.240135669708252,0.46198255634738816,0.03977333247859204,1.9983600718705847,0.6383422880289314,1.5914784603688805,-0.24139655435808074
1.2451262474060059,0.46195223613277675,0.0397127485466636,1.9983903544203332,0.6383725705786799,1.5914784603688805,-0.24136627180833226
1.2501280307769775,0.46198255634738816,0.0397127485466636,1.9983600718705847,0.6383422880289314,1.5914784603688805,-0.24136627180833226
1.255066156387329,0.46198255634738816,0.03974304051262782,1.9983903544203332,0.6383422880289314,1.5914784603688805,-0.24136627180833226
1.2601418495178223,0.46198255634738816,0.03974304051262782,1.9983903544203332,0.6383422880289314,1.5914784603688805,-0.24136627180833226
1.2651352882385254,0.46195223613277675,0.03974304051262782,1.9984206369700817,0.6383422880289314,1.5914178952693836,-0.24142685574026068
1.2701516151428223,0.46198255634738816,0.03974304051262782,1.9983903544203332,0.6383422880289314,1.5914784603688805,-0.24139655435808074
1.2750747203826904,0.46198255634738816,0.03974304051262782,1.9983903544203332,0.6383422880289314,1.5914784603688805,-0.24139655435808074
1.2801358699798584,0.46198255634738816,0.03977333247859204,1.9983600718705847,0.6383725705786799,1.591448177819132,-0.24136627180833226
1.2851340770721436,0.46198255634738816,0.0397127485466636,1.9983600718705847,0.6383422880289314,1.5914784603688805,-0.24136627180833226
1.290144443511963,0.46198255634738816,0.03977333247859204,1.9983903544203332,0.6383725705786799,1.591448177819132,-0.24136627180833226
1.2951395511627197,0.46198255634738816,0.03977333247859204,1.9983903544203332,0.6383725705786799,1.591448177819132,-0.24136627180833226
1.300145149230957,0.46198255634738816,0.0397127485466636,1.9983600718705847,0.6383725705786799,1.5914784603688805,-0.24136627180833226
1.3051402568817139,0.46198255634738816,0.03974304051262782,1.9983600718705847,0.6383725705786799,1.591448177819132,-0.24142685574026068
1.3101270198822021,0.46198255634738816,0.03974304051262782,1.9983600718705847,0.6383725705786799,1.591448177819132,-0.24142685574026068
1.315065622329712,0.46198255634738816,0.03980362444455627,1.9983600718705847,0.6383725705786799,1.5914784603688805,-0.24136627180833226
1.3200604915618896,0.46198255634738816,0.03977333247859204,1.9983600718705847,0.6383422880289314,1.5914784603688805,-0.24142685574026068
1.325143814086914,0.46198255634738816,0.03977333247859204,1.9983600718705847,0.6383422880289314,1.5914784603688805,-0.24136627180833226
1.3301360607147217,0.46198255634738816,0.03977333247859204,1.9983600718705847,0.6383422880289314,1.5914784603688805,-0.24136627180833226
1.3351249694824219,0.46198255634738816,0.03974304051262782,1.9983600718705847,0.6383422880289314,1.5914784603688805,-0.24139655435808074
1.3401546478271484,0.46198255634738816,0.0397127485466636,1.9983600718705847,0.6383422880289314,1.5914784603688805,-0.24139655435808074
1.3451259136199951,0.46198255634738816,0.0397127485466636,1.9983600718705847,0.6383422880289314,1.5914784603688805,-0.24139655435808074
1.3501343727111816,0.46198255634738816,0.03977333247859204,1.9983600718705847,0.6383422880289314,1.591448177819132,-0.24142685574026068
1.3551437854766846,0.4620128388971367,0.03977333247859204,1.9983296386613847,0.6383422880289314,1.5915087429186292,-0.24136627180833226
1.3601281642913818,0.4620128388971367,0.03974304051262782,1.9983296386613847,0.6383725705786799,1.5914784603688805,-0.24139655435808074
1.3651368618011475,0.4620128388971367,0.03974304051262782,1.9983296386613847,0.6383725705786799,1.5914784603688805,-0.24139655435808074
1.3701443672180176,0.46198255634738816,0.03974304051262782,1.9983296386613847,0.6383725705786799,1.591448177819132,-0.24136627180833226
1.3750653266906738,0.46198255634738816,0.03977333247859204,1.9983296386613847,0.6383725705786799,1.5914784603688805,-0.24136627180833226
1.3801372051239014,0.46198255634738816,0.03977333247859204,1.9983296386613847,0.6383725705786799,1.5914784603688805,-0.24136627180833226
1.3851304054260254,0.46198255634738816,0.03974304051262782,1.9983600718705847,0.6383725705786799,1.591448177819132,-0.24136627180833226
1.390129804611206,0.46195223613277675,0.03977333247859204,1.9983296386613847,0.6383422880289314,1.5914784603688805,-0.24139655435808074
1.3950586318969727,0.46195223613277675,0.03977333247859204,1.9983296386613847,0.6383422880289314,1.5914784603688805,-0.24139655435808074
1.4001500606536865,0.4620128388971367,0.0397127485466636,1.9983600718705847,0.6383725705786799,1.5914784603688805,-0.24136627180833226
1.4051427841186523,0.46198255634738816,0.03977333247859204,1.9983296386613847,0.6383422880289314,1.5914784603688805,-0.24136627180833226
1.410149097442627,0.46198255634738816,0.03974304051262782,1.9983296386613847,0.6383422880289314,1.5914784603688805,-0.24136627180833226
1.4151334762573242,0.46198255634738816,0.03974304051262782,1.9983296386613847,0.6383422880289314,1.5914784603688805,-0.24136627180833226
1.4201371669769287,0.46195223613277675,0.03974304051262782,1.9983296386613847,0.6383422880289314,1.5914784603688805,-0.24136627180833226
1.4251501560211182,0.46198255634738816,0.03983391641052049,1.9983296386613847,0.6383725705786799,1.5914784603688805,-0.24139655435808074
1.4301414489746094,0.46198255634738816,0.03977333247859204,1.9983296386613847,0.6383725705786799,1.591448177819132,-0.24136627180833226
1.435133695602417,0.46198255634738816,0.03977333247859204,1.9983296386613847,0.6383725705786799,1.591448177819132,-0.24136627180833226
1.440131425857544,0.46198255634738816,0.03974304051262782,1.9983296386613847,0.6383422880289314,1.5914784603688805,-0.24136627180833226
1.445145606994629,0.46198255634738816,0.03977333247859204,1.9983296386613847,0.6383422880289314,1.591448177819132,-0.24133597042615232
1.4501352310180664,0.46198255634738816,0.03977333247859204,1.9983296386613847,0.6383422880289314,1.591448177819132,-0.24133597042615232
1.455047369003296,0.46198255634738816,0.03974304051262782,1.9983296386613847,0.6383725705786799,1.5914784603688805,-0.24139655435808074
1.4601304531097412,0.4620128388971367,0.03974304051262782,1.9983296386613847,0.6383725705786799,1.5915087429186292,-0.24136627180833226
1.4651298522949219,0.46198255634738816,0.03977333247859204,1.9983296386613847,0.6383725705786799,1.5914784603688805,-0.24139655435808074
1.4701275825500488,0.46198255634738816,0.03977333247859204,1.9983296386613847,0.6383725705786799,1.5914784603688805,-0.24139655435808074
1.4751386642456055,0.46195223613277675,0.03977333247859204,1.9983296386613847,0.6383422880289314,1.5914784603688805,-0.24139655435808074
1.4801490306854248,0.46198255634738816,0.03977333247859204,1.9983296386613847,0.6383725705786799,1.591448177819132,-0.24136627180833226
1.4851326942443848,0.46198255634738816,0.03977333247859204,1.9983296386613847,0.6383725705786799,1.591448177819132,-0.24136627180833226
1.4901344776153564,0.46195223613277675,0.03974304051262782,1.9982993561116362,0.6383725705786799,1.5914784603688805,-0.24139655435808074
1.4951262474060059,0.46198255634738816,0.03974304051262782,1.9982993561116362,0.6383422880289314,1.5914784603688805,-0.24136627180833226
1.5001306533813477,0.4620128388971367,0.03977333247859204,1.9982993561116362,0.6383725705786799,1.5914784603688805,-0.24139655435808074
1.5051355361938477,0.4620128388971367,0.03977333247859204,1.9982993561116362,0.6383725705786799,1.5914784603688805,-0.24139655435808074
1.5101425647735596,0.46198255634738816,0.03974304051262782,1.9983296386613847,0.6383422880289314,1.5914784603688805,-0.24139655435808074
1.515071153640747,0.46198255634738816,0.03974304051262782,1.9982993561116362,0.6383422880289314,1.5914784603688805,-0.24142685574026068
1.520132303237915,0.46198255634738816,0.03974304051262782,1.9982993561116362,0.6383422880289314,1.5914784603688805,-0.24142685574026068
1.5251288414001465,0.4620128388971367,0.03977333247859204,1.9983296386613847,0.6383725705786799,1.5914784603688805,-0.24136627180833226
1.5301260948181152,0.46198255634738816,0.03977333247859204,1.9982993561116362,0.6383725705786799,1.591448177819132,-0.24139655435808074
1.535064935684204,0.46198255634738816,0.03977333247859204,1.9982993561116362,0.6383725705786799,1.5914784603688805,-0.24136627180833226
1.540135145187378,0.46198255634738816,0.03977333247859204,1.9982993561116362,0.6383725705786799,1.5914784603688805,-0.24136627180833226
1.5451314449310303,0.46195223613277675,0.03977333247859204,1.9982993561116362,0.6383422880289314,1.5914784603688805,-0.24142685574026068
1.5501556396484375,0.46198255634738816,0.03974304051262782,1.9982690735618878,0.6383725705786799,1.5914784603688805,-0.24136627180833226
1.5550639629364014,0.46198255634738816,0.03974304051262782,1.9982690735618878,0.6383725705786799,1.5914784603688805,-0.24136627180833226
1.5601506233215332,0.46195223613277675,0.03977333247859204,1.9982993561116362,0.6383725705786799,1.5914784603688805,-0.24136627180833226
1.5651373863220215,0.46195223613277675,0.03974304051262782,1.9982993561116362,0.6383422880289314,1.5915087429186292,-0.24139655435808074
1.5701375007629395,0.46198255634738816,0.03974304051262782,1.9982690735618878,0.6383422880289314,1.5914784603688805,-0.24136627180833226
1.5751352310180664,0.46198255634738816,0.03974304051262782,1.9982690735618878,0.6383422880289314,1.5914784603688805,-0.24136627180833226
1.5801293849945068,0.46198255634738816,0.03977333247859204,1.9982690735618878,0.6383725705786799,1.5914784603688805,-0.24142685574026068
1.585150957107544,0.46198255634738816,0.03977333247859204,1.9982993561116362,0.6383422880289314,1.591448177819132,-0.24139655435808074
1.5901260375976562,0.46198255634738816,0.03977333247859204,1.9982993561116362,0.6383422880289314,1.591448177819132,-0.24139655435808074
1.5951414108276367,0.46195223613277675,0.03974304051262782,1.9982993561116362,0.6383422880289314,1.591448177819132,-0.24139655435808074
1.6001372337341309,0.46198255634738816,0.03974304051262782,1.9982993561116362,0.638312005479183,1.5914784603688805,-0.24136627180833226
1.6051387786865234,0.46198255634738816,0.03977333247859204,1.9982690735618878,0.6383422880289314,1.5914784603688805,-0.24136627180833226
1.610140085220337,0.46198255634738816,0.03977333247859204,1.9982690735618878,0.6383422880289314,1.5914784603688805,-0.24136627180833226
1.6151237487792969,0.46195223613277675,0.03977333247859204,1.9982993561116362,0.6383725705786799,1.5914784603688805,-0.24139655435808074
1.620164394378662,0.46198255634738816,0.03980362444455627,1.9982690735618878,0.6383725705786799,1.5914784603688805,-0.24139655435808074
1.6251614093780518,0.46198255634738816,0.03980362444455627,1.9982690735618878,0.6383725705786799,1.5914784603688805,-0.24139655435808074
1.630129098892212,0.46198255634738816,0.03977333247859204,1.9982690735618878,0.6383422880289314,1.5914784603688805,-0.24136627180833226
1.635141134262085,0.46198255634738816,0.03977333247859204,1.9982690735618878,0.6383422880289314,1.5914784603688805,-0.24139655435808074
1.6401264667510986,0.4620128388971367,0.03977333247859204,1.9982993561116362,0.6383725705786799,1.591448177819132,-0.24139655435808074
1.6451454162597656,0.4620128388971367,0.03977333247859204,1.9982993561116362,0.6383725705786799,1.591448177819132,-0.24139655435808074
1.6501269340515137,0.46198255634738816,0.03977333247859204,1.9982993561116362,0.6383725705786799,1.591448177819132,-0.24136627180833226
1.6550652980804443,0.46198255634738816,0.03977333247859204,1.9982690735618878,0.6383422880289314,1.5914784603688805,-0.24136627180833226
1.660130262374878,0.46198255634738816,0.03977333247859204,1.9982690735618878,0.6383422880289314,1.5914784603688805,-0.24136627180833226
1.6651277542114258,0.46198255634738816,0.03974304051262782,1.9982387910121393,0.6383422880289314,1.5914784603688805,-0.24136627180833226
1.670137882232666,0.4620128388971367,0.03974304051262782,1.9982387910121393,0.6383422880289314,1.5914784603688805,-0.24136627180833226
1.67507004737854,0.46198255634738816,0.0397127485466636,1.9982690735618878,0.6383725705786799,1.5914784603688805,-0.24136627180833226
1.6801605224609375,0.46198255634738816,0.0397127485466636,1.9982690735618878,0.6383725705786799,1.5914784603688805,-0.24136627180833226
1.6851327419281006,0.46198255634738816,0.03974304051262782,1.9982690735618878,0.6383725705786799,1.591448177819132,-0.24136627180833226
1.6901295185089111,0.46198255634738816,0.03977333247859204,1.9982387910121393,0.6383725705786799,1.5914784603688805,-0.24136627180833226
1.6951346397399902,0.46198255634738816,0.03977333247859204,1.9982387910121393,0.6383725705786799,1.5914784603688805,-0.24136627180833226
1.700129747390747,0.46198255634738816,0.03974304051262782,1.9982387910121393,0.6383422880289314,1.5915087429186292,-0.24139655435808074
1.7051284313201904,0.46198255634738816,0.03977333247859204,1.9982690735618878,0.6383725705786799,1.5914784603688805,-0.24139655435808074
1.7101328372955322,0.46198255634738816,0.03977333247859204,1.9982387910121393,0.6383422880289314,1.5914784603688805,-0.24139655435808074
1.7151422500610352,0.46198255634738816,0.03977333247859204,1.9982387910121393,0.6383422880289314,1.5914784603688805,-0.24139655435808074
1.720127820968628,0.46198255634738816,0.0397127485466636,1.9982690735618878,0.6383725705786799,1.5914784603688805,-0.24139655435808074
1.7251298427581787,0.46195223613277675,0.03977333247859204,1.9982387910121393,0.6383725705786799,1.5915087429186292,-0.24136627180833226
1.7301268577575684,0.46195223613277675,0.03977333247859204,1.9982387910121393,0.6383725705786799,1.5915087429186292,-0.24136627180833226
1.73506498336792,0.46198255634738816,0.03977333247859204,1.9982387910121393,0.6383725705786799,1.5914784603688805,-0.24139655435808074
1.7401325702667236,0.46198255634738816,0.03977333247859204,1.9982387910121393,0.6383725705786799,1.5914784603688805,-0.24139655435808074
1.7451391220092773,0.46198255634738816,0.03974304051262782,1.9982387910121393,0.6383422880289314,1.5914784603688805,-0.24139655435808074
1.7501230239868164,0.46198255634738816,0.03974304051262782,1.9982387910121393,0.6383422880289314,1.5914784603688805,-0.24139655435808074
1.7551660537719727,0.46195223613277675,0.03977333247859204,1.9982387910121393,0.6383422880289314,1.5914784603688805,-0.24139655435808074
1.7601304054260254,0.4620128388971367,0.03974304051262782,1.9982085084623906,0.6383725705786799,1.591448177819132,-0.24136627180833226
1.7651395797729492,0.4620128388971367,0.03974304051262782,1.9982085084623906,0.6383725705786799,1.591448177819132,-0.24136627180833226
1.7701377868652344,0.46195223613277675,0.0397127485466636,1.9982387910121393,0.6383725705786799,1.591448177819132,-0.24139655435808074
1.7751312255859375,0.46198255634738816,0.03977333247859204,1.9982085084623906,0.6383725705786799,1.591448177819132,-0.24139655435808074
1.7801568508148193,0.46198255634738816,0.03977333247859204,1.9982085084623906,0.6383725705786799,1.5914784603688805,-0.24136627180833226
1.7851283550262451,0.46198255634738816,0.03977333247859204,1.9982085084623906,0.6383725705786799,1.5914784603688805,-0.24136627180833226
1.7901487350463867,0.46198255634738816,0.03980362444455627,1.9982387910121393,0.6383725705786799,1.591448177819132,-0.24136627180833226
1.795133352279663,0.46198255634738816,0.03974304051262782,1.9982085084623906,0.6383725705786799,1.5914784603688805,-0.24139655435808074
1.800133466720581,0.46198255634738816,0.03974304051262782,1.9982085084623906,0.6383725705786799,1.5914784603688805,-0.24139655435808074
1.805126667022705,0.46198255634738816,0.03977333247859204,1.9982085084623906,0.6383725705786799,1.5914784603688805,-0.24136627180833226
1.8101325035095215,0.46195223613277675,0.03977333247859204,1.9982085084623906,0.6383422880289314,1.5914784603688805,-0.24142685574026068
1.8150639533996582,0.46198255634738816,0.03974304051262782,1.9982085084623906,0.6383725705786799,1.5914784603688805,-0.24136627180833226
1.8201417922973633,0.46198255634738816,0.03974304051262782,1.9982085084623906,0.6383725705786799,1.5914784603688805,-0.24136627180833226
1.8251371383666992,0.46198255634738816,0.03977333247859204,1.9982387910121393,0.6383725705786799,1.5914784603688805,-0.24136627180833226
1.8301467895507812,0.46198255634738816,0.0397127485466636,1.9982085084623906,0.6383725705786799,1.5914784603688805,-0.24136627180833226
1.8351318836212158,0.46198255634738816,0.03977333247859204,1.9982085084623906,0.6383725705786799,1.5914784603688805,-0.24136627180833226
1.8401296138763428,0.46198255634738816,0.03977333247859204,1.9982085084623906,0.6383725705786799,1.5914784603688805,-0.24136627180833226
1.8451471328735352,0.46198255634738816,0.03974304051262782,1.9982085084623906,0.6383422880289314,1.5914784603688805,-0.24142685574026068
1.8501513004302979,0.4620128388971367,0.0397127485466636,1.9982085084623906,0.6383725705786799,1.591448177819132,-0.24136627180833226
1.855065107345581,0.4620128388971367,0.0397127485466636,1.9982085084623906,0.6383725705786799,1.591448177819132,-0.24136627180833226
1.8601405620574951,0.46198255634738816,0.03977333247859204,1.9982085084623906,0.6383725705786799,1.5914784603688805,-0.24139655435808074
1.8651280403137207,0.46198255634738816,0.03977333247859204,1.9982085084623906,0.6383725705786799,1.591448177819132,-0.24139655435808074
1.8701508045196533,0.46195223613277675,0.03977333247859204,1.9981782259126422,0.6383725705786799,1.5914784603688805,-0.24136627180833226
1.8751466274261475,0.46195223613277675,0.03977333247859204,1.9981782259126422,0.6383725705786799,1.5914784603688805,-0.24136627180833226
1.880169153213501,0.4620128388971367,0.03974304051262782,1.9982085084623906,0.6383725705786799,1.5914784603688805,-0.24136627180833226
1.8851478099822998,0.46198255634738816,0.03974304051262782,1.9982085084623906,0.6383725705786799,1.5914784603688805,-0.24142685574026068
1.890152931213379,0.46198255634738816,0.03974304051262782,1.9982085084623906,0.6383725705786799,1.5914784603688805,-0.24142685574026068
1.8950645923614502,0.46198255634738816,0.03974304051262782,1.9981782259126422,0.6383422880289314,1.5914784603688805,-0.24139655435808074
1.9001390933990479,0.46198255634738816,0.03974304051262782,1.9982085084623906,0.6383422880289314,1.5914784603688805,-0.24136627180833226
1.9051458835601807,0.46198255634738816,0.03974304051262782,1.9982085084623906,0.6383725705786799,1.591448177819132,-0.24136627180833226
1.910127878189087,0.46198255634738816,0.03974304051262782,1.9982085084623906,0.6383725705786799,1.591448177819132,-0.24136627180833226
1.9151279926300049,0.46198255634738816,0.03977333247859204,1.9982085084623906,0.6383422880289314,1.5914784603688805,-0.24139655435808074
1.9201326370239258,0.46198255634738816,0.03977333247859204,1.9981782259126422,0.6383422880289314,1.5915087429186292,-0.24139655435808074
1.9251344203948975,0.46198255634738816,0.03977333247859204,1.9981782259126422,0.6383422880289314,1.5915087429186292,-0.24139655435808074
1.9301538467407227,0.46195223613277675,0.03980362444455627,1.9982085084623906,0.6383725705786799,1.5914784603688805,-0.24139655435808074
1.9351346492767334,0.46198255634738816,0.03977333247859204,1.9981782259126422,0.6383725705786799,1.591448177819132,-0.24139655435808074
1.9401366710662842,0.46195223613277675,0.03974304051262782,1.9982085084623906,0.6383725705786799,1.5914784603688805,-0.24139655435808074
1.9451301097869873,0.46195223613277675,0.03974304051262782,1.9982085084623906,0.6383725705786799,1.5914784603688805,-0.24139655435808074
1.950139045715332,0.4619219535830283,0.03977333247859204,1.9982085084623906,0.6383422880289314,1.5914784603688805,-0.24136627180833226
1.955064296722412,0.46198255634738816,0.03980362444455627,1.9981479433628937,0.6384028531284285,1.5914784603688805,-0.24136627180833226
1.9601852893829346,0.46198255634738816,0.03980362444455627,1.9981479433628937,0.6384028531284285,1.5914784603688805,-0.24136627180833226
1.9651293754577637,0.46198255634738816,0.03974304051262782,1.9982387910121393,0.6383725705786799,1.5914784603688805,-0.24139655435808074
1.9701294898986816,0.46198255634738816,0.03980362444455627,1.9982085084623906,0.6383725705786799,1.5914784603688805,-0.24142685574026068
1.9751322269439697,0.46198255634738816,0.03977333247859204,1.9982085084623906,0.6383422880289314,1.5914784603688805,-0.24139655435808074
1.9801509380340576,0.46198255634738816,0.03977333247859204,1.9982085084623906,0.6383422880289314,1.5914784603688805,-0.24139655435808074
1.9851295948028564,0.46198255634738816,0.03974304051262782,1.9981782259126422,0.6383725705786799,1.5914784603688805,-0.24136627180833226
1.9901492595672607,0.46195223613277675,0.03977333247859204,1.9981782259126422,0.6383422880289314,1.5914784603688805,-0.24136627180833226
1.9950697422027588,0.46195223613277675,0.03977333247859204,1.9981782259126422,0.6383422880289314,1.5914784603688805,-0.24136627180833226
2.000141143798828,0.46198255634738816,0.03977333247859204,1.9981782259126422,0.6383725705786799,1.591448177819132,-0.24136627180833226
2.0051281452178955,0.46195223613277675,0.03974304051262782,1.9982085084623906,0.6383422880289314,1.5915087429186292,-0.24139655435808074
2.010141611099243,0.46195223613277675,0.03977333247859204,1.9982085084623906,0.6383422880289314,1.5914784603688805,-0.24136627180833226
2.0150699615478516,0.46195223613277675,0.03977333247859204,1.9982085084623906,0.6383422880289314,1.5914784603688805,-0.24136627180833226
2.020092487335205,0.46198255634738816,0.03977333247859204,1.9981782259126422,0.6383725705786799,1.5914784603688805,-0.24139655435808074
2.0251564979553223,0.4620128388971367,0.03977333247859204,1.9982085084623906,0.6383725705786799,1.5914784603688805,-0.24142685574026068
2.0301458835601807,0.46195223613277675,0.03977333247859204,1.9981782259126422,0.6383422880289314,1.591448177819132,-0.24136627180833226
2.0350639820098877,0.46195223613277675,0.03977333247859204,1.9981782259126422,0.6383422880289314,1.591448177819132,-0.24136627180833226
2.040086507797241,0.46198255634738816,0.03977333247859204,1.9982085084623906,0.6383725705786799,1.591448177819132,-0.24142685574026068
2.0451393127441406,0.4620128388971367,0.03977333247859204,1.9981782259126422,0.6383422880289314,1.5914784603688805,-0.24139655435808074
2.0501413345336914,0.4620128388971367,0.03977333247859204,1.9981782259126422,0.6383422880289314,1.5914784603688805,-0.24139655435808074
2.0551273822784424,0.46198255634738816,0.03974304051262782,1.9981782259126422,0.6383422880289314,1.5914784603688805,-0.24136627180833226
2.0601258277893066,0.46198255634738816,0.03974304051262782,1.9981479433628937,0.6383422880289314,1.5914784603688805,-0.24139655435808074
2.0651462078094482,0.4620128388971367,0.03977333247859204,1.9981782259126422,0.6383422880289314,1.5914784603688805,-0.24136627180833226
2.070146083831787,0.4620128388971367,0.03977333247859204,1.9981782259126422,0.6383422880289314,1.5914784603688805,-0.24136627180833226
2.0751514434814453,0.46198255634738816,0.03974304051262782,1.9981782259126422,0.6383725705786799,1.5914784603688805,-0.24136627180833226
2.0801382064819336,0.46195223613277675,0.03977333247859204,1.9981479433628937,0.6383725705786799,1.5914784603688805,-0.24136627180833226
2.0851378440856934,0.46195223613277675,0.03977333247859204,1.9981479433628937,0.6383725705786799,1.5914784603688805,-0.24136627180833226
2.0901293754577637,0.4619219535830283,0.03977333247859204,1.9981782259126422,0.6383422880289314,1.5914784603688805,-0.24142685574026068
2.0951263904571533,0.46195223613277675,0.03977333247859204,1.9981782259126422,0.6383725705786799,1.5914784603688805,-0.24136627180833226
2.1001217365264893,0.46195223613277675,0.03980362444455627,1.9982085084623906,0.6383422880289314,1.5914784603688805,-0.24136627180833226
2.1051266193389893,0.46195223613277675,0.03980362444455627,1.9982085084623906,0.6383422880289314,1.5914784603688805,-0.24136627180833226
2.1101267337799072,0.46195223613277675,0.0397127485466636,1.9981782259126422,0.6383422880289314,1.5914784603688805,-0.24136627180833226
2.1151278018951416,0.4619219535830283,0.03977333247859204,1.9981782259126422,0.6383725705786799,1.5914784603688805,-0.24136627180833226
2.120081901550293,0.4619219535830283,0.03977333247859204,1.9981782259126422,0.6383725705786799,1.5914784603688805,-0.24136627180833226
2.1251296997070312,0.46195223613277675,0.03977333247859204,1.9981479433628937,0.6383422880289314,1.5914784603688805,-0.24139655435808074
2.1301279067993164,0.46198255634738816,0.03977333247859204,1.9981479433628937,0.6383725705786799,1.5914784603688805,-0.24139655435808074
2.1350650787353516,0.46198255634738816,0.03977333247859204,1.9981479433628937,0.6383725705786799,1.5914784603688805,-0.24139655435808074
2.1401374340057373,0.46198255634738816,0.03977333247859204,1.9981479433628937,0.6383725705786799,1.5914784603688805,-0.24139655435808074
2.14514422416687,0.46198255634738816,0.03977333247859204,1.9981782259126422,0.6383422880289314,1.5914784603688805,-0.24139655435808074
2.150134563446045,0.46195223613277675,0.03974304051262782,1.9981479433628937,0.6383422880289314,1.5914784603688805,-0.24139655435808074
2.1551291942596436,0.46195223613277675,0.03974304051262782,1.9981479433628937,0.6383422880289314,1.5914784603688805,-0.24139655435808074
2.1601388454437256,0.46195223613277675,0.03977333247859204,1.9981176608131452,0.6383422880289314,1.5914784603688805,-0.24136627180833226
2.1651265621185303,0.46195223613277675,0.03977333247859204,1.9981782259126422,0.6383725705786799,1.5914784603688805,-0.24142685574026068
2.170090436935425,0.4620128388971367,0.03977333247859204,1.9981176608131452,0.6383725705786799,1.5914784603688805,-0.24139655435808074
2.175063371658325,0.4620128388971367,0.03977333247859204,1.9981176608131452,0.6383725705786799,1.5914784603688805,-0.24139655435808074
2.180128335952759,0.46198255634738816,0.03974304051262782,1.9981479433628937,0.6383422880289314,1.5914784603688805,-0.24139655435808074
2.185155153274536,0.46195223613277675,0.0397127485466636,1.9981479433628937,0.6383725705786799,1.591448177819132,-0.24139655435808074
2.190126895904541,0.46195223613277675,0.0397127485466636,1.9981479433628937,0.6383725705786799,1.591448177819132,-0.24139655435808074
2.195145845413208,0.46195223613277675,0.03977333247859204,1.9981176608131452,0.6383725705786799,1.5914784603688805,-0.24139655435808074
2.2001378536224365,0.46198255634738816,0.03974304051262782,1.9981176608131452,0.6383725705786799,1.5914784603688805,-0.24136627180833226
2.205129623413086,0.46195223613277675,0.03977333247859204,1.9981176608131452,0.6383725705786799,1.5914784603688805,-0.24139655435808074
2.2101407051086426,0.46195223613277675,0.03977333247859204,1.9981176608131452,0.6383725705786799,1.5914784603688805,-0.24139655435808074
2.215068817138672,0.46195223613277675,0.0397127485466636,1.9981176608131452,0.6383725705786799,1.5914784603688805,-0.24136627180833226
2.2201485633850098,0.46198255634738816,0.03977333247859204,1.9981176608131452,0.6383422880289314,1.591448177819132,-0.24142685574026068
2.225127696990967,0.46198255634738816,0.03977333247859204,1.9981479433628937,0.6383725705786799,1.5914784603688805,-0.24136627180833226
2.2301337718963623,0.46198255634738816,0.03977333247859204,1.9981479433628937,0.6383725705786799,1.5914784603688805,-0.24136627180833226
2.2351746559143066,0.46198255634738816,0.03977333247859204,1.9981176608131452,0.6383422880289314,1.5914784603688805,-0.24142685574026068
2.2401609420776367,0.46198255634738816,0.03977333247859204,1.9980873782633968,0.6383725705786799,1.5914784603688805,-0.24136627180833226
2.245145082473755,0.46198255634738816,0.03977333247859204,1.9980873782633968,0.6383725705786799,1.5914784603688805,-0.24136627180833226
2.250126361846924,0.46195223613277675,0.03977333247859204,1.9980873782633968,0.6383725705786799,1.5914784603688805,-0.24136627180833226
2.25506329536438,0.46195223613277675,0.03977333247859204,1.9980873782633968,0.6383725705786799,1.5914784603688805,-0.24136627180833226
2.2601609230041504,0.46195223613277675,0.03977333247859204,1.9980873782633968,0.6383725705786799,1.591448177819132,-0.24139655435808074
2.2651381492614746,0.46198255634738816,0.03980362444455627,1.9981176608131452,0.6383422880289314,1.5914784603688805,-0.24136627180833226
2.2701282501220703,0.46195223613277675,0.03977333247859204,1.9981176608131452,0.6384028531284285,1.5915087429186292,-0.24136627180833226
2.2751379013061523,0.46195223613277675,0.03977333247859204,1.9981176608131452,0.6384028531284285,1.5915087429186292,-0.24136627180833226
2.2801358699798584,0.46198255634738816,0.03974304051262782,1.9980873782633968,0.6383725705786799,1.5914784603688805,-0.24136627180833226
2.285146713256836,0.4620128388971367,0.03974304051262782,1.9980873782633968,0.6383725705786799,1.5914784603688805,-0.24136627180833226
2.2901296615600586,0.46198255634738816,0.03977333247859204,1.9980570957136483,0.6383725705786799,1.5914784603688805,-0.24139655435808074
2.2951369285583496,0.46198255634738816,0.03977333247859204,1.9980570957136483,0.6383725705786799,1.5914784603688805,-0.24139655435808074
2.300126314163208,0.46198255634738816,0.03977333247859204,1.9980570957136483,0.6383422880289314,1.5914784603688805,-0.24139655435808074
2.3051271438598633,0.46198255634738816,0.03977333247859204,1.9980570957136483,0.6383422880289314,1.5914784603688805,-0.24136627180833226
2.310079336166382,0.46198255634738816,0.03977333247859204,1.9980570957136483,0.6383422880289314,1.5914784603688805,-0.24136627180833226
2.3151302337646484,0.46198255634738816,0.03974304051262782,1.9980268131638996,0.6383422880289314,1.5914784603688805,-0.24142685574026068
2.320096492767334,0.46198255634738816,0.03974304051262782,1.9980570957136483,0.6383725705786799,1.5914784603688805,-0.24136627180833226
2.325131416320801,0.4620128388971367,0.03974304051262782,1.9980570957136483,0.6383725705786799,1.5914784603688805,-0.24139655435808074
2.330127239227295,0.4620128388971367,0.03974304051262782,1.9980570957136483,0.6383725705786799,1.5914784603688805,-0.24139655435808074
2.3350629806518555,0.46195223613277675,0.03974304051262782,1.9980570957136483,0.6383725705786799,1.5915087429186292,-0.24136627180833226
2.3401222229003906,0.46198255634738816,0.03974304051262782,1.9980268131638996,0.6383725705786799,1.5914784603688805,-0.24142685574026068
2.345125675201416,0.46198255634738816,0.03974304051262782,1.9980268131638996,0.6383725705786799,1.5914784603688805,-0.24142685574026068
2.3501322269439697,0.46198255634738816,0.03974304051262782,1.9979965306141512,0.6383725705786799,1.5914784603688805,-0.24136627180833226
2.3550634384155273,0.46198255634738816,0.03977333247859204,1.9979965306141512,0.6383725705786799,1.5914784603688805,-0.24136627180833226
2.3601419925689697,0.46198255634738816,0.03974304051262782,1.9979965306141512,0.6383725705786799,1.5914784603688805,-0.24139655435808074
2.365133285522461,0.46198255634738816,0.03974304051262782,1.9979965306141512,0.6383725705786799,1.5914784603688805,-0.24139655435808074
2.3701319694519043,0.46198255634738816,0.03974304051262782,1.9979965306141512,0.6383725705786799,1.5914784603688805,-0.24136627180833226
2.375140428543091,0.46198255634738816,0.03974304051262782,1.9979965306141512,0.6383725705786799,1.5914784603688805,-0.24142685574026068
2.380126476287842,0.46198255634738816,0.03974304051262782,1.9979965306141512,0.6383725705786799,1.5914784603688805,-0.24142685574026068
2.3851399421691895,0.46198255634738816,0.03977333247859204,1.9980268131638996,0.6383725705786799,1.5914784603688805,-0.24139655435808074
2.390127182006836,0.46198255634738816,0.03974304051262782,1.9979965306141512,0.6383725705786799,1.591448177819132,-0.24139655435808074
2.395122528076172,0.46195223613277675,0.03977333247859204,1.9980268131638996,0.6383422880289314,1.591448177819132,-0.24136627180833226
2.4001517295837402,0.46195223613277675,0.03977333247859204,1.9980268131638996,0.6383422880289314,1.591448177819132,-0.24136627180833226
2.4051616191864014,0.46195223613277675,0.03974304051262782,1.9979965306141512,0.6383725705786799,1.5914784603688805,-0.24136627180833226
2.41015625,0.46198255634738816,0.03977333247859204,1.9979965306141512,0.6383725705786799,1.591448177819132,-0.24136627180833226
2.415062665939331,0.46198255634738816,0.03977333247859204,1.9979965306141512,0.6383725705786799,1.591448177819132,-0.24136627180833226
2.4201571941375732,0.46195223613277675,0.03974304051262782,1.9979965306141512,0.6383725705786799,1.5914784603688805,-0.24136627180833226
2.4251296520233154,0.46198255634738816,0.03977333247859204,1.9979965306141512,0.6383422880289314,1.5914784603688805,-0.24136627180833226
2.4301400184631348,0.46195223613277675,0.03977333247859204,1.9980268131638996,0.6383725705786799,1.5914784603688805,-0.24136627180833226
2.4351236820220947,0.46195223613277675,0.03977333247859204,1.9980268131638996,0.6383725705786799,1.5914784603688805,-0.24136627180833226
2.440135955810547,0.46198255634738816,0.03977333247859204,1.9979965306141512,0.6383422880289314,1.5914784603688805,-0.24136627180833226
2.4451398849487305,0.46198255634738816,0.03974304051262782,1.9979965306141512,0.6383725705786799,1.591448177819132,-0.24136627180833226
2.4501280784606934,0.4620128388971367,0.0397127485466636,1.9979965306141512,0.6383422880289314,1.5914784603688805,-0.24139655435808074
2.4551239013671875,0.4620128388971367,0.0397127485466636,1.9979965306141512,0.6383422880289314,1.5914784603688805,-0.24139655435808074
2.4601306915283203,0.46198255634738816,0.03977333247859204,1.9979965306141512,0.6383725705786799,1.5914784603688805,-0.24136627180833226
2.465149164199829,0.46195223613277675,0.03974304051262782,1.9979965306141512,0.6383725705786799,1.5914784603688805,-0.24139655435808074
2.470125913619995,0.46195223613277675,0.03974304051262782,1.9979965306141512,0.6383725705786799,1.5914784603688805,-0.24139655435808074
2.4750688076019287,0.46198255634738816,0.03974304051262782,1.9979662480644027,0.6383725705786799,1.5914784603688805,-0.24139655435808074
2.4801278114318848,0.46195223613277675,0.03974304051262782,1.9979965306141512,0.6383725705786799,1.5915087429186292,-0.24139655435808074
2.485137939453125,0.46198255634738816,0.03977333247859204,1.9979965306141512,0.6383725705786799,1.5914784603688805,-0.24136627180833226
2.4901249408721924,0.46198255634738816,0.03977333247859204,1.9979965306141512,0.6383725705786799,1.5914784603688805,-0.24136627180833226
2.4951393604278564,0.46198255634738816,0.03974304051262782,1.9979965306141512,0.6383422880289314,1.5914784603688805,-0.24139655435808074
2.500147581100464,0.46198255634738816,0.03974304051262782,1.9979965306141512,0.6383725705786799,1.5915087429186292,-0.24139655435808074
2.5051259994506836,0.46198255634738816,0.03974304051262782,1.9979965306141512,0.6383725705786799,1.5915087429186292,-0.24139655435808074
2.5101304054260254,0.46195223613277675,0.03974304051262782,1.9979965306141512,0.6383422880289314,1.591448177819132,-0.24142685574026068
2.5150654315948486,0.46198255634738816,0.03977333247859204,1.9979965306141512,0.6383422880289314,1.5914784603688805,-0.24142685574026068
2.520083427429199,0.46195223613277675,0.03974304051262782,1.9979965306141512,0.6383422880289314,1.5914784603688805,-0.24142685574026068
2.5251760482788086,0.46195223613277675,0.03974304051262782,1.9979965306141512,0.6383422880289314,1.5914784603688805,-0.24142685574026068
2.530130624771118,0.46198255634738816,0.03974304051262782,1.9979662480644027,0.6383725705786799,1.591448177819132,-0.24136627180833226
2.5350394248962402,0.46198255634738816,0.0397127485466636,1.9979965306141512,0.6383422880289314,1.5914784603688805,-0.24142685574026068
2.5401248931884766,0.46198255634738816,0.0397127485466636,1.9979965306141512,0.6383422880289314,1.5914784603688805,-0.24142685574026068
2.5451254844665527,0.46195223613277675,0.03974304051262782,1.9979965306141512,0.6383422880289314,1.591448177819132,-0.24139655435808074
2.5501294136047363,0.46195223613277675,0.03974304051262782,1.9979662480644027,0.6383422880289314,1.5914784603688805,-0.24139655435808074
2.5551552772521973,0.46198255634738816,0.03977333247859204,1.9979662480644027,0.6383725705786799,1.5914784603688805,-0.24136627180833226
2.560129404067993,0.46198255634738816,0.03977333247859204,1.9979662480644027,0.6383725705786799,1.5914784603688805,-0.24136627180833226
2.5651280879974365,0.46198255634738816,0.03974304051262782,1.9979359655146542,0.6383422880289314,1.5915087429186292,-0.24142685574026068
2.57014799118042,0.46195223613277675,0.03977333247859204,1.9979662480644027,0.6383422880289314,1.5914784603688805,-0.24136627180833226
2.5751214027404785,0.46195223613277675,0.03977333247859204,1.9979662480644027,0.6383422880289314,1.5914784603688805,-0.24136627180833226
2.580145835876465,0.46195223613277675,0.03977333247859204,1.9979359655146542,0.6383422880289314,1.5914784603688805,-0.24139655435808074
2.58512806892395,0.4619219535830283,0.0397127485466636,1.9979359655146542,0.6383725705786799,1.591448177819132,-0.24136627180833226
2.5901296138763428,0.46195223613277675,0.03977333247859204,1.9979359655146542,0.6383725705786799,1.5914784603688805,-0.24142685574026068
2.595125436782837,0.46195223613277675,0.03977333247859204,1.9979359655146542,0.6383725705786799,1.5914784603688805,-0.24142685574026068
2.600140333175659,0.46198255634738816,0.03977333247859204,1.9979662480644027,0.6383725705786799,1.5914784603688805,-0.24136627180833226
2.6051440238952637,0.46198255634738816,0.03977333247859204,1.9979359655146542,0.6383422880289314,1.5914784603688805,-0.24142685574026068
2.610128879547119,0.46198255634738816,0.03977333247859204,1.9979359655146542,0.6383422880289314,1.5914784603688805,-0.24142685574026068
2.6150636672973633,0.46195223613277675,0.0397127485466636,1.9979662480644027,0.6383725705786799,1.5915087429186292,-0.24136627180833226
2.620133638381958,0.46198255634738816,0.03974304051262782,1.9979056829649058,0.6383422880289314,1.591448177819132,-0.24139655435808074
2.625127077102661,0.46195223613277675,0.03974304051262782,1.9979359655146542,0.6383725705786799,1.5914784603688805,-0.24139655435808074
2.630129814147949,0.46195223613277675,0.03974304051262782,1.9979359655146542,0.6383725705786799,1.5914784603688805,-0.24139655435808074
2.6351444721221924,0.46195223613277675,0.03977333247859204,1.9979359655146542,0.6383422880289314,1.5914784603688805,-0.24136627180833226
2.6401448249816895,0.46198255634738816,0.03974304051262782,1.9979662480644027,0.6383422880289314,1.591448177819132,-0.24139655435808074
2.645130157470703,0.46198255634738816,0.03974304051262782,1.9979662480644027,0.6383422880289314,1.591448177819132,-0.24139655435808074
2.6501352787017822,0.46198255634738816,0.03977333247859204,1.9979359655146542,0.6383725705786799,1.5914784603688805,-0.24136627180833226
2.655134439468384,0.46195223613277675,0.03977333247859204,1.9979359655146542,0.6383422880289314,1.5914784603688805,-0.24139655435808074
2.6601226329803467,0.4620128388971367,0.03977333247859204,1.9979056829649058,0.6383725705786799,1.5914784603688805,-0.24136627180833226
2.665137529373169,0.4620128388971367,0.03977333247859204,1.9979056829649058,0.6383725705786799,1.5914784603688805,-0.24136627180833226
2.670128583908081,0.46198255634738816,0.03977333247859204,1.9979056829649058,0.6383725705786799,1.5915087429186292,-0.24139655435808074
2.6751346588134766,0.46198255634738816,0.03974304051262782,1.997875400415157,0.6383422880289314,1.5914784603688805,-0.24136627180833226
2.6801230907440186,0.46198255634738816,0.03974304051262782,1.997875400415157,0.6383422880289314,1.5914784603688805,-0.24136627180833226
2.685126543045044,0.46195223613277675,0.03977333247859204,1.9979056829649058,0.6383725705786799,1.5915087429186292,-0.24139655435808074
2.6901557445526123,0.46198255634738816,0.03974304051262782,1.9979056829649058,0.6383422880289314,1.591448177819132,-0.24139655435808074
2.6951351165771484,0.46195223613277675,0.03974304051262782,1.9979056829649058,0.6384028531284285,1.591448177819132,-0.24139655435808074
2.7001290321350098,0.46195223613277675,0.03974304051262782,1.9979056829649058,0.6384028531284285,1.591448177819132,-0.24139655435808074
2.7051398754119873,0.46198255634738816,0.03977333247859204,1.9979056829649058,0.6383725705786799,1.5914784603688805,-0.24142685574026068
2.7101433277130127,0.46195223613277675,0.03974304051262782,1.9979056829649058,0.6383725705786799,1.591448177819132,-0.24139655435808074
2.715128183364868,0.46195223613277675,0.03974304051262782,1.9979056829649058,0.6383725705786799,1.591448177819132,-0.24139655435808074
2.720083475112915,0.46195223613277675,0.03980362444455627,1.997875400415157,0.6383422880289314,1.5914784603688805,-0.24139655435808074
2.725142478942871,0.46198255634738816,0.03974304051262782,1.9979056829649058,0.6383725705786799,1.591448177819132,-0.24139655435808074
2.73014760017395,0.46195223613277675,0.03977333247859204,1.9979056829649058,0.6383725705786799,1.5914784603688805,-0.24136627180833226
2.7350616455078125,0.46195223613277675,0.03977333247859204,1.9979056829649058,0.6383725705786799,1.5914784603688805,-0.24136627180833226
2.7401397228240967,0.46195223613277675,0.03980362444455627,1.9979056829649058,0.6384028531284285,1.591448177819132,-0.24142685574026068
2.745151996612549,0.46198255634738816,0.03977333247859204,1.9979056829649058,0.6383725705786799,1.5914784603688805,-0.24139655435808074
2.7501392364501953,0.46198255634738816,0.03977333247859204,1.9979056829649058,0.6383725705786799,1.5914784603688805,-0.24139655435808074
2.7550671100616455,0.46198255634738816,0.03977333247859204,1.997875400415157,0.6383422880289314,1.5914784603688805,-0.24136627180833226
2.760082244873047,0.4620128388971367,0.03977333247859204,1.9979056829649058,0.6383422880289314,1.5914784603688805,-0.24139655435808074
2.765122890472412,0.46195223613277675,0.03977333247859204,1.997875400415157,0.6383422880289314,1.5914784603688805,-0.24139655435808074
2.7701644897460938,0.46195223613277675,0.03977333247859204,1.997875400415157,0.6383422880289314,1.5914784603688805,-0.24139655435808074
2.7750635147094727,0.46198255634738816,0.03974304051262782,1.9979056829649058,0.6383725705786799,1.5914784603688805,-0.24136627180833226
2.780125379562378,0.46195223613277675,0.03977333247859204,1.997875400415157,0.6383725705786799,1.5914784603688805,-0.24139655435808074
2.7851288318634033,0.46195223613277675,0.03977333247859204,1.997875400415157,0.6383725705786799,1.5914784603688805,-0.24139655435808074
2.7901387214660645,0.46195223613277675,0.03977333247859204,1.997875400415157,0.6383725705786799,1.5914784603688805,-0.24139655435808074
2.795140504837036,0.46195223613277675,0.03980362444455627,1.997875400415157,0.6383725705786799,1.5914784603688805,-0.24139655435808074
2.8001255989074707,0.46195223613277675,0.03974304051262782,1.997875400415157,0.6383725705786799,1.5914784603688805,-0.24139655435808074
2.8051347732543945,0.46195223613277675,0.03974304051262782,1.997875400415157,0.6383725705786799,1.5914784603688805,-0.24139655435808074
2.8101651668548584,0.46198255634738816,0.03977333247859204,1.997875400415157,0.6383422880289314,1.5914784603688805,-0.24139655435808074
2.815154790878296,0.46195223613277675,0.03977333247859204,1.997875400415157,0.6383725705786799,1.5914784603688805,-0.24139655435808074
2.8201282024383545,0.46195223613277675,0.03977333247859204,1.997875400415157,0.6383725705786799,1.5914784603688805,-0.24139655435808074
2.8251242637634277,0.46198255634738816,0.03974304051262782,1.9978449672059573,0.6383725705786799,1.5914178952693836,-0.24142685574026068
2.8301210403442383,0.46198255634738816,0.03977333247859204,1.997875400415157,0.6383422880289314,1.5914784603688805,-0.24136627180833226
2.8350629806518555,0.46198255634738816,0.03974304051262782,1.9978449672059573,0.6383725705786799,1.5914784603688805,-0.24136627180833226
2.84012770652771,0.46198255634738816,0.03974304051262782,1.9978449672059573,0.6383725705786799,1.5914784603688805,-0.24136627180833226
2.8451499938964844,0.46198255634738816,0.03977333247859204,1.9978449672059573,0.6383422880289314,1.5915087429186292,-0.24136627180833226
2.8501319885253906,0.46198255634738816,0.03977333247859204,1.997875400415157,0.6383725705786799,1.5914784603688805,-0.24136627180833226
2.85506272315979,0.46198255634738816,0.03977333247859204,1.997875400415157,0.6383725705786799,1.5914784603688805,-0.24136627180833226
2.8600802421569824,0.46198255634738816,0.03974304051262782,1.997875400415157,0.6383422880289314,1.5914784603688805,-0.24136627180833226
2.8651227951049805,0.46195223613277675,0.03977333247859204,1.9978449672059573,0.6383725705786799,1.5915087429186292,-0.24139655435808074
2.8701257705688477,0.46198255634738816,0.03977333247859204,1.9978449672059573,0.6383725705786799,1.5914784603688805,-0.24139655435808074
2.8750627040863037,0.46198255634738816,0.03977333247859204,1.9978449672059573,0.6383725705786799,1.5914784603688805,-0.24139655435808074
2.8801229000091553,0.46195223613277675,0.03977333247859204,1.9978449672059573,0.6383725705786799,1.5914784603688805,-0.24136627180833226
2.8851208686828613,0.46195223613277675,0.03977333247859204,1.997875400415157,0.6383725705786799,1.591448177819132,-0.24136627180833226
2.8901350498199463,0.46195223613277675,0.03977333247859204,1.997875400415157,0.6383725705786799,1.5914784603688805,-0.24136627180833226
2.895031690597534,0.46195223613277675,0.03977333247859204,1.997875400415157,0.6383725705786799,1.5914784603688805,-0.24136627180833226
2.900061845779419,0.46198255634738816,0.03977333247859204,1.9978146846562086,0.6383725705786799,1.5915087429186292,-0.24136627180833226
2.905155658721924,0.4619219535830283,0.03974304051262782,1.9978449672059573,0.6383422880289314,1.5914784603688805,-0.24136627180833226
2.910151958465576,0.4619219535830283,0.03974304051262782,1.9978449672059573,0.6383422880289314,1.5914784603688805,-0.24136627180833226
2.9151339530944824,0.46198255634738816,0.03980362444455627,1.9978449672059573,0.6383422880289314,1.5914784603688805,-0.24139655435808074
2.9200809001922607,0.46195223613277675,0.0397127485466636,1.9978146846562086,0.6383725705786799,1.5914784603688805,-0.24133597042615232
2.925154209136963,0.46198255634738816,0.03977333247859204,1.997875400415157,0.6383725705786799,1.591448177819132,-0.24136627180833226
2.9301228523254395,0.46198255634738816,0.03977333247859204,1.997875400415157,0.6383725705786799,1.591448177819132,-0.24136627180833226
2.9350626468658447,0.46198255634738816,0.03977333247859204,1.9978449672059573,0.6383725705786799,1.5914784603688805,-0.24139655435808074
2.94008731842041,0.46198255634738816,0.03974304051262782,1.9978449672059573,0.6383725705786799,1.5914784603688805,-0.24136627180833226
2.9451465606689453,0.46198255634738816,0.03974304051262782,1.997875400415157,0.6383725705786799,1.5914784603688805,-0.24139655435808074
2.950143814086914,0.46198255634738816,0.03974304051262782,1.997875400415157,0.6383725705786799,1.5914784603688805,-0.24139655435808074
2.95514178276062,0.46198255634738816,0.03977333247859204,1.9978449672059573,0.6383725705786799,1.5915087429186292,-0.24136627180833226
2.960136651992798,0.46198255634738816,0.03977333247859204,1.9978449672059573,0.6383422880289314,1.591448177819132,-0.24139655435808074
2.965147018432617,0.46195223613277675,0.03974304051262782,1.9978449672059573,0.6383725705786799,1.5914784603688805,-0.24139655435808074
2.970139741897583,0.46195223613277675,0.03977333247859204,1.9978146846562086,0.6383725705786799,1.5914784603688805,-0.24136627180833226
2.9750630855560303,0.46195223613277675,0.03977333247859204,1.9978146846562086,0.6383725705786799,1.5914784603688805,-0.24136627180833226
2.980146646499634,0.4619219535830283,0.03977333247859204,1.9978146846562086,0.6383725705786799,1.5914784603688805,-0.24136627180833226
2.9851605892181396,0.46198255634738816,0.03977333247859204,1.9978146846562086,0.6383725705786799,1.5914784603688805,-0.24139655435808074
2.990142822265625,0.46195223613277675,0.03977333247859204,1.9978449672059573,0.6383422880289314,1.591448177819132,-0.24139655435808074
2.9951374530792236,0.46195223613277675,0.03977333247859204,1.9978146846562086,0.6383422880289314,1.5914784603688805,-0.24139655435808074
3.0001542568206787,0.46195223613277675,0.03977333247859204,1.9978146846562086,0.6383422880289314,1.5914784603688805,-0.24139655435808074
3.005143642425537,0.46198255634738816,0.03977333247859204,1.9978146846562086,0.6383725705786799,1.5914784603688805,-0.24139655435808074
3.010154962539673,0.46195223613277675,0.03980362444455627,1.9978449672059573,0.6383725705786799,1.5914784603688805,-0.24142685574026068
3.0150628089904785,0.46195223613277675,0.03980362444455627,1.9978449672059573,0.6383725705786799,1.5914784603688805,-0.24142685574026068
3.0200817584991455,0.46198255634738816,0.03974304051262782,1.9978146846562086,0.6384028531284285,1.5914784603688805,-0.24139655435808074
3.025149345397949,0.46198255634738816,0.03980362444455627,1.9978146846562086,0.6383725705786799,1.5914784603688805,-0.24139655435808074
3.0301342010498047,0.46198255634738816,0.03974304051262782,1.9978146846562086,0.6383725705786799,1.5914784603688805,-0.24139655435808074
3.0350639820098877,0.46198255634738816,0.03974304051262782,1.9978146846562086,0.6383725705786799,1.5914784603688805,-0.24139655435808074
3.040081262588501,0.46195223613277675,0.03980362444455627,1.9977844021064601,0.6383725705786799,1.5914784603688805,-0.24139655435808074
3.0451412200927734,0.46198255634738816,0.03974304051262782,1.9977844021064601,0.6383725705786799,1.591448177819132,-0.24139655435808074
3.0501601696014404,0.46198255634738816,0.03974304051262782,1.9977844021064601,0.6383725705786799,1.591448177819132,-0.24139655435808074
3.0551257133483887,0.46195223613277675,0.03977333247859204,1.9978146846562086,0.6383422880289314,1.5914784603688805,-0.24133597042615232
3.0601518154144287,0.46195223613277675,0.03980362444455627,1.9977844021064601,0.6383725705786799,1.5914784603688805,-0.24139655435808074
3.0651278495788574,0.46198255634738816,0.03977333247859204,1.9977844021064601,0.6383725705786799,1.591448177819132,-0.24142685574026068
3.070164203643799,0.46198255634738816,0.03977333247859204,1.9977844021064601,0.6383725705786799,1.591448177819132,-0.24142685574026068
3.0751407146453857,0.46195223613277675,0.03977333247859204,1.9978146846562086,0.6383725705786799,1.5914784603688805,-0.24139655435808074
3.080172300338745,0.46198255634738816,0.03977333247859204,1.9977541195567117,0.6383725705786799,1.5915087429186292,-0.24136627180833226
3.085123300552368,0.46198255634738816,0.03977333247859204,1.9977541195567117,0.6383725705786799,1.5915087429186292,-0.24136627180833226
3.090134859085083,0.46195223613277675,0.0397127485466636,1.9977844021064601,0.6383725705786799,1.5914784603688805,-0.24139655435808074
3.0951318740844727,0.46195223613277675,0.03977333247859204,1.9977844021064601,0.6383725705786799,1.5914784603688805,-0.24136627180833226
3.1001317501068115,0.46198255634738816,0.03980362444455627,1.9977541195567117,0.6383725705786799,1.5914784603688805,-0.24139655435808074
3.1051394939422607,0.46198255634738816,0.03980362444455627,1.9977541195567117,0.6383725705786799,1.5914784603688805,-0.24139655435808074
3.1101720333099365,0.46198255634738816,0.03977333247859204,1.9977844021064601,0.6383725705786799,1.5914784603688805,-0.24139655435808074
3.1150667667388916,0.46198255634738816,0.03974304051262782,1.9977844021064601,0.6383725705786799,1.591448177819132,-0.24139655435808074
3.1200857162475586,0.46195223613277675,0.03977333247859204,1.9977541195567117,0.6384028531284285,1.5914784603688805,-0.24139655435808074
3.1251208782196045,0.46195223613277675,0.03977333247859204,1.9977541195567117,0.6384028531284285,1.5914784603688805,-0.24139655435808074
3.1301629543304443,0.46195223613277675,0.03977333247859204,1.9977541195567117,0.6383725705786799,1.5914784603688805,-0.24136627180833226
3.1350576877593994,0.46195223613277675,0.03977333247859204,1.9977844021064601,0.6383725705786799,1.5914784603688805,-0.24136627180833226
3.140144109725952,0.46195223613277675,0.03977333247859204,1.9977844021064601,0.6383725705786799,1.5914784603688805,-0.24136627180833226
3.145158052444458,0.46198255634738816,0.03977333247859204,1.9977541195567117,0.6383422880289314,1.5914784603688805,-0.24136627180833226
3.1501340866088867,0.46195223613277675,0.03974304051262782,1.9977238370069632,0.6383725705786799,1.5915087429186292,-0.24139655435808074
3.155127763748169,0.46198255634738816,0.03974304051262782,1.9977238370069632,0.6383422880289314,1.591448177819132,-0.24139655435808074
3.1601240634918213,0.46198255634738816,0.03974304051262782,1.9977238370069632,0.6383422880289314,1.591448177819132,-0.24139655435808074
3.1651227474212646,0.46195223613277675,0.03974304051262782,1.9977541195567117,0.6383725705786799,1.591448177819132,-0.24136627180833226
3.1701505184173584,0.46195223613277675,0.03977333247859204,1.9977238370069632,0.6383725705786799,1.591448177819132,-0.24139655435808074
3.175062656402588,0.46195223613277675,0.03977333247859204,1.9977238370069632,0.6383725705786799,1.591448177819132,-0.24139655435808074
3.1801486015319824,0.46195223613277675,0.03974304051262782,1.9977541195567117,0.6383725705786799,1.5914784603688805,-0.24136627180833226
3.185124397277832,0.46195223613277675,0.03977333247859204,1.9977541195567117,0.6383725705786799,1.5914784603688805,-0.24142685574026068
3.1901354789733887,0.46198255634738816,0.03977333247859204,1.9977541195567117,0.6383725705786799,1.591448177819132,-0.24142685574026068
3.195150852203369,0.46198255634738816,0.03977333247859204,1.9977541195567117,0.6383725705786799,1.591448177819132,-0.24142685574026068
3.2001285552978516,0.46198255634738816,0.03974304051262782,1.9977238370069632,0.6384028531284285,1.5914784603688805,-0.24139655435808074
3.205148696899414,0.46195223613277675,0.03974304051262782,1.9977541195567117,0.6383422880289314,1.5914784603688805,-0.24142685574026068
3.2101552486419678,0.46198255634738816,0.03977333247859204,1.9976935544572147,0.6383725705786799,1.591448177819132,-0.24136627180833226
3.2150650024414062,0.46198255634738816,0.03977333247859204,1.9976935544572147,0.6383725705786799,1.591448177819132,-0.24136627180833226
3.2201240062713623,0.46198255634738816,0.03974304051262782,1.9977238370069632,0.6383725705786799,1.5914784603688805,-0.24139655435808074
3.225104331970215,0.46198255634738816,0.03977333247859204,1.9977238370069632,0.6383725705786799,1.5914784603688805,-0.24136627180833226
3.230153799057007,0.46195223613277675,0.03977333247859204,1.9977238370069632,0.6383725705786799,1.591448177819132,-0.24142685574026068
3.235063314437866,0.46195223613277675,0.03977333247859204,1.9977238370069632,0.6383725705786799,1.591448177819132,-0.24142685574026068
3.24013352394104,0.46198255634738816,0.03974304051262782,1.9976935544572147,0.6383725705786799,1.591448177819132,-0.24136627180833226
3.2451682090759277,0.46198255634738816,0.03977333247859204,1.9977238370069632,0.6383725705786799,1.5914784603688805,-0.24139655435808074
3.2501232624053955,0.46195223613277675,0.03977333247859204,1.9976935544572147,0.638312005479183,1.5914784603688805,-0.24136627180833226
3.255068778991699,0.46195223613277675,0.03977333247859204,1.9976935544572147,0.638312005479183,1.5914784603688805,-0.24136627180833226
3.260122299194336,0.46198255634738816,0.03974304051262782,1.9977238370069632,0.6383725705786799,1.5914784603688805,-0.24142685574026068
3.2651469707489014,0.46195223613277675,0.03974304051262782,1.9976935544572147,0.6383422880289314,1.5914784603688805,-0.24142685574026068
3.2701711654663086,0.46195223613277675,0.03974304051262782,1.9976935544572147,0.6383422880289314,1.5914784603688805,-0.24142685574026068
3.2750632762908936,0.46195223613277675,0.03977333247859204,1.9976935544572147,0.6383725705786799,1.5914784603688805,-0.24139655435808074
3.2801499366760254,0.46198255634738816,0.03977333247859204,1.997663271907466,0.6383422880289314,1.591448177819132,-0.24142685574026068
3.285120964050293,0.46198255634738816,0.03977333247859204,1.997663271907466,0.6383725705786799,1.5914784603688805,-0.24139655435808074
3.290133476257324,0.46198255634738816,0.03977333247859204,1.997663271907466,0.6383725705786799,1.5914784603688805,-0.24139655435808074
3.2951276302337646,0.46198255634738816,0.03974304051262782,1.9976329893577176,0.6383725705786799,1.5914784603688805,-0.24139655435808074
3.3001461029052734,0.46195223613277675,0.03977333247859204,1.997663271907466,0.6383725705786799,1.5914784603688805,-0.24142685574026068
3.3051412105560303,0.46195223613277675,0.03977333247859204,1.997663271907466,0.6383725705786799,1.5914784603688805,-0.24142685574026068
3.3100802898406982,0.46195223613277675,0.0397127485466636,1.9976329893577176,0.6383422880289314,1.5914784603688805,-0.24136627180833226
3.3150641918182373,0.46195223613277675,0.03977333247859204,1.9976329893577176,0.6383725705786799,1.5915087429186292,-0.24139655435808074
3.3201303482055664,0.46195223613277675,0.03977333247859204,1.9976027068079691,0.6384028531284285,1.5914784603688805,-0.24136627180833226
3.3250646591186523,0.46195223613277675,0.03977333247859204,1.9976027068079691,0.6384028531284285,1.5914784603688805,-0.24136627180833226
3.3301429748535156,0.46195223613277675,0.03974304051262782,1.9975421417084722,0.6384028531284285,1.5914784603688805,-0.24136627180833226
3.335052013397217,0.46195223613277675,0.03974304051262782,1.9975118591587238,0.6383422880289314,1.5914784603688805,-0.24139655435808074
3.3401408195495605,0.46195223613277675,0.03974304051262782,1.9975118591587238,0.6383422880289314,1.5914784603688805,-0.24139655435808074
3.3451247215270996,0.46195223613277675,0.03974304051262782,1.9974512940592266,0.6384028531284285,1.591448177819132,-0.24139655435808074
3.350083827972412,0.46195223613277675,0.03977333247859204,1.9974210115094782,0.6383422880289314,1.5914784603688805,-0.24139655435808074
3.355060577392578,0.46195223613277675,0.03974304051262782,1.9974210115094782,0.6383725705786799,1.591448177819132,-0.24139655435808074
3.3601300716400146,0.46195223613277675,0.03974304051262782,1.9974210115094782,0.6383725705786799,1.591448177819132,-0.24139655435808074
3.3651535511016846,0.46195223613277675,0.03977333247859204,1.9974210115094782,0.6383725705786799,1.591448177819132,-0.24139655435808074
3.3701469898223877,0.46195223613277675,0.03977333247859204,1.9973907289597297,0.6383725705786799,1.5914784603688805,-0.24139655435808074
3.3751261234283447,0.46195223613277675,0.03977333247859204,1.9973907289597297,0.6383725705786799,1.5914784603688805,-0.24139655435808074
3.380141496658325,0.46198255634738816,0.03974304051262782,1.9973602957505296,0.6383422880289314,1.5915087429186292,-0.24136627180833226
3.385154962539673,0.4619219535830283,0.03977333247859204,1.9973300132007812,0.6384028531284285,1.5914784603688805,-0.24139655435808074
3.3901302814483643,0.46198255634738816,0.03974304051262782,1.9973300132007812,0.6383725705786799,1.5914784603688805,-0.24133597042615232
3.395120859146118,0.46198255634738816,0.03974304051262782,1.9973300132007812,0.6383725705786799,1.5914784603688805,-0.24133597042615232
3.4001216888427734,0.46195223613277675,0.03977333247859204,1.9972997306510327,0.6383725705786799,1.5914784603688805,-0.24136627180833226
3.405130386352539,0.46195223613277675,0.03977333247859204,1.9972997306510327,0.6383725705786799,1.5914784603688805,-0.24136627180833226
3.4101691246032715,0.46195223613277675,0.03977333247859204,1.9972997306510327,0.6383725705786799,1.5914784603688805,-0.24136627180833226
3.4150633811950684,0.46195223613277675,0.03977333247859204,1.9972997306510327,0.6383422880289314,1.5914784603688805,-0.24139655435808074
3.4201302528381348,0.46198255634738816,0.03977333247859204,1.9972088830017871,0.6383725705786799,1.5914784603688805,-0.24139655435808074
3.4251456260681152,0.46195223613277675,0.03977333247859204,1.9972088830017871,0.6383725705786799,1.5914784603688805,-0.24136627180833226
3.4301323890686035,0.46195223613277675,0.03977333247859204,1.9972088830017871,0.6383725705786799,1.5914784603688805,-0.24136627180833226
3.4351210594177246,0.4619219535830283,0.03974304051262782,1.9971483179022902,0.6383725705786799,1.591448177819132,-0.24139655435808074
3.4401276111602783,0.46198255634738816,0.03977333247859204,1.9971180353525415,0.6383725705786799,1.5914784603688805,-0.24139655435808074
3.44508957862854,0.46198255634738816,0.03977333247859204,1.9971180353525415,0.6383725705786799,1.5914784603688805,-0.24139655435808074
3.450155258178711,0.46198255634738816,0.03977333247859204,1.997087752802793,0.6383725705786799,1.5914784603688805,-0.24139655435808074
3.455146312713623,0.46195223613277675,0.03977333247859204,1.997087752802793,0.6383725705786799,1.5914784603688805,-0.24136627180833226
3.460127353668213,0.46195223613277675,0.03977333247859204,1.9970271877032961,0.6383725705786799,1.5914784603688805,-0.24139655435808074
3.4651565551757812,0.46195223613277675,0.03977333247859204,1.9970271877032961,0.6383725705786799,1.5914784603688805,-0.24139655435808074
3.470151424407959,0.46195223613277675,0.03977333247859204,1.996966622603799,0.6383725705786799,1.5914784603688805,-0.24142685574026068
3.475065231323242,0.46195223613277675,0.03974304051262782,1.996906057504302,0.6383422880289314,1.5914784603688805,-0.24139655435808074
3.4801552295684814,0.46195223613277675,0.03974304051262782,1.996906057504302,0.6383422880289314,1.5914784603688805,-0.24139655435808074
3.4851529598236084,0.4619219535830283,0.03977333247859204,1.996875624295102,0.6383422880289314,1.591448177819132,-0.24142685574026068
3.4901227951049805,0.46195223613277675,0.03974304051262782,1.996875624295102,0.6383422880289314,1.5914784603688805,-0.24136627180833226
3.4951343536376953,0.46195223613277675,0.03977333247859204,1.996815059195605,0.6383725705786799,1.591448177819132,-0.24139655435808074
3.5001652240753174,0.46195223613277675,0.03977333247859204,1.996815059195605,0.6383725705786799,1.591448177819132,-0.24139655435808074
3.5051279067993164,0.46195223613277675,0.03980362444455627,1.9967847766458566,0.6383725705786799,1.591448177819132,-0.24142685574026068
3.5101478099823,0.46195223613277675,0.03977333247859204,1.996693928996611,0.6383725705786799,1.591448177819132,-0.24139655435808074
3.515068531036377,0.46195223613277675,0.03977333247859204,1.996693928996611,0.6383725705786799,1.591448177819132,-0.24139655435808074
3.5200798511505127,0.46195223613277675,0.03980362444455627,1.996693928996611,0.6383725705786799,1.5914784603688805,-0.24139655435808074
3.525146007537842,0.4619219535830283,0.03977333247859204,1.996693928996611,0.6383725705786799,1.5914784603688805,-0.24136627180833226
3.5301353931427,0.46195223613277675,0.03977333247859204,1.9966636464468626,0.6383725705786799,1.5914784603688805,-0.24142685574026068
3.535062789916992,0.46195223613277675,0.03977333247859204,1.9966636464468626,0.6383725705786799,1.5914784603688805,-0.24142685574026068
3.5401577949523926,0.4619219535830283,0.03977333247859204,1.996633363897114,0.6383725705786799,1.5914784603688805,-0.24139655435808074
3.545147657394409,0.46195223613277675,0.03980362444455627,1.996572798797617,0.6383725705786799,1.5914784603688805,-0.24139655435808074
3.5501410961151123,0.46195223613277675,0.03980362444455627,1.996572798797617,0.6383725705786799,1.5914784603688805,-0.24139655435808074
3.555063247680664,0.4619219535830283,0.03977333247859204,1.9964819511483716,0.6383422880289314,1.5914784603688805,-0.24142685574026068
3.5601727962493896,0.46195223613277675,0.03980362444455627,1.996451668598623,0.6383725705786799,1.5914784603688805,-0.24139655435808074
3.565150737762451,0.46195223613277675,0.03974304051262782,1.9963909528396746,0.6383725705786799,1.5914784603688805,-0.24136627180833226
3.5701606273651123,0.46195223613277675,0.03974304051262782,1.9963909528396746,0.6383725705786799,1.5914784603688805,-0.24136627180833226
3.5751497745513916,0.4619219535830283,0.03974304051262782,1.9963606702899261,0.6383725705786799,1.5914784603688805,-0.24136627180833226
3.5801239013671875,0.46195223613277675,0.03974304051262782,1.9963303877401775,0.6383725705786799,1.5914784603688805,-0.24142685574026068
3.5851516723632812,0.46195223613277675,0.03974304051262782,1.9963303877401775,0.6383725705786799,1.5914784603688805,-0.24142685574026068
3.5901434421539307,0.46198255634738816,0.03974304051262782,1.9962698226406805,0.6383725705786799,1.5914784603688805,-0.24136627180833226
3.5950629711151123,0.46195223613277675,0.03977333247859204,1.9962092575411836,0.6383422880289314,1.5914784603688805,-0.24139655435808074
3.6001245975494385,0.46195223613277675,0.03977333247859204,1.9962092575411836,0.6384028531284285,1.5914784603688805,-0.24136627180833226
3.605137348175049,0.46195223613277675,0.03977333247859204,1.9962092575411836,0.6384028531284285,1.5914784603688805,-0.24136627180833226
3.6101431846618652,0.46195223613277675,0.03977333247859204,1.996118409891938,0.6383725705786799,1.591448177819132,-0.24136627180833226
3.61506986618042,0.4619219535830283,0.03977333247859204,1.996118409891938,0.6383725705786799,1.591448177819132,-0.24142685574026068
3.6201212406158447,0.46198255634738816,0.03977333247859204,1.996057844792441,0.6383422880289314,1.5914784603688805,-0.24139655435808074
3.625145435333252,0.46198255634738816,0.03977333247859204,1.996057844792441,0.6383422880289314,1.5914784603688805,-0.24139655435808074
3.630155086517334,0.46198255634738816,0.03977333247859204,1.996057844792441,0.6383725705786799,1.5914784603688805,-0.24136627180833226
